;FLAVOR:Marlin
;TIME:973
;Filament used: 0.946619m
;Layer height: 0.2
;Generated with Cura_SteamEngine 3.6.0
M140 S70
M105
M190 S70
M104 S210
M105
M109 S210
M82 ;absolute extrusion mode
G21 ;metric values
G90 ;absolute positioning
M82 ;set extruder to absolute mode
M107 ;start with the fan off
G28 X0 Y0 ;move X/Y to min endstops
G28 Z0 ;move Z to min endstops
G1 Z15.0 F100 ;move the platform down 15mm
G92 E0 ;zero the extruded length
G1 F200 E3 ;extrude 3mm of feed stock
G92 E0 ;zero the extruded length again
G1 F100
M117 Printing...
G5
G92 E0
G1 F2400 E-6
;LAYER_COUNT:51
;LAYER:0
M106 S255
M204 S3000
M205 X10 Y10
G0 F3000 X74.434 Y94.299 Z0.2
M204 S1800
M205 X8 Y8
;TYPE:SKIRT
G1 F2400 E0
G1 X75.015 Y93.882 E0.0333
G1 X75.639 Y93.533 E0.06659
G1 X75.983 Y93.377 E0.08418
G1 X79.683 Y91.832 E0.27089
G1 X80.357 Y91.594 E0.30417
G1 X81.054 Y91.432 E0.33749
G1 X82.066 Y91.339 E0.38481
G1 X83.457 Y91.321 E0.44959
G1 X84.051 Y91.34 E0.47726
G1 X87.642 Y91.628 E0.64501
G1 X92.973 Y91.839 E0.89344
G1 X98.271 Y91.748 E1.14017
G1 X103.757 Y91.349 E1.3963
G1 X104.248 Y91.332 E1.41917
G1 X105.889 Y91.339 E1.49559
G1 X106.42 Y91.363 E1.52034
G1 X107.826 Y91.486 E1.58606
G1 X109.635 Y91.627 E1.67055
G1 X114.973 Y91.839 E1.9193
G1 X120.271 Y91.748 E2.16603
G1 X125.757 Y91.349 E2.42216
G1 X126.248 Y91.332 E2.44504
G1 X127.89 Y91.339 E2.5215
G1 X128.604 Y91.382 E2.5548
G1 X129.309 Y91.504 E2.58812
G1 X130.311 Y91.826 E2.63713
G1 X133.946 Y93.331 E2.82032
G1 X134.591 Y93.641 E2.85364
G1 X135.197 Y94.021 E2.88695
G1 X136 Y94.695 E2.93577
G1 X137.25 Y95.932 E3.01766
G1 X137.729 Y96.463 E3.05095
G1 X138.147 Y97.044 E3.08428
G1 X138.496 Y97.667 E3.11753
G1 X138.661 Y98.032 E3.13619
G1 X140.173 Y101.683 E3.32019
G1 X140.409 Y102.358 E3.35349
G1 X140.569 Y103.056 E3.38683
G1 X140.65 Y103.766 E3.42011
G1 X140.66 Y104.132 E3.43716
G1 X140.66 Y105.867 E3.51795
G1 X140.62 Y106.581 E3.55125
G1 X140.501 Y107.286 E3.58454
G1 X140.303 Y107.974 E3.61787
G1 X140.173 Y108.317 E3.63495
G1 X138.667 Y111.952 E3.81817
G1 X138.356 Y112.596 E3.85147
G1 X137.976 Y113.202 E3.88478
G1 X137.301 Y114.005 E3.93362
G1 X136.069 Y115.249 E4.01515
G1 X135.538 Y115.729 E4.04848
G1 X134.957 Y116.146 E4.08178
G1 X134.333 Y116.495 E4.11507
G1 X133.933 Y116.675 E4.13549
G1 X130.19 Y118.197 E4.32364
G1 X129.513 Y118.429 E4.35697
G1 X128.815 Y118.584 E4.39026
G1 X127.771 Y118.668 E4.43903
G1 X126.205 Y118.666 E4.51195
G1 X125.653 Y118.641 E4.53768
G1 X123.058 Y118.413 E4.65898
G1 X117.722 Y118.166 E4.90771
G1 X112.414 Y118.22 E5.15489
G1 X106.224 Y118.652 E5.44382
G1 X105.771 Y118.668 E5.46493
G1 X104.205 Y118.666 E5.53785
G1 X103.654 Y118.642 E5.56353
G1 X101.035 Y118.412 E5.68595
G1 X95.721 Y118.166 E5.93366
G1 X90.415 Y118.22 E6.18074
G1 X84.224 Y118.652 E6.46972
G1 X83.771 Y118.668 E6.49082
G1 X82.205 Y118.666 E6.56374
G1 X81.491 Y118.625 E6.59705
G1 X80.786 Y118.505 E6.63035
G1 X79.8 Y118.194 E6.67849
G1 X76.093 Y116.685 E6.86485
G1 X75.447 Y116.378 E6.89816
G1 X74.838 Y116.002 E6.93149
G1 X74.276 Y115.56 E6.96478
G1 X74.01 Y115.311 E6.98174
G1 X72.758 Y114.075 E7.06367
G1 X72.278 Y113.545 E7.09696
G1 X71.86 Y112.965 E7.13025
G1 X71.509 Y112.341 E7.16359
G1 X71.34 Y111.968 E7.18266
G1 X69.826 Y108.309 E7.36705
G1 X69.59 Y107.634 E7.40034
G1 X69.431 Y106.936 E7.43368
G1 X69.35 Y106.226 E7.46695
G1 X69.34 Y105.855 E7.48423
G1 X69.342 Y104.124 E7.56484
G1 X69.383 Y103.41 E7.59814
G1 X69.503 Y102.704 E7.63148
G1 X69.828 Y101.684 E7.68133
G1 X71.332 Y98.05 E7.86446
G1 X71.642 Y97.405 E7.89779
G1 X72.022 Y96.799 E7.93109
G1 X72.7 Y95.992 E7.98017
G1 X73.903 Y94.778 E8.05976
G1 X74.434 Y94.299 E8.09305
M204 S3000
M205 X10 Y10
G0 F3000 X74.809 Y94.716
M204 S1800
M205 X8 Y8
G1 F2400 X75.368 Y94.322 E8.1249
G1 X76.199 Y93.894 E8.16843
G1 X79.899 Y92.349 E8.35513
G1 X80.544 Y92.123 E8.38695
G1 X81.21 Y91.974 E8.41873
G1 X82.073 Y91.898 E8.45907
G1 X83.464 Y91.88 E8.52385
G1 X84.006 Y91.899 E8.5491
G1 X87.599 Y92.187 E8.71694
G1 X92.961 Y92.399 E8.96682
G1 X98.284 Y92.308 E9.21471
G1 X103.797 Y91.907 E9.4721
G1 X104.246 Y91.892 E9.49302
G1 X105.887 Y91.899 E9.56943
G1 X106.371 Y91.921 E9.59199
G1 X107.81 Y92.047 E9.65925
G1 X109.595 Y92.187 E9.74263
G1 X114.961 Y92.399 E9.99269
G1 X120.284 Y92.308 E10.24058
G1 X125.797 Y91.907 E10.49797
G1 X126.246 Y91.892 E10.51889
G1 X127.888 Y91.899 E10.59535
G1 X128.57 Y91.942 E10.62717
G1 X129.242 Y92.064 E10.65897
G1 X130.097 Y92.343 E10.70085
G1 X133.732 Y93.848 E10.88404
G1 X134.347 Y94.146 E10.91586
G1 X134.923 Y94.514 E10.94769
G1 X135.606 Y95.093 E10.98939
G1 X136.856 Y96.33 E11.07127
G1 X137.313 Y96.838 E11.10309
G1 X137.707 Y97.396 E11.1349
G1 X138.144 Y98.246 E11.1794
G1 X139.656 Y101.897 E11.36341
G1 X139.88 Y102.543 E11.39525
G1 X140.027 Y103.21 E11.42705
G1 X140.1 Y104.132 E11.47012
G1 X140.1 Y105.867 E11.55091
G1 X140.06 Y106.549 E11.58272
G1 X139.941 Y107.222 E11.61454
G1 X139.655 Y108.102 E11.65763
G1 X138.149 Y111.737 E11.84084
G1 X137.851 Y112.352 E11.87266
G1 X137.484 Y112.928 E11.90446
G1 X136.903 Y113.611 E11.94622
G1 X135.671 Y114.855 E12.02774
G1 X135.163 Y115.312 E12.05956
G1 X134.605 Y115.706 E12.09137
G1 X133.722 Y116.156 E12.13752
G1 X129.979 Y117.678 E12.32566
G1 X129.332 Y117.898 E12.35749
G1 X128.664 Y118.041 E12.38929
G1 X127.772 Y118.108 E12.43095
G1 X126.206 Y118.106 E12.50387
G1 X125.702 Y118.084 E12.52736
G1 X123.086 Y117.854 E12.64964
G1 X117.724 Y117.606 E12.89958
G1 X112.403 Y117.66 E13.14736
G1 X106.185 Y118.094 E13.4376
G1 X105.772 Y118.108 E13.45685
G1 X104.206 Y118.106 E13.52977
G1 X103.702 Y118.084 E13.55326
G1 X101.085 Y117.854 E13.67559
G1 X95.723 Y117.606 E13.92553
G1 X90.404 Y117.66 E14.17322
G1 X84.185 Y118.094 E14.4635
G1 X83.772 Y118.108 E14.48275
G1 X82.206 Y118.106 E14.55567
G1 X81.524 Y118.065 E14.58748
G1 X80.851 Y117.945 E14.61931
G1 X80.011 Y117.675 E14.6604
G1 X76.304 Y116.166 E14.84676
G1 X75.688 Y115.872 E14.87855
G1 X75.109 Y115.508 E14.91039
G1 X74.403 Y114.913 E14.95338
G1 X73.151 Y113.677 E15.03531
G1 X72.694 Y113.169 E15.06712
G1 X72.299 Y112.612 E15.09892
G1 X71.858 Y111.754 E15.14384
G1 X70.344 Y108.095 E15.32823
G1 X70.12 Y107.449 E15.36006
G1 X69.973 Y106.782 E15.39187
G1 X69.9 Y105.855 E15.43517
G1 X69.902 Y104.124 E15.51577
G1 X69.943 Y103.442 E15.54758
G1 X70.063 Y102.77 E15.57937
G1 X70.346 Y101.898 E15.62206
G1 X71.85 Y98.264 E15.80519
G1 X72.148 Y97.649 E15.83701
G1 X72.515 Y97.073 E15.86882
G1 X73.098 Y96.386 E15.91077
G1 X74.301 Y95.172 E15.99036
G1 X74.809 Y94.716 E16.02214
M204 S3000
M205 X10 Y10
G0 F3000 X75.183 Y95.134
M204 S1800
M205 X8 Y8
G1 F2400 X75.718 Y94.764 E16.05243
G1 X76.414 Y94.411 E16.08877
G1 X80.114 Y92.866 E16.27547
G1 X80.728 Y92.653 E16.30574
G1 X81.363 Y92.517 E16.33598
G1 X82.081 Y92.458 E16.36952
G1 X83.472 Y92.44 E16.4343
G1 X83.961 Y92.457 E16.45708
G1 X87.556 Y92.745 E16.62502
G1 X92.966 Y92.959 E16.87712
G1 X98.317 Y92.868 E17.12633
G1 X103.838 Y92.466 E17.38409
G1 X104.244 Y92.452 E17.403
G1 X105.885 Y92.459 E17.47942
G1 X106.323 Y92.479 E17.49983
G1 X107.752 Y92.604 E17.56663
G1 X109.556 Y92.745 E17.65088
G1 X114.966 Y92.959 E17.90299
G1 X120.317 Y92.868 E18.15219
G1 X125.838 Y92.466 E18.40996
G1 X126.244 Y92.452 E18.42887
G1 X127.886 Y92.459 E18.50533
G1 X128.534 Y92.502 E18.53557
G1 X129.172 Y92.624 E18.56582
G1 X129.883 Y92.861 E18.60072
G1 X133.518 Y94.366 E18.78391
G1 X134.102 Y94.651 E18.81417
G1 X134.646 Y95.005 E18.84439
G1 X135.212 Y95.491 E18.87913
G1 X136.462 Y96.728 E18.96102
G1 X136.895 Y97.212 E18.99126
G1 X137.265 Y97.746 E19.02151
G1 X137.626 Y98.461 E19.0588
G1 X139.138 Y102.112 E19.24281
G1 X139.349 Y102.726 E19.27304
G1 X139.484 Y103.362 E19.30332
G1 X139.54 Y104.132 E19.33927
G1 X139.54 Y105.867 E19.42006
G1 X139.5 Y106.515 E19.45029
G1 X139.381 Y107.154 E19.48055
G1 X139.138 Y107.888 E19.51656
G1 X137.632 Y111.523 E19.69977
G1 X137.347 Y112.107 E19.73003
G1 X136.992 Y112.651 E19.76027
G1 X136.506 Y113.217 E19.79501
G1 X135.274 Y114.461 E19.87654
G1 X134.789 Y114.894 E19.90681
G1 X134.255 Y115.264 E19.93706
G1 X133.511 Y115.637 E19.97582
G1 X129.768 Y117.159 E20.16396
G1 X129.152 Y117.366 E20.19422
G1 X128.516 Y117.496 E20.22445
G1 X127.772 Y117.548 E20.25918
G1 X126.206 Y117.546 E20.3321
G1 X125.751 Y117.526 E20.35331
G1 X123.112 Y117.294 E20.47666
G1 X117.744 Y117.045 E20.72689
G1 X112.375 Y117.1 E20.9769
G1 X106.146 Y117.535 E21.26766
G1 X105.772 Y117.548 E21.28508
G1 X104.206 Y117.546 E21.358
G1 X103.751 Y117.526 E21.37921
G1 X101.111 Y117.294 E21.50261
G1 X95.743 Y117.045 E21.75284
G1 X90.376 Y117.1 E22.00276
G1 X84.146 Y117.535 E22.29356
G1 X83.772 Y117.548 E22.31099
G1 X82.206 Y117.546 E22.38391
G1 X81.558 Y117.505 E22.41414
G1 X80.92 Y117.385 E22.44437
G1 X80.222 Y117.156 E22.47858
G1 X76.515 Y115.647 E22.66495
G1 X75.93 Y115.366 E22.69517
G1 X75.383 Y115.015 E22.72543
G1 X74.797 Y114.514 E22.76133
G1 X73.545 Y113.278 E22.84325
G1 X73.111 Y112.794 E22.87352
G1 X72.741 Y112.261 E22.90373
G1 X72.375 Y111.54 E22.94138
G1 X70.861 Y107.881 E23.12577
G1 X70.65 Y107.266 E23.15605
G1 X70.516 Y106.631 E23.18627
G1 X70.46 Y105.856 E23.22245
G1 X70.462 Y104.125 E23.30305
G1 X70.503 Y103.477 E23.33328
G1 X70.623 Y102.838 E23.36356
G1 X70.863 Y102.112 E23.39916
G1 X72.367 Y98.478 E23.5823
G1 X72.652 Y97.894 E23.61256
G1 X73.007 Y97.35 E23.6428
G1 X73.496 Y96.781 E23.67774
G1 X74.699 Y95.567 E23.75732
G1 X75.183 Y95.134 E23.78756
M204 S3000
M205 X10 Y10
G1 F2400 E17.78756
;MESH:83d16ae8-e9dc-4980-8b0e-9be3d041dd4b.stl(1)
G0 F3000 X77.589 Y99.141
G0 X78.583 Y100.295
G0 X79.744 Y107.154
M204 S1800
M205 X8 Y8
;TYPE:WALL-INNER
G1 F2400 E23.78756
G1 F1500 X80.018 Y107.516 E23.8087
G1 X80.328 Y107.845 E23.82975
G1 X80.677 Y108.135 E23.85088
G1 X81.05 Y108.38 E23.87166
G1 X81.055 Y108.383 E23.87193
G1 X81.337 Y108.525 E23.88663
G1 X81.463 Y108.588 E23.89319
G1 X81.693 Y108.67 E23.90456
G1 X81.891 Y108.741 E23.91436
G1 X81.979 Y108.761 E23.91856
G1 X82.332 Y108.845 E23.93546
G1 X82.784 Y108.896 E23.95664
G1 X83.236 Y108.895 E23.97768
G1 X83.687 Y108.841 E23.99883
G1 X84.024 Y108.759 E24.01498
G1 X84.127 Y108.735 E24.01991
G1 X84.302 Y108.672 E24.02857
G1 X84.553 Y108.58 E24.04102
G1 X84.66 Y108.526 E24.0466
G1 X84.902 Y108.403 E24.05924
G1 X84.96 Y108.374 E24.06226
G1 X85.337 Y108.124 E24.08332
G1 X85.685 Y107.832 E24.10447
G1 X85.993 Y107.502 E24.12549
G1 X86.265 Y107.139 E24.14662
G1 X86.387 Y106.925 E24.15809
G1 X86.491 Y106.742 E24.16789
G1 X86.513 Y106.691 E24.17047
G1 X86.669 Y106.327 E24.18891
G1 X86.743 Y106.077 E24.20105
G1 X86.799 Y105.891 E24.2101
G1 X86.876 Y105.444 E24.23122
G1 X86.903 Y104.991 E24.25235
G1 X86.874 Y104.537 E24.27353
G1 X86.796 Y104.092 E24.29457
G1 X86.668 Y103.669 E24.31515
G1 X86.664 Y103.657 E24.31574
G1 X86.514 Y103.312 E24.33326
G1 X86.484 Y103.243 E24.33676
G1 X86.386 Y103.072 E24.34594
G1 X86.256 Y102.846 E24.35808
G1 X85.982 Y102.484 E24.37922
G1 X85.672 Y102.155 E24.40027
G1 X85.323 Y101.865 E24.4214
G1 X84.95 Y101.62 E24.44218
G1 X84.945 Y101.617 E24.44245
G1 X84.663 Y101.475 E24.45715
G1 X84.537 Y101.412 E24.46371
G1 X84.307 Y101.33 E24.47508
G1 X84.109 Y101.259 E24.48487
G1 X84.021 Y101.239 E24.48908
G1 X83.668 Y101.155 E24.50597
G1 X83.216 Y101.104 E24.52715
G1 X82.764 Y101.105 E24.5482
G1 X82.313 Y101.159 E24.56935
G1 X81.976 Y101.241 E24.5855
G1 X81.873 Y101.265 E24.59042
G1 X81.698 Y101.328 E24.59908
G1 X81.447 Y101.42 E24.61153
G1 X81.34 Y101.474 E24.61711
G1 X81.098 Y101.597 E24.62975
G1 X81.04 Y101.626 E24.63277
G1 X80.663 Y101.876 E24.65384
G1 X80.315 Y102.168 E24.67499
G1 X80.007 Y102.498 E24.69601
G1 X79.735 Y102.861 E24.71713
G1 X79.613 Y103.075 E24.7286
G1 X79.509 Y103.258 E24.7384
G1 X79.487 Y103.309 E24.74099
G1 X79.331 Y103.673 E24.75943
G1 X79.257 Y103.923 E24.77157
G1 X79.201 Y104.109 E24.78061
G1 X79.124 Y104.556 E24.80174
G1 X79.097 Y105.009 E24.82287
G1 X79.126 Y105.463 E24.84405
G1 X79.204 Y105.908 E24.86509
G1 X79.332 Y106.331 E24.88567
G1 X79.336 Y106.343 E24.88625
G1 X79.486 Y106.688 E24.90377
G1 X79.516 Y106.757 E24.90727
G1 X79.614 Y106.928 E24.91645
G1 X79.744 Y107.154 E24.92859
M204 S3000
M205 X10 Y10
G0 F3000 X82.039 Y108.241
G0 X82.813 Y108.375
G0 X83.595 Y108.328
G0 X84.27 Y108.124
G0 X87.145 Y106.476
M204 S1800
M205 X8 Y8
G1 F1500 X87.13 Y106.514 E24.93039
G1 X86.976 Y106.889 E24.94727
G1 X86.921 Y107.092 E24.95659
G1 X86.86 Y107.318 E24.96749
G1 X86.8 Y107.759 E24.98821
G1 X86.798 Y108.205 E25.00898
G1 X86.832 Y108.476 E25.0217
G1 X86.853 Y108.646 E25.02968
G1 X86.889 Y108.79 E25.03659
G1 X86.924 Y108.924 E25.04304
G1 X86.79 Y108.89 E25.04462
G1 X86.646 Y108.853 E25.04777
G1 X86.476 Y108.832 E25.05575
G1 X86.205 Y108.798 E25.06846
G1 X85.759 Y108.8 E25.08923
G1 X85.318 Y108.86 E25.10995
G1 X85.151 Y108.905 E25.11801
G1 X84.889 Y108.976 E25.13002
G1 X84.74 Y109.037 E25.1368
G1 X84.476 Y109.145 E25.14866
G1 X84.393 Y109.193 E25.1526
G1 X84.302 Y109.246 E25.15737
G1 X84.09 Y109.369 E25.16879
G1 X83.736 Y109.638 E25.18949
G1 X83.418 Y109.952 E25.2103
G1 X83.25 Y110.167 E25.223
G1 X83.146 Y110.302 E25.23094
G1 X83.07 Y110.431 E25.23791
G1 X83 Y110.549 E25.2443
G1 X82.93 Y110.432 E25.24585
G1 X82.852 Y110.302 E25.24913
G1 X82.748 Y110.167 E25.25706
G1 X82.582 Y109.953 E25.26967
G1 X82.264 Y109.638 E25.29051
G1 X81.91 Y109.369 E25.31122
G1 X81.702 Y109.248 E25.32242
G1 X81.624 Y109.203 E25.3264
G1 X81.524 Y109.145 E25.33122
G1 X81.277 Y109.044 E25.34232
G1 X81.111 Y108.976 E25.34985
G1 X80.91 Y108.922 E25.35891
G1 X80.905 Y108.921 E25.35915
G1 X80.682 Y108.86 E25.36992
G1 X80.241 Y108.8 E25.39064
G1 X79.795 Y108.798 E25.41141
G1 X79.524 Y108.832 E25.42413
G1 X79.354 Y108.853 E25.4321
G1 X79.21 Y108.889 E25.43901
G1 X79.076 Y108.924 E25.44546
G1 X79.11 Y108.79 E25.44704
G1 X79.147 Y108.646 E25.4502
G1 X79.168 Y108.476 E25.45817
G1 X79.202 Y108.205 E25.47089
G1 X79.2 Y107.759 E25.49166
G1 X79.14 Y107.318 E25.51238
G1 X79.075 Y107.079 E25.52391
G1 X79.024 Y106.889 E25.53266
G1 X78.878 Y106.531 E25.54873
G1 X78.855 Y106.476 E25.55131
G1 X78.631 Y106.09 E25.57209
G1 X78.362 Y105.736 E25.59279
G1 X78.048 Y105.418 E25.6136
G1 X77.833 Y105.25 E25.62631
G1 X77.698 Y105.146 E25.63424
G1 X77.569 Y105.07 E25.64122
G1 X77.451 Y105 E25.6476
G1 X77.568 Y104.93 E25.64915
G1 X77.698 Y104.852 E25.65243
G1 X77.833 Y104.748 E25.66036
G1 X78.047 Y104.582 E25.67298
G1 X78.362 Y104.264 E25.69382
G1 X78.631 Y103.91 E25.71452
G1 X78.724 Y103.749 E25.72318
G1 X78.855 Y103.524 E25.73464
G1 X78.87 Y103.486 E25.73643
G1 X79.024 Y103.111 E25.75331
G1 X79.079 Y102.908 E25.76263
G1 X79.14 Y102.682 E25.77353
G1 X79.2 Y102.241 E25.79426
G1 X79.202 Y101.795 E25.81502
G1 X79.168 Y101.524 E25.82774
G1 X79.147 Y101.354 E25.83572
G1 X79.111 Y101.21 E25.84263
G1 X79.076 Y101.076 E25.84908
G1 X79.21 Y101.11 E25.85066
G1 X79.354 Y101.147 E25.85381
G1 X79.524 Y101.168 E25.86179
G1 X79.795 Y101.202 E25.87451
G1 X80.241 Y101.2 E25.89527
G1 X80.682 Y101.14 E25.916
G1 X80.849 Y101.095 E25.92405
G1 X81.111 Y101.024 E25.93606
G1 X81.26 Y100.963 E25.94284
G1 X81.524 Y100.855 E25.9547
G1 X81.607 Y100.807 E25.95865
G1 X81.698 Y100.754 E25.96342
G1 X81.91 Y100.631 E25.97483
G1 X82.264 Y100.362 E25.99553
G1 X82.582 Y100.048 E26.01634
G1 X82.75 Y99.833 E26.02905
G1 X82.854 Y99.698 E26.03698
G1 X82.93 Y99.569 E26.04395
G1 X83 Y99.451 E26.05034
G1 X83.07 Y99.568 E26.05189
G1 X83.148 Y99.698 E26.05517
G1 X83.252 Y99.833 E26.0631
G1 X83.418 Y100.047 E26.07571
G1 X83.736 Y100.362 E26.09656
G1 X84.09 Y100.631 E26.11726
G1 X84.298 Y100.752 E26.12846
G1 X84.376 Y100.797 E26.13244
G1 X84.476 Y100.855 E26.13726
G1 X84.723 Y100.956 E26.14837
G1 X84.889 Y101.024 E26.15589
G1 X85.09 Y101.078 E26.16496
G1 X85.095 Y101.079 E26.16519
G1 X85.318 Y101.14 E26.17596
G1 X85.759 Y101.2 E26.19668
G1 X86.205 Y101.202 E26.21745
G1 X86.476 Y101.168 E26.23017
G1 X86.646 Y101.147 E26.23814
G1 X86.79 Y101.111 E26.24506
G1 X86.924 Y101.076 E26.2515
G1 X86.89 Y101.21 E26.25309
G1 X86.853 Y101.354 E26.25624
G1 X86.832 Y101.524 E26.26421
G1 X86.798 Y101.795 E26.27693
G1 X86.8 Y102.241 E26.2977
G1 X86.86 Y102.682 E26.31842
G1 X86.925 Y102.921 E26.32996
G1 X86.976 Y103.111 E26.3387
G1 X87.122 Y103.469 E26.35477
