;FLAVOR:Marlin
;TIME:7385
;Filament used: 10.0968m
;Layer height: 0.2
;Generated with Cura_SteamEngine 3.6.0
M140 S85
M105
M190 S85
M104 S215
M105
M109 S215
M82 ;absolute extrusion mode
G21 ;metric values
G90 ;absolute positioning
M82 ;set extruder to absolute mode
M107 ;start with the fan off
G28 X0 Y0 ;move X/Y to min endstops
G28 Z0 ;move Z to min endstops
G1 Z15.0 F100 ;move the platform down 15mm
G92 E0 ;zero the extruded length
G1 F200 E3 ;extrude 3mm of feed stock
G92 E0 ;zero the extruded length again
G1 F100
M117 Printing...
G5
G92 E0
G1 F2400 E-6
;LAYER_COUNT:250
;LAYER:0
M106 S255
M204 S3000
M205 X10 Y10
G0 F3000 X79.996 Y71.03 Z0.3
M204 S1800
M205 X8 Y8
;TYPE:SKIRT
G1 F2400 E0
G1 X80.471 Y70.496 E0.04992
G1 X81.003 Y70.017 E0.09992
G1 X81.585 Y69.602 E0.14985
G1 X82.21 Y69.253 E0.19984
G1 X82.87 Y68.977 E0.24981
G1 X83.556 Y68.776 E0.29974
G1 X84.261 Y68.653 E0.34973
G1 X85.009 Y68.609 E0.40206
G1 X104.991 Y68.61 E1.79773
G1 X105.705 Y68.65 E1.84768
G1 X106.411 Y68.769 E1.89769
G1 X107.098 Y68.967 E1.94762
G1 X107.759 Y69.24 E1.99757
G1 X108.386 Y69.585 E2.04756
G1 X108.97 Y69.997 E2.09748
G1 X109.505 Y70.473 E2.1475
G1 X109.983 Y71.005 E2.19745
G1 X110.398 Y71.587 E2.24738
G1 X110.747 Y72.211 E2.29731
G1 X111.023 Y72.871 E2.34728
G1 X111.224 Y73.558 E2.39728
G1 X111.34 Y74.208 E2.44339
G1 X111.753 Y77.479 E2.67368
G1 X112.67 Y82.796 E3.05053
G1 X113.201 Y85.257 E3.22638
G1 X114.558 Y90.448 E3.60113
G1 X116.186 Y95.493 E3.9714
G1 X118.093 Y100.428 E4.34093
G1 X120.279 Y105.254 E4.71098
G1 X122.735 Y109.953 E5.08131
G1 X125.447 Y114.491 E5.45056
G1 X128.424 Y118.888 E5.82145
G1 X130.133 Y121.195 E6.02198
G1 X130.526 Y121.793 E6.07196
G1 X130.849 Y122.431 E6.12191
G1 X131.1 Y123.101 E6.17188
G1 X131.274 Y123.794 E6.22179
G1 X131.37 Y124.503 E6.27176
G1 X131.39 Y125.005 E6.30685
G1 X131.39 Y134.991 E7.00433
G1 X131.35 Y135.705 E7.05428
G1 X131.231 Y136.41 E7.10422
G1 X131.033 Y137.098 E7.15423
G1 X130.76 Y137.759 E7.20418
G1 X130.416 Y138.386 E7.25413
G1 X130.003 Y138.97 E7.30409
G1 X129.528 Y139.504 E7.35401
G1 X128.996 Y139.983 E7.40401
G1 X128.414 Y140.398 E7.45393
G1 X127.789 Y140.747 E7.50393
G1 X127.129 Y141.023 E7.5539
G1 X126.443 Y141.224 E7.60383
G1 X125.738 Y141.347 E7.65381
G1 X124.99 Y141.391 E7.70615
G1 X95.009 Y141.391 E9.80021
G1 X94.295 Y141.351 E9.85016
G1 X93.59 Y141.232 E9.9001
G1 X92.902 Y141.034 E9.9501
G1 X92.241 Y140.761 E10.00005
G1 X91.614 Y140.417 E10.05001
G1 X91.03 Y140.004 E10.09997
G1 X90.496 Y139.529 E10.14988
G1 X90.017 Y138.997 E10.19988
G1 X89.602 Y138.415 E10.24981
G1 X89.253 Y137.79 E10.29981
G1 X88.977 Y137.13 E10.34978
G1 X88.776 Y136.444 E10.39971
G1 X88.653 Y135.739 E10.44969
G1 X88.617 Y135.302 E10.48032
G1 X88.527 Y133.448 E10.60996
G1 X88.065 Y128.07 E10.98698
G1 X87.319 Y122.854 E11.35501
G1 X86.269 Y117.641 E11.72643
G1 X85.649 Y115.113 E11.90823
G1 X84.158 Y110.001 E12.28016
G1 X82.393 Y105.013 E12.64972
G1 X80.33 Y100.088 E13.02268
G1 X79.214 Y97.706 E13.20641
G1 X78.947 Y97.042 E13.25639
G1 X78.756 Y96.353 E13.30633
G1 X78.643 Y95.646 E13.35634
G1 X78.609 Y94.99 E13.40222
G1 X78.609 Y75.009 E14.79782
G1 X78.649 Y74.295 E14.84777
G1 X78.768 Y73.59 E14.89771
G1 X78.966 Y72.902 E14.94771
G1 X79.239 Y72.241 E14.99766
G1 X79.583 Y71.614 E15.04761
G1 X79.996 Y71.03 E15.09757
M204 S3000
M205 X10 Y10
G0 F3000 X80.551 Y71.236
M204 S1800
M205 X8 Y8
G1 F2400 X81.022 Y70.741 E15.1453
G1 X81.548 Y70.305 E15.19302
G1 X82.121 Y69.933 E15.24073
G1 X82.734 Y69.63 E15.28849
G1 X83.377 Y69.402 E15.33615
G1 X84.043 Y69.249 E15.38387
G1 X85.009 Y69.169 E15.45158
G1 X104.991 Y69.17 E16.84725
G1 X105.673 Y69.21 E16.89496
G1 X106.346 Y69.329 E16.9427
G1 X107 Y69.527 E16.99043
G1 X107.627 Y69.799 E17.03816
G1 X108.217 Y70.142 E17.08583
G1 X108.764 Y70.552 E17.13358
G1 X109.259 Y71.024 E17.18135
G1 X109.695 Y71.549 E17.22901
G1 X110.067 Y72.122 E17.27673
G1 X110.37 Y72.735 E17.32449
G1 X110.599 Y73.379 E17.37223
G1 X110.785 Y74.278 E17.43635
G1 X111.202 Y77.577 E17.66861
G1 X112.118 Y82.89 E18.04518
G1 X112.66 Y85.403 E18.22474
G1 X114.019 Y90.601 E18.6
G1 X115.662 Y95.69 E18.97352
G1 X117.571 Y100.632 E19.34355
G1 X119.777 Y105.502 E19.71698
G1 X122.247 Y110.228 E20.08943
G1 X124.968 Y114.781 E20.45991
G1 X127.98 Y119.231 E20.83523
G1 X129.683 Y121.529 E21.035
G1 X130.056 Y122.1 E21.08264
G1 X130.361 Y122.712 E21.1304
G1 X130.592 Y123.355 E21.17812
G1 X130.746 Y124.021 E21.22587
G1 X130.83 Y125.005 E21.29485
G1 X130.83 Y134.991 E21.99233
G1 X130.79 Y135.673 E22.04005
G1 X130.671 Y136.346 E22.08778
G1 X130.474 Y137 E22.13549
G1 X130.201 Y137.627 E22.18326
G1 X129.858 Y138.217 E22.23092
G1 X129.448 Y138.764 E22.27867
G1 X128.977 Y139.259 E22.32639
G1 X128.451 Y139.695 E22.37411
G1 X127.878 Y140.067 E22.42183
G1 X127.265 Y140.37 E22.46959
G1 X126.622 Y140.598 E22.51724
G1 X125.956 Y140.751 E22.56497
G1 X124.99 Y140.831 E22.63267
G1 X95.009 Y140.831 E24.72674
G1 X94.327 Y140.791 E24.77445
G1 X93.654 Y140.672 E24.82219
G1 X93 Y140.475 E24.8699
G1 X92.373 Y140.202 E24.91766
G1 X91.783 Y139.859 E24.96533
G1 X91.236 Y139.449 E25.01307
G1 X90.741 Y138.978 E25.0608
G1 X90.305 Y138.452 E25.10852
G1 X89.933 Y137.879 E25.15623
G1 X89.63 Y137.266 E25.20399
G1 X89.402 Y136.623 E25.25165
G1 X89.249 Y135.957 E25.29938
G1 X89.176 Y135.274 E25.34735
G1 X89.085 Y133.401 E25.47833
G1 X88.622 Y128.012 E25.85612
G1 X87.87 Y122.753 E26.22717
G1 X86.816 Y117.52 E26.60002
G1 X86.193 Y114.98 E26.78269
G1 X84.688 Y109.818 E27.15825
G1 X82.92 Y104.823 E27.52834
G1 X80.835 Y99.846 E27.90523
G1 X79.721 Y97.468 E28.08865
G1 X79.468 Y96.833 E28.13639
G1 X79.29 Y96.174 E28.18407
G1 X79.191 Y95.498 E28.23179
G1 X79.169 Y94.99 E28.26731
G1 X79.169 Y75.009 E29.66291
G1 X79.209 Y74.327 E29.71062
G1 X79.328 Y73.654 E29.75836
G1 X79.525 Y73 E29.80607
G1 X79.798 Y72.373 E29.85383
G1 X80.141 Y71.783 E29.9015
G1 X80.551 Y71.236 E29.94924
M204 S3000
M205 X10 Y10
G0 F3000 X80.698 Y71.96
M204 S1800
M205 X8 Y8
G1 F2400 X81.105 Y71.454 E29.9946
G1 X81.571 Y71.001 E30.03999
G1 X82.089 Y70.61 E30.08532
G1 X82.652 Y70.284 E30.13076
G1 X83.25 Y70.031 E30.17612
G1 X83.874 Y69.852 E30.22146
G1 X84.516 Y69.752 E30.26684
G1 X85.009 Y69.729 E30.30131
G1 X104.991 Y69.73 E31.69698
G1 X105.64 Y69.77 E31.7424
G1 X106.278 Y69.889 E31.78773
G1 X106.897 Y70.086 E31.8331
G1 X107.488 Y70.357 E31.87851
G1 X108.04 Y70.699 E31.92387
G1 X108.546 Y71.106 E31.96922
G1 X108.999 Y71.572 E32.01462
G1 X109.39 Y72.091 E32.06
G1 X109.716 Y72.653 E32.10538
G1 X109.969 Y73.251 E32.15073
G1 X110.148 Y73.876 E32.19614
G1 X110.229 Y74.348 E32.22959
G1 X110.647 Y77.654 E32.46234
G1 X111.57 Y83.007 E32.84175
G1 X112.112 Y85.521 E33.02137
G1 X113.481 Y90.758 E33.39945
G1 X115.132 Y95.871 E33.77473
G1 X117.058 Y100.858 E34.14813
G1 X119.274 Y105.75 E34.52324
G1 X121.748 Y110.483 E34.89626
G1 X124.505 Y115.097 E35.27168
G1 X127.517 Y119.546 E35.64694
G1 X129.233 Y121.862 E35.84827
G1 X129.586 Y122.407 E35.89362
G1 X129.871 Y122.991 E35.93901
G1 X130.081 Y123.605 E35.98434
G1 X130.214 Y124.241 E36.02972
G1 X130.27 Y125.005 E36.08323
G1 X130.27 Y134.991 E36.78071
G1 X130.23 Y135.639 E36.82606
G1 X130.111 Y136.278 E36.87146
G1 X129.914 Y136.897 E36.91683
G1 X129.643 Y137.487 E36.96218
G1 X129.301 Y138.04 E37.00759
G1 X128.894 Y138.546 E37.05295
G1 X128.428 Y138.999 E37.09834
G1 X127.91 Y139.39 E37.14367
G1 X127.347 Y139.716 E37.18911
G1 X126.749 Y139.969 E37.23446
G1 X126.125 Y140.148 E37.27981
G1 X125.483 Y140.248 E37.32519
G1 X124.99 Y140.271 E37.35966
G1 X95.009 Y140.271 E39.45372
G1 X94.361 Y140.231 E39.49907
G1 X93.722 Y140.112 E39.54447
G1 X93.103 Y139.915 E39.58984
G1 X92.513 Y139.644 E39.63519
G1 X91.96 Y139.302 E39.6806
G1 X91.454 Y138.895 E39.72596
G1 X91.001 Y138.429 E39.77135
G1 X90.61 Y137.911 E39.81668
G1 X90.284 Y137.348 E39.86212
G1 X90.031 Y136.75 E39.90747
G1 X89.852 Y136.126 E39.95281
G1 X89.735 Y135.247 E40.01475
G1 X89.643 Y133.353 E40.1472
G1 X89.18 Y127.956 E40.52554
G1 X88.421 Y122.652 E40.89978
G1 X87.361 Y117.39 E41.27469
G1 X86.734 Y114.837 E41.45831
G1 X85.223 Y109.652 E41.83553
G1 X83.439 Y104.613 E42.20889
G1 X81.35 Y99.624 E42.58667
G1 X80.228 Y97.23 E42.77133
G1 X79.989 Y96.626 E42.8167
G1 X79.826 Y95.997 E42.86209
G1 X79.742 Y95.353 E42.90745
G1 X79.729 Y94.99 E42.93282
G1 X79.729 Y75.009 E44.32842
G1 X79.769 Y74.361 E44.37376
G1 X79.888 Y73.722 E44.41916
G1 X80.085 Y73.103 E44.46454
G1 X80.356 Y72.513 E44.50988
G1 X80.698 Y71.96 E44.5553
M204 S3000
M205 X10 Y10
G1 F2400 E38.5553
;MESH:c3d9637b-a0b8-421b-be8b-349f93c9f573.stl
G0 F3000 X84.335 Y75.854
G0 X85.854 Y75.854
G0 X95.868 Y94.132
G0 X103.6 Y126.4
M204 S1800
M205 X8 Y8
;TYPE:WALL-INNER
G1 F2400 E44.5553
G1 F1500 X123.6 Y126.4 E45.95222
G1 X123.6 Y133.6 E46.45512
G1 X96.4 Y133.6 E48.35494
G1 X96.4 Y93.6 E51.14879
G1 X86.4 Y93.6 E51.84725
G1 X86.4 Y76.4 E53.04861
G1 X103.6 Y76.4 E54.24996
G1 X103.6 Y126.4 E57.74228
M204 S3000
M205 X10 Y10
G0 F3000 X104.16 Y125.84
M204 S1800
M205 X8 Y8
G1 F1500 X124.16 Y125.84 E59.1392
G1 X124.16 Y134.16 E59.72032
G1 X95.84 Y134.16 E61.69837
G1 X95.84 Y94.16 E64.49222
G1 X85.84 Y94.16 E65.19068
G1 X85.84 Y75.84 E66.47027
G1 X104.16 Y75.84 E67.74985
G1 X104.16 Y125.84 E71.24217
M204 S3000
M205 X10 Y10
G0 F3000 X104.72 Y125.28
M204 S1800
M205 X8 Y8
;TYPE:WALL-OUTER
G1 F1500 X124.72 Y125.28 E72.63909
G1 X124.72 Y134.72 E73.29844
G1 X95.28 Y134.72 E75.35472
G1 X95.28 Y94.72 E78.14857
G1 X85.28 Y94.72 E78.84703
G1 X85.28 Y75.28 E80.20484
G1 X104.72 Y75.28 E81.56265
G1 X104.72 Y125.28 E85.05497
M204 S3000
M205 X10 Y10
G0 F3000 X104.92 Y125.28
G0 X104.92 Y125.94
G0 X103.05 Y126.95
M204 S1800
M205 X8 Y8
;TYPE:SKIN
G1 F1500 X123.05 Y126.95 E86.45189
G1 X123.05 Y133.05 E86.87796
G1 X96.95 Y133.05 E88.70094
G1 X96.95 Y93.05 E91.49479
G1 X86.95 Y93.05 E92.19326
G1 X86.95 Y76.95 E93.31778
G1 X103.05 Y76.95 E94.44231
G1 X103.05 Y126.95 E97.93462
M204 S3000
M205 X10 Y10
G0 F3000 X97.942 Y132.788
M204 S1800
M205 X8 Y8
G1 F1500 X97.209 Y132.055 E98.00703
M204 S3000
M205 X10 Y10
G0 F3000 X97.209 Y131.263
M204 S1800
M205 X8 Y8
G1 F1500 X98.734 Y132.788 E98.15766
M204 S3000
M205 X10 Y10
G0 F3000 X99.526 Y132.788
M204 S1800
M205 X8 Y8
G1 F1500 X97.209 Y130.471 E98.38653
M204 S3000
M205 X10 Y10
G0 F3000 X97.209 Y129.679
M204 S1800
M205 X8 Y8
G1 F1500 X100.318 Y132.788 E98.69363
M204 S3000
M205 X10 Y10
G0 F3000 X101.11 Y132.788
M204 S1800
M205 X8 Y8
G1 F1500 X97.209 Y128.887 E99.07896
M204 S3000
M205 X10 Y10
G0 F3000 X97.209 Y128.095
M204 S1800
M205 X8 Y8
G1 F1500 X101.902 Y132.788 E99.54252
M204 S3000
M205 X10 Y10
G0 F3000 X102.694 Y132.788
M204 S1800
M205 X8 Y8
G1 F1500 X97.209 Y127.303 E100.08432
M204 S3000
M205 X10 Y10
G0 F3000 X97.209 Y126.512
M204 S1800
M205 X8 Y8
G1 F1500 X103.486 Y132.788 E100.7043
M204 S3000
M205 X10 Y10
G0 F3000 X104.278 Y132.788
M204 S1800
M205 X8 Y8
G1 F1500 X97.209 Y125.72 E101.4025
M204 S3000
M205 X10 Y10
G0 F3000 X97.209 Y124.928
M204 S1800
M205 X8 Y8
G1 F1500 X105.07 Y132.788 E102.17895
M204 S3000
M205 X10 Y10
G0 F3000 X105.862 Y132.788
M204 S1800
M205 X8 Y8
G1 F1500 X97.209 Y124.136 E103.03362
M204 S3000
M205 X10 Y10
G0 F3000 X97.209 Y123.344
M204 S1800
M205 X8 Y8
G1 F1500 X106.654 Y132.788 E103.96652
M204 S3000
M205 X10 Y10
G0 F3000 X107.446 Y132.788
M204 S1800
M205 X8 Y8
G1 F1500 X97.209 Y122.552 E104.97766
M204 S3000
M205 X10 Y10
G0 F3000 X97.209 Y121.76
M204 S1800
M205 X8 Y8
G1 F1500 X108.238 Y132.788 E106.06703
M204 S3000
M205 X10 Y10
G0 F3000 X109.03 Y132.788
M204 S1800
M205 X8 Y8
G1 F1500 X103.45 Y127.209 E106.61816
M204 S3000
M205 X10 Y10
G0 F3000 X102.789 Y126.548
M204 S1800
M205 X8 Y8
G1 F1500 X97.209 Y120.968 E107.16934
M204 S3000
M205 X10 Y10
G0 F3000 X97.209 Y120.176
M204 S1800
M205 X8 Y8
G1 F1500 X102.789 Y125.756 E107.72052
M204 S3000
M205 X10 Y10
G0 F3000 X102.789 Y124.964
M204 S1800
M205 X8 Y8
G1 F1500 X97.209 Y119.384 E108.27169
M204 S3000
M205 X10 Y10
G0 F3000 X97.209 Y118.592
M204 S1800
M205 X8 Y8
G1 F1500 X102.789 Y124.172 E108.82287
M204 S3000
M205 X10 Y10
G0 F3000 X102.789 Y123.38
M204 S1800
M205 X8 Y8
G1 F1500 X97.209 Y117.8 E109.37405
M204 S3000
M205 X10 Y10
G0 F3000 X97.209 Y117.008
M204 S1800
M205 X8 Y8
G1 F1500 X102.789 Y122.588 E109.92523
M204 S3000
M205 X10 Y10
G0 F3000 X102.789 Y121.797
M204 S1800
M205 X8 Y8
G1 F1500 X97.209 Y116.216 E110.47646
M204 S3000
M205 X10 Y10
G0 F3000 X97.209 Y115.424
M204 S1800
M205 X8 Y8
G1 F1500 X102.789 Y121.005 E111.02769
M204 S3000
M205 X10 Y10
G0 F3000 X102.789 Y120.213
M204 S1800
M205 X8 Y8
G1 F1500 X97.209 Y114.632 E111.57892
M204 S3000
M205 X10 Y10
G0 F3000 X97.209 Y113.84
M204 S1800
M205 X8 Y8
G1 F1500 X102.789 Y119.421 E112.13014
M204 S3000
M205 X10 Y10
G0 F3000 X102.789 Y118.629
M204 S1800
M205 X8 Y8
G1 F1500 X97.209 Y113.048 E112.68137
M204 S3000
M205 X10 Y10
G0 F3000 X97.209 Y112.256
M204 S1800
M205 X8 Y8
G1 F1500 X102.789 Y117.837 E113.2326
M204 S3000
M205 X10 Y10
G0 F3000 X102.789 Y117.045
M204 S1800
M205 X8 Y8
G1 F1500 X97.209 Y111.464 E113.78383
M204 S3000
M205 X10 Y10
G0 F3000 X97.209 Y110.672
M204 S1800
M205 X8 Y8
G1 F1500 X102.789 Y116.253 E114.33506
M204 S3000
M205 X10 Y10
G0 F3000 X102.789 Y115.461
M204 S1800
M205 X8 Y8
G1 F1500 X97.209 Y109.88 E114.88628
M204 S3000
M205 X10 Y10
G0 F3000 X97.209 Y109.088
M204 S1800
M205 X8 Y8
G1 F1500 X102.789 Y114.669 E115.43751
M204 S3000
M205 X10 Y10
G0 F3000 X102.789 Y113.877
M204 S1800
M205 X8 Y8
G1 F1500 X97.209 Y108.296 E115.98874
M204 S3000
M205 X10 Y10
G0 F3000 X97.209 Y107.504
M204 S1800
M205 X8 Y8
G1 F1500 X102.789 Y113.085 E116.53997
M204 S3000
M205 X10 Y10
G0 F3000 X102.789 Y112.293
M204 S1800
M205 X8 Y8
G1 F1500 X97.209 Y106.713 E117.09115
M204 S3000
M205 X10 Y10
G0 F3000 X97.209 Y105.921
M204 S1800
M205 X8 Y8
G1 F1500 X102.789 Y111.501 E117.64233
M204 S3000
M205 X10 Y10
G0 F3000 X102.789 Y110.709
M204 S1800
M205 X8 Y8
G1 F1500 X97.209 Y105.129 E118.19351
M204 S3000
M205 X10 Y10
G0 F3000 X97.209 Y104.337
M204 S1800
M205 X8 Y8
G1 F1500 X102.789 Y109.917 E118.74468
M204 S3000
M205 X10 Y10
G0 F3000 X102.789 Y109.125
M204 S1800
M205 X8 Y8
G1 F1500 X97.209 Y103.545 E119.29586
M204 S3000
M205 X10 Y10
G0 F3000 X97.209 Y102.753
M204 S1800
M205 X8 Y8
G1 F1500 X102.789 Y108.333 E119.84704
M204 S3000
M205 X10 Y10
G0 F3000 X102.789 Y107.541
M204 S1800
M205 X8 Y8
G1 F1500 X97.209 Y101.961 E120.39822
M204 S3000
M205 X10 Y10
G0 F3000 X97.209 Y101.169
M204 S1800
M205 X8 Y8
G1 F1500 X102.789 Y106.749 E120.9494
M204 S3000
M205 X10 Y10
G0 F3000 X102.789 Y105.957
M204 S1800
M205 X8 Y8
G1 F1500 X97.209 Y100.377 E121.50058
M204 S3000
M205 X10 Y10
G0 F3000 X97.209 Y99.585
M204 S1800
M205 X8 Y8
G1 F1500 X102.789 Y105.165 E122.05176
M204 S3000
M205 X10 Y10
G0 F3000 X102.789 Y104.373
M204 S1800
M205 X8 Y8
G1 F1500 X97.209 Y98.793 E122.60294
M204 S3000
M205 X10 Y10
G0 F3000 X97.209 Y98.001
M204 S1800
M205 X8 Y8
G1 F1500 X102.789 Y103.581 E123.15411
M204 S3000
M205 X10 Y10
G0 F3000 X102.789 Y102.789
M204 S1800
M205 X8 Y8
G1 F1500 X97.209 Y97.209 E123.70529
M204 S3000
M205 X10 Y10
G0 F3000 X97.209 Y96.417
M204 S1800
M205 X8 Y8
G1 F1500 X102.789 Y101.998 E124.25652
M204 S3000
M205 X10 Y10
G0 F3000 X102.789 Y101.206
M204 S1800
M205 X8 Y8
G1 F1500 X97.209 Y95.625 E124.80775
M204 S3000
M205 X10 Y10
G0 F3000 X97.209 Y94.833
M204 S1800
M205 X8 Y8
G1 F1500 X102.789 Y100.414 E125.35898
M204 S3000
M205 X10 Y10
G0 F3000 X102.789 Y99.622
M204 S1800
M205 X8 Y8
G1 F1500 X97.209 Y94.041 E125.91021
M204 S3000
M205 X10 Y10
G0 F3000 X97.209 Y93.249
M204 S1800
M205 X8 Y8
G1 F1500 X102.789 Y98.83 E126.46143
M204 S3000
M205 X10 Y10
G0 F3000 X102.789 Y98.038
M204 S1800
M205 X8 Y8
G1 F1500 X87.209 Y82.457 E128.00044
M204 S3000
M205 X10 Y10
G0 F3000 X87.209 Y83.249
M204 S1800
M205 X8 Y8
G1 F1500 X96.749 Y92.789 E128.94278
M204 S3000
M205 X10 Y10
G0 F3000 X95.957 Y92.789
M204 S1800
M205 X8 Y8
G1 F1500 X87.209 Y84.041 E129.80688
M204 S3000
M205 X10 Y10
G0 F3000 X87.209 Y84.833
M204 S1800
M205 X8 Y8
G1 F1500 X95.165 Y92.789 E130.59276
M204 S3000
M205 X10 Y10
G0 F3000 X94.373 Y92.789
M204 S1800
M205 X8 Y8
G1 F1500 X87.209 Y85.625 E131.3004
M204 S3000
M205 X10 Y10
G0 F3000 X87.209 Y86.417
M204 S1800
M205 X8 Y8
G1 F1500 X93.581 Y92.789 E131.92981
