;FLAVOR:Marlin
;TIME:9688
;Filament used: 12.9368m
;Layer height: 0.2
;Generated with Cura_SteamEngine 3.6.0
M140 S85
M105
M190 S85
M104 S215
M105
M109 S215
M82 ;absolute extrusion mode
G21 ;metric values
G90 ;absolute positioning
M82 ;set extruder to absolute mode
M107 ;start with the fan off
G28 X0 Y0 ;move X/Y to min endstops
G28 Z0 ;move Z to min endstops
G1 Z15.0 F100 ;move the platform down 15mm
G92 E0 ;zero the extruded length
G1 F200 E3 ;extrude 3mm of feed stock
G92 E0 ;zero the extruded length again
G1 F100
M117 Printing...
G5
G92 E0
G1 F2400 E-6
;LAYER_COUNT:250
;LAYER:0
M106 S255
M204 S3000
M205 X10 Y10
G0 F3000 X80.471 Y80.496 Z0.3
M204 S1800
M205 X8 Y8
;TYPE:SKIRT
G1 F2400 E0
G1 X81.003 Y80.017 E0.05
G1 X81.585 Y79.602 E0.09993
G1 X82.21 Y79.253 E0.14993
G1 X82.87 Y78.977 E0.19989
G1 X83.556 Y78.776 E0.24982
G1 X84.261 Y78.653 E0.29981
G1 X85.01 Y78.609 E0.35221
G1 X119.992 Y78.612 E2.79558
G1 X120.706 Y78.652 E2.84552
G1 X121.411 Y78.771 E2.89546
G1 X122.098 Y78.969 E2.9454
G1 X122.76 Y79.242 E2.99541
G1 X123.386 Y79.587 E3.04534
G1 X123.97 Y79.999 E3.09526
G1 X124.505 Y80.475 E3.14528
G1 X124.983 Y81.007 E3.19523
G1 X125.399 Y81.589 E3.2452
G1 X125.747 Y82.214 E3.29516
G1 X126.023 Y82.873 E3.34506
G1 X126.224 Y83.56 E3.39506
G1 X126.298 Y83.927 E3.42121
G1 X127.226 Y89.321 E3.8035
G1 X128.422 Y94.504 E4.17502
G1 X129.106 Y96.988 E4.35498
G1 X131.074 Y103.019 E4.79808
G1 X131.258 Y103.71 E4.84803
G1 X131.363 Y104.417 E4.89795
G1 X131.39 Y105.004 E4.93899
G1 X131.391 Y124.991 E6.33501
G1 X131.351 Y125.705 E6.38496
G1 X131.232 Y126.41 E6.4349
G1 X131.034 Y127.098 E6.4849
G1 X130.762 Y127.759 E6.53483
G1 X130.417 Y128.385 E6.58475
G1 X130.004 Y128.97 E6.63477
G1 X129.529 Y129.504 E6.68468
G1 X128.997 Y129.982 E6.73464
G1 X128.415 Y130.398 E6.78461
G1 X127.79 Y130.746 E6.83457
G1 X127.13 Y131.023 E6.88456
G1 X126.444 Y131.224 E6.93449
G1 X125.739 Y131.347 E6.98448
G1 X124.991 Y131.391 E7.03681
G1 X85.009 Y131.391 E9.82941
G1 X84.295 Y131.351 E9.87936
G1 X83.59 Y131.232 E9.92929
G1 X82.902 Y131.034 E9.9793
G1 X82.241 Y130.761 E10.02925
G1 X81.614 Y130.417 E10.0792
G1 X81.03 Y130.004 E10.12916
G1 X80.496 Y129.529 E10.17908
G1 X80.017 Y128.997 E10.22908
G1 X79.602 Y128.415 E10.27901
G1 X79.253 Y127.79 E10.32901
G1 X78.977 Y127.13 E10.37897
G1 X78.776 Y126.444 E10.4289
G1 X78.653 Y125.739 E10.47889
G1 X78.609 Y124.991 E10.53122
G1 X78.609 Y85.009 E13.32382
G1 X78.649 Y84.295 E13.37377
G1 X78.768 Y83.59 E13.4237
G1 X78.966 Y82.902 E13.47371
G1 X79.239 Y82.241 E13.52366
G1 X79.583 Y81.614 E13.57361
G1 X79.996 Y81.03 E13.62357
G1 X80.471 Y80.496 E13.67349
M204 S3000
M205 X10 Y10
G0 F3000 X81.022 Y80.741
M204 S1800
M205 X8 Y8
G1 F2400 X81.548 Y80.305 E13.72121
G1 X82.121 Y79.933 E13.76893
G1 X82.734 Y79.63 E13.81669
G1 X83.377 Y79.402 E13.86434
G1 X84.043 Y79.249 E13.91207
G1 X85.01 Y79.169 E13.97984
G1 X119.992 Y79.172 E16.4232
G1 X120.674 Y79.212 E16.47092
G1 X121.346 Y79.331 E16.51859
G1 X122 Y79.529 E16.56631
G1 X122.627 Y79.801 E16.61405
G1 X123.218 Y80.144 E16.66178
G1 X123.764 Y80.554 E16.70947
G1 X124.259 Y81.026 E16.75724
G1 X124.695 Y81.551 E16.80491
G1 X125.067 Y82.124 E16.85262
G1 X125.37 Y82.737 E16.90038
G1 X125.599 Y83.381 E16.94812
G1 X125.746 Y84.022 E16.99406
G1 X126.677 Y89.436 E17.37776
G1 X127.877 Y94.638 E17.75064
G1 X128.565 Y97.134 E17.93148
G1 X130.542 Y103.192 E18.37657
G1 X130.715 Y103.853 E18.42429
G1 X130.811 Y104.53 E18.47205
G1 X130.83 Y105.004 E18.50518
G1 X130.831 Y124.991 E19.9012
G1 X130.791 Y125.673 E19.94892
G1 X130.672 Y126.345 E19.99658
G1 X130.475 Y127 E20.04436
G1 X130.203 Y127.626 E20.09203
G1 X129.859 Y128.217 E20.13979
G1 X129.449 Y128.763 E20.18748
G1 X128.978 Y129.258 E20.23521
G1 X128.452 Y129.695 E20.28297
G1 X127.879 Y130.067 E20.33069
G1 X127.267 Y130.369 E20.37836
G1 X126.623 Y130.598 E20.4261
G1 X125.957 Y130.751 E20.47383
G1 X124.991 Y130.831 E20.54153
G1 X85.009 Y130.831 E23.33412
G1 X84.327 Y130.791 E23.38184
G1 X83.654 Y130.672 E23.42958
G1 X83 Y130.475 E23.47728
G1 X82.373 Y130.202 E23.52505
G1 X81.783 Y129.859 E23.57271
G1 X81.236 Y129.449 E23.62046
G1 X80.741 Y128.978 E23.66819
G1 X80.305 Y128.452 E23.7159
G1 X79.933 Y127.879 E23.76362
G1 X79.63 Y127.266 E23.81138
G1 X79.402 Y126.623 E23.85903
G1 X79.249 Y125.957 E23.90676
G1 X79.169 Y124.991 E23.97446
G1 X79.169 Y85.009 E26.76706
G1 X79.209 Y84.327 E26.81478
G1 X79.328 Y83.654 E26.86251
G1 X79.525 Y83 E26.91022
G1 X79.798 Y82.373 E26.95798
G1 X80.141 Y81.783 E27.00565
G1 X80.551 Y81.236 E27.0534
G1 X81.022 Y80.741 E27.10112
M204 S3000
M205 X10 Y10
G0 F3000 X81.105 Y81.454
M204 S1800
M205 X8 Y8
G1 F2400 X81.571 Y81.001 E27.14651
G1 X82.089 Y80.61 E27.19184
G1 X82.652 Y80.284 E27.23728
G1 X83.25 Y80.031 E27.28264
G1 X83.874 Y79.852 E27.32798
G1 X84.516 Y79.752 E27.37336
G1 X85.009 Y79.729 E27.40783
G1 X119.991 Y79.732 E29.8512
G1 X120.64 Y79.772 E29.89661
G1 X121.278 Y79.891 E29.94194
G1 X121.897 Y80.088 E29.98731
G1 X122.488 Y80.36 E30.03275
G1 X123.04 Y80.701 E30.07807
G1 X123.546 Y81.108 E30.12343
G1 X123.999 Y81.575 E30.16887
G1 X124.391 Y82.093 E30.21425
G1 X124.716 Y82.655 E30.25959
G1 X124.969 Y83.253 E30.30494
G1 X125.195 Y84.117 E30.36732
G1 X126.129 Y89.55 E30.75236
G1 X127.338 Y94.787 E31.12777
G1 X128.028 Y97.291 E31.30918
G1 X130.01 Y103.366 E31.75551
G1 X130.173 Y103.995 E31.80089
G1 X130.257 Y104.639 E31.84626
G1 X130.27 Y105.004 E31.87177
G1 X130.271 Y124.991 E33.26778
G1 X130.231 Y125.639 E33.31313
G1 X130.112 Y126.278 E33.35853
G1 X129.915 Y126.897 E33.4039
G1 X129.644 Y127.487 E33.44925
G1 X129.302 Y128.04 E33.49466
G1 X128.895 Y128.546 E33.54002
G1 X128.429 Y128.998 E33.58536
G1 X127.911 Y129.39 E33.63074
G1 X127.349 Y129.715 E33.67608
G1 X126.751 Y129.969 E33.72146
G1 X126.126 Y130.148 E33.76687
G1 X125.484 Y130.248 E33.81225
G1 X124.991 Y130.271 E33.84672
G1 X85.009 Y130.271 E36.63932
G1 X84.361 Y130.231 E36.68466
G1 X83.722 Y130.112 E36.73006
G1 X83.103 Y129.915 E36.77543
G1 X82.513 Y129.644 E36.82078
G1 X81.96 Y129.302 E36.8662
G1 X81.454 Y128.895 E36.91155
G1 X81.001 Y128.429 E36.95695
G1 X80.61 Y127.911 E37.00228
G1 X80.284 Y127.348 E37.04772
G1 X80.031 Y126.75 E37.09307
G1 X79.852 Y126.126 E37.13841
G1 X79.752 Y125.484 E37.18379
G1 X79.729 Y124.991 E37.21827
G1 X79.729 Y85.009 E40.01086
G1 X79.769 Y84.361 E40.05621
G1 X79.888 Y83.722 E40.10161
G1 X80.085 Y83.103 E40.14698
G1 X80.356 Y82.513 E40.19233
G1 X80.698 Y81.96 E40.23774
G1 X81.105 Y81.454 E40.2831
M204 S3000
M205 X10 Y10
G1 F2400 E34.2831
;MESH:2811d66f-6dea-439f-bd01-ea96ed755402.stl
G0 F3000 X84.335 Y85.854
G0 X85.854 Y85.854
G0 X89.132 Y105.868
G0 X98.6 Y106.4
M204 S1800
M205 X8 Y8
;TYPE:WALL-INNER
G1 F2400 E40.2831
G1 F1500 X106.4 Y106.4 E40.8279
G1 X106.4 Y86.4 E42.22482
G1 X108.6 Y86.4 E42.37849
G1 X108.6 Y106.4 E43.77541
G1 X116.4 Y106.4 E44.32021
G1 X116.4 Y86.4 E45.71714
G1 X118.6 Y86.4 E45.8708
G1 X118.6 Y106.4 E47.26773
G1 X123.6 Y106.4 E47.61696
G1 X123.6 Y123.6 E48.81831
G1 X86.4 Y123.6 E51.41659
G1 X86.4 Y86.4 E54.01488
G1 X88.6 Y86.4 E54.16854
G1 X88.6 Y106.4 E55.56546
G1 X96.4 Y106.4 E56.11026
G1 X96.4 Y86.4 E57.50719
G1 X98.6 Y86.4 E57.66085
G1 X98.6 Y106.4 E59.05778
M204 S3000
M205 X10 Y10
G0 F3000 X99.16 Y105.84
M204 S1800
M205 X8 Y8
G1 F1500 X105.84 Y105.84 E59.52435
G1 X105.84 Y85.84 E60.92128
G1 X109.16 Y85.84 E61.15317
G1 X109.16 Y105.84 E62.55009
G1 X115.84 Y105.84 E63.01667
G1 X115.84 Y85.84 E64.41359
G1 X119.16 Y85.84 E64.64548
G1 X119.16 Y105.84 E66.04241
G1 X124.16 Y105.84 E66.39164
G1 X124.16 Y124.16 E67.67122
G1 X85.84 Y124.16 E70.34773
G1 X85.84 Y85.84 E73.02424
G1 X89.16 Y85.84 E73.25613
G1 X89.16 Y105.84 E74.65306
G1 X95.84 Y105.84 E75.11963
G1 X95.84 Y85.84 E76.51655
G1 X99.16 Y85.84 E76.74844
G1 X99.16 Y105.84 E78.14537
M204 S3000
M205 X10 Y10
G0 F3000 X99.72 Y105.28
M204 S1800
M205 X8 Y8
;TYPE:WALL-OUTER
G1 F1500 X105.28 Y105.28 E78.53372
G1 X105.28 Y85.28 E79.93064
G1 X109.72 Y85.28 E80.24076
G1 X109.72 Y105.28 E81.63768
G1 X115.28 Y105.28 E82.02603
G1 X115.28 Y85.28 E83.42296
G1 X119.72 Y85.28 E83.73307
G1 X119.72 Y105.28 E85.13
G1 X124.72 Y105.28 E85.47923
G1 X124.72 Y124.72 E86.83704
G1 X85.28 Y124.72 E89.59178
G1 X85.28 Y85.28 E92.34652
G1 X89.72 Y85.28 E92.65663
G1 X89.72 Y105.28 E94.05356
G1 X95.28 Y105.28 E94.44191
G1 X95.28 Y85.28 E95.83883
G1 X99.72 Y85.28 E96.14895
G1 X99.72 Y105.28 E97.54587
M204 S3000
M205 X10 Y10
G0 F3000 X99.92 Y105.28
G0 X99.92 Y105.94
G0 X98.05 Y106.95
M204 S1800
M205 X8 Y8
;TYPE:SKIN
G1 F1500 X106.95 Y106.95 E98.16751
G1 X106.95 Y86.95 E99.56443
G1 X108.05 Y86.95 E99.64126
G1 X108.05 Y106.95 E101.03819
G1 X116.95 Y106.95 E101.65982
G1 X116.95 Y86.95 E103.05675
G1 X118.05 Y86.95 E103.13358
G1 X118.05 Y106.95 E104.5305
G1 X123.05 Y106.95 E104.87973
G1 X123.05 Y123.05 E106.00426
G1 X86.95 Y123.05 E108.52571
G1 X86.95 Y86.95 E111.04716
G1 X88.05 Y86.95 E111.12399
G1 X88.05 Y106.95 E112.52092
G1 X96.95 Y106.95 E113.14255
G1 X96.95 Y86.95 E114.53947
G1 X98.05 Y86.95 E114.61631
G1 X98.05 Y106.95 E116.01323
M204 S3000
M205 X10 Y10
G0 F3000 X87.942 Y122.789
M204 S1800
M205 X8 Y8
G1 F1500 X87.209 Y122.055 E116.08568
M204 S3000
M205 X10 Y10
G0 F3000 X87.209 Y121.263
M204 S1800
M205 X8 Y8
G1 F1500 X88.734 Y122.789 E116.23637
M204 S3000
M205 X10 Y10
G0 F3000 X89.526 Y122.789
M204 S1800
M205 X8 Y8
G1 F1500 X87.209 Y120.471 E116.46529
M204 S3000
M205 X10 Y10
G0 F3000 X87.209 Y119.679
M204 S1800
M205 X8 Y8
G1 F1500 X90.318 Y122.789 E116.77244
M204 S3000
M205 X10 Y10
G0 F3000 X91.11 Y122.789
M204 S1800
M205 X8 Y8
G1 F1500 X87.209 Y118.887 E117.15782
M204 S3000
M205 X10 Y10
G0 F3000 X87.209 Y118.096
M204 S1800
M205 X8 Y8
G1 F1500 X91.902 Y122.789 E117.62138
M204 S3000
M205 X10 Y10
G0 F3000 X92.694 Y122.789
M204 S1800
M205 X8 Y8
G1 F1500 X87.209 Y117.304 E118.16317
M204 S3000
M205 X10 Y10
G0 F3000 X87.209 Y116.512
M204 S1800
M205 X8 Y8
G1 F1500 X93.486 Y122.789 E118.7832
M204 S3000
M205 X10 Y10
G0 F3000 X94.278 Y122.789
M204 S1800
M205 X8 Y8
G1 F1500 X87.209 Y115.72 E119.48146
M204 S3000
M205 X10 Y10
G0 F3000 X87.209 Y114.928
M204 S1800
M205 X8 Y8
G1 F1500 X95.07 Y122.789 E120.25795
M204 S3000
M205 X10 Y10
G0 F3000 X95.862 Y122.789
M204 S1800
M205 X8 Y8
G1 F1500 X87.209 Y114.136 E121.11267
M204 S3000
M205 X10 Y10
G0 F3000 X87.209 Y113.344
M204 S1800
M205 X8 Y8
G1 F1500 X96.654 Y122.789 E122.04563
M204 S3000
M205 X10 Y10
G0 F3000 X97.446 Y122.789
M204 S1800
M205 X8 Y8
G1 F1500 X87.209 Y112.552 E123.05681
M204 S3000
M205 X10 Y10
G0 F3000 X87.209 Y111.76
M204 S1800
M205 X8 Y8
G1 F1500 X98.238 Y122.789 E124.14623
M204 S3000
M205 X10 Y10
G0 F3000 X99.03 Y122.789
M204 S1800
M205 X8 Y8
G1 F1500 X87.209 Y110.968 E125.31388
M204 S3000
M205 X10 Y10
G0 F3000 X87.209 Y110.176
M204 S1800
M205 X8 Y8
G1 F1500 X99.822 Y122.789 E126.55976
M204 S3000
M205 X10 Y10
G0 F3000 X100.614 Y122.789
M204 S1800
M205 X8 Y8
G1 F1500 X87.209 Y109.384 E127.88387
M204 S3000
M205 X10 Y10
G0 F3000 X87.209 Y108.592
M204 S1800
M205 X8 Y8
G1 F1500 X101.406 Y122.789 E129.28622
M204 S3000
M205 X10 Y10
G0 F3000 X102.198 Y122.789
M204 S1800
M205 X8 Y8
G1 F1500 X87.209 Y107.8 E130.7668
M204 S3000
M205 X10 Y10
G0 F3000 X87.209 Y107.008
M204 S1800
M205 X8 Y8
G1 F1500 X102.99 Y122.789 E132.3256
M204 S3000
M205 X10 Y10
G0 F3000 X103.782 Y122.789
M204 S1800
M205 X8 Y8
G1 F1500 X88.202 Y107.209 E133.86456
M204 S3000
M205 X10 Y10
G0 F3000 X88.994 Y107.209
M204 S1800
M205 X8 Y8
G1 F1500 X104.574 Y122.789 E135.40351
M204 S3000
M205 X10 Y10
G0 F3000 X105.365 Y122.789
M204 S1800
M205 X8 Y8
G1 F1500 X89.786 Y107.209 E136.94242
M204 S3000
M205 X10 Y10
G0 F3000 X90.578 Y107.209
M204 S1800
M205 X8 Y8
G1 F1500 X106.157 Y122.789 E138.48132
M204 S3000
M205 X10 Y10
G0 F3000 X106.949 Y122.789
M204 S1800
M205 X8 Y8
G1 F1500 X91.37 Y107.209 E140.02023
M204 S3000
M205 X10 Y10
G0 F3000 X92.162 Y107.209
M204 S1800
M205 X8 Y8
G1 F1500 X107.741 Y122.789 E141.55913
M204 S3000
M205 X10 Y10
G0 F3000 X108.533 Y122.789
M204 S1800
M205 X8 Y8
G1 F1500 X92.954 Y107.209 E143.09804
M204 S3000
M205 X10 Y10
G0 F3000 X93.746 Y107.209
M204 S1800
M205 X8 Y8
G1 F1500 X109.325 Y122.789 E144.63694
M204 S3000
M205 X10 Y10
G0 F3000 X110.117 Y122.789
M204 S1800
M205 X8 Y8
G1 F1500 X94.538 Y107.209 E146.17585
M204 S3000
M205 X10 Y10
G0 F3000 X95.33 Y107.209
M204 S1800
M205 X8 Y8
G1 F1500 X110.909 Y122.789 E147.71475
M204 S3000
M205 X10 Y10
G0 F3000 X111.701 Y122.789
M204 S1800
M205 X8 Y8
G1 F1500 X96.121 Y107.209 E149.25371
M204 S3000
M205 X10 Y10
G0 F3000 X96.913 Y107.209
M204 S1800
M205 X8 Y8
G1 F1500 X112.493 Y122.789 E150.79266
M204 S3000
M205 X10 Y10
G0 F3000 X113.285 Y122.789
M204 S1800
M205 X8 Y8
G1 F1500 X97.209 Y106.713 E152.38061
M204 S3000
M205 X10 Y10
G0 F3000 X97.79 Y106.501
M204 S1800
M205 X8 Y8
G1 F1500 X97.209 Y105.921 E152.43795
M204 S3000
M205 X10 Y10
G0 F3000 X97.79 Y105.709
M204 S1800
M205 X8 Y8
G1 F1500 X97.209 Y105.129 E152.49529
M204 S3000
M205 X10 Y10
G0 F3000 X97.79 Y104.917
M204 S1800
M205 X8 Y8
G1 F1500 X97.209 Y104.337 E152.55263
M204 S3000
M205 X10 Y10
G0 F3000 X97.79 Y104.125
M204 S1800
M205 X8 Y8
G1 F1500 X97.209 Y103.545 E152.60997
M204 S3000
M205 X10 Y10
G0 F3000 X97.79 Y103.333
M204 S1800
M205 X8 Y8
G1 F1500 X97.209 Y102.753 E152.66731
M204 S3000
M205 X10 Y10
G0 F3000 X97.79 Y102.541
M204 S1800
M205 X8 Y8
G1 F1500 X97.209 Y101.961 E152.72465
M204 S3000
M205 X10 Y10
G0 F3000 X97.79 Y101.749
M204 S1800
M205 X8 Y8
G1 F1500 X97.209 Y101.169 E152.78199
M204 S3000
M205 X10 Y10
G0 F3000 X97.79 Y100.957
M204 S1800
M205 X8 Y8
G1 F1500 X97.209 Y100.377 E152.83933
M204 S3000
M205 X10 Y10
G0 F3000 X97.79 Y100.165
M204 S1800
M205 X8 Y8
G1 F1500 X97.209 Y99.585 E152.89667
M204 S3000
M205 X10 Y10
G0 F3000 X97.79 Y99.373
M204 S1800
M205 X8 Y8
G1 F1500 X97.209 Y98.793 E152.95401
M204 S3000
M205 X10 Y10
G0 F3000 X97.79 Y98.581
M204 S1800
M205 X8 Y8
G1 F1500 X97.209 Y98.001 E153.01135
M204 S3000
M205 X10 Y10
G0 F3000 X97.79 Y97.79
M204 S1800
M205 X8 Y8
G1 F1500 X97.209 Y97.209 E153.06874
M204 S3000
M205 X10 Y10
G0 F3000 X97.79 Y96.998
M204 S1800
M205 X8 Y8
G1 F1500 X97.209 Y96.417 E153.12613
M204 S3000
M205 X10 Y10
G0 F3000 X97.79 Y96.206
M204 S1800
M205 X8 Y8
G1 F1500 X97.209 Y95.625 E153.18352
M204 S3000
M205 X10 Y10
G0 F3000 X97.79 Y95.414
M204 S1800
M205 X8 Y8
G1 F1500 X97.209 Y94.833 E153.24091
M204 S3000
M205 X10 Y10
G0 F3000 X97.79 Y94.622
M204 S1800
M205 X8 Y8
G1 F1500 X97.209 Y94.041 E153.2983
M204 S3000
M205 X10 Y10
G0 F3000 X97.79 Y93.83
M204 S1800
M205 X8 Y8
G1 F1500 X97.209 Y93.249 E153.35569
M204 S3000
M205 X10 Y10
G0 F3000 X97.79 Y93.038
M204 S1800
M205 X8 Y8
G1 F1500 X97.209 Y92.457 E153.41308
M204 S3000
M205 X10 Y10
G0 F3000 X97.79 Y92.246
M204 S1800
M205 X8 Y8
G1 F1500 X97.209 Y91.665 E153.47047
M204 S3000
M205 X10 Y10
G0 F3000 X97.79 Y91.454
M204 S1800
M205 X8 Y8
G1 F1500 X97.209 Y90.873 E153.52786
M204 S3000
M205 X10 Y10
G0 F3000 X97.79 Y90.662
M204 S1800
M205 X8 Y8
G1 F1500 X97.209 Y90.081 E153.58525
M204 S3000
M205 X10 Y10
G0 F3000 X97.79 Y89.87
M204 S1800
M205 X8 Y8
G1 F1500 X97.209 Y89.289 E153.64264
M204 S3000
M205 X10 Y10
G0 F3000 X97.79 Y89.078
M204 S1800
M205 X8 Y8
G1 F1500 X97.209 Y88.497 E153.70003
M204 S3000
M205 X10 Y10
G0 F3000 X97.79 Y88.286
M204 S1800
M205 X8 Y8
G1 F1500 X97.209 Y87.705 E153.75742
M204 S3000
M205 X10 Y10
G0 F3000 X97.505 Y87.209
M204 S1800
M205 X8 Y8
G1 F1500 X97.79 Y87.494 E153.78557
M204 S3000
M205 X10 Y10
G0 F3000 X99.132 Y105.868
G0 X105.868 Y105.868
G0 X107.209 Y87.41
M204 S1800
M205 X8 Y8
G1 F1500 X107.789 Y87.99 E153.84286
M204 S3000
M205 X10 Y10
G0 F3000 X107.209 Y88.202
M204 S1800
M205 X8 Y8
G1 F1500 X107.789 Y88.782 E153.90016
M204 S3000
M205 X10 Y10
G0 F3000 X107.209 Y88.994
M204 S1800
M205 X8 Y8
G1 F1500 X107.789 Y89.574 E153.95745
M204 S3000
M205 X10 Y10
G0 F3000 X107.209 Y89.786
M204 S1800
M205 X8 Y8
G1 F1500 X107.789 Y90.366 E154.01474
M204 S3000
M205 X10 Y10
G0 F3000 X107.209 Y90.578
M204 S1800
M205 X8 Y8
G1 F1500 X107.789 Y91.158 E154.07203
M204 S3000
M205 X10 Y10
G0 F3000 X107.209 Y91.37
M204 S1800
M205 X8 Y8
G1 F1500 X107.789 Y91.95 E154.12932
M204 S3000
M205 X10 Y10
G0 F3000 X107.209 Y92.162
M204 S1800
M205 X8 Y8
G1 F1500 X107.789 Y92.742 E154.18661
