;FLAVOR:Marlin
;TIME:14174
;Filament used: 18.5067m
;Layer height: 0.2
;Generated with Cura_SteamEngine 3.6.0
M140 S85
M105
M190 S85
M104 S220
M105
M109 S220
M82 ;absolute extrusion mode
G21 ;metric values
G90 ;absolute positioning
M82 ;set extruder to absolute mode
M107 ;start with the fan off
G28 X0 Y0 ;move X/Y to min endstops
G28 Z0 ;move Z to min endstops
G1 Z15.0 F100 ;move the platform down 15mm
G92 E0 ;zero the extruded length
G1 F200 E3 ;extrude 3mm of feed stock
G92 E0 ;zero the extruded length again
G1 F100
M117 Printing...
G5
G92 E0
G1 F2400 E-6
;LAYER_COUNT:251
;LAYER:0
M106 S255
M204 S3000
M205 X10 Y10
G0 F3000 X77.03 Y77.194 Z0.2
M204 S1800
M205 X8 Y8
;TYPE:SKIRT
G1 F2400 E0
G1 X77.194 Y77.03 E0.0108
G1 X77.631 Y76.65 E0.03777
G1 X78.116 Y76.333 E0.06475
G1 X78.64 Y76.086 E0.09172
G1 X79.193 Y75.914 E0.11869
G1 X79.765 Y75.819 E0.14569
G1 X80.164 Y75.8 E0.16429
G1 X129.836 Y75.8 E2.47722
G1 X130.414 Y75.84 E2.5042
G1 X130.981 Y75.959 E2.53118
G1 X131.526 Y76.155 E2.55815
G1 X132.039 Y76.424 E2.58512
G1 X132.51 Y76.761 E2.61209
G1 X132.806 Y77.03 E2.63071
G1 X132.97 Y77.194 E2.64151
G1 X133.35 Y77.631 E2.66848
G1 X133.667 Y78.116 E2.69546
G1 X133.914 Y78.64 E2.72243
G1 X134.086 Y79.193 E2.7494
G1 X134.181 Y79.765 E2.7764
G1 X134.2 Y80.164 E2.795
G1 X134.2 Y129.836 E5.10793
G1 X134.16 Y130.414 E5.13491
G1 X134.041 Y130.981 E5.16189
G1 X133.845 Y131.526 E5.18886
G1 X133.576 Y132.039 E5.21583
G1 X133.239 Y132.51 E5.2428
G1 X132.97 Y132.806 E5.26142
G1 X132.806 Y132.97 E5.27222
G1 X132.369 Y133.35 E5.29919
G1 X131.884 Y133.667 E5.32617
G1 X131.36 Y133.914 E5.35314
G1 X130.807 Y134.086 E5.38011
G1 X130.235 Y134.181 E5.40711
G1 X129.836 Y134.2 E5.42571
G1 X80.164 Y134.2 E7.73864
G1 X79.586 Y134.16 E7.76562
G1 X79.019 Y134.041 E7.7926
G1 X78.474 Y133.845 E7.81957
G1 X77.961 Y133.576 E7.84654
G1 X77.49 Y133.239 E7.87351
G1 X77.194 Y132.97 E7.89213
G1 X77.03 Y132.806 E7.90293
G1 X76.65 Y132.369 E7.9299
G1 X76.333 Y131.884 E7.95688
G1 X76.086 Y131.36 E7.98385
G1 X75.914 Y130.807 E8.01082
G1 X75.819 Y130.235 E8.03782
G1 X75.8 Y129.836 E8.05642
G1 X75.8 Y80.164 E10.36936
G1 X75.84 Y79.586 E10.39633
G1 X75.959 Y79.019 E10.42331
G1 X76.155 Y78.474 E10.45028
G1 X76.424 Y77.961 E10.47725
G1 X76.761 Y77.49 E10.50422
G1 X77.03 Y77.194 E10.52284
M204 S3000
M205 X10 Y10
G0 F3000 X77.426 Y77.59
M204 S1800
M205 X8 Y8
G1 F2400 X77.59 Y77.426 E10.53364
G1 X77.999 Y77.074 E10.55877
G1 X78.455 Y76.786 E10.58388
G1 X78.948 Y76.569 E10.60897
G1 X79.468 Y76.427 E10.63407
G1 X80.164 Y76.36 E10.66662
G1 X129.836 Y76.36 E12.97956
G1 X130.374 Y76.4 E13.00468
G1 X130.9 Y76.519 E13.02979
G1 X131.402 Y76.714 E13.05487
G1 X131.871 Y76.982 E13.08002
G1 X132.41 Y77.426 E13.11254
G1 X132.574 Y77.59 E13.12334
G1 X132.926 Y77.999 E13.14847
G1 X133.214 Y78.455 E13.17358
G1 X133.431 Y78.948 E13.19866
G1 X133.573 Y79.468 E13.22376
G1 X133.64 Y80.164 E13.25632
G1 X133.64 Y129.836 E15.56926
G1 X133.6 Y130.374 E15.59438
G1 X133.481 Y130.9 E15.61949
G1 X133.286 Y131.402 E15.64456
G1 X133.018 Y131.871 E15.66972
G1 X132.574 Y132.41 E15.70223
G1 X132.41 Y132.574 E15.71303
G1 X132.001 Y132.926 E15.73816
G1 X131.545 Y133.214 E15.76327
G1 X131.052 Y133.431 E15.78836
G1 X130.532 Y133.573 E15.81346
G1 X129.836 Y133.64 E15.84601
G1 X80.164 Y133.64 E18.15895
G1 X79.626 Y133.6 E18.18407
G1 X79.1 Y133.481 E18.20918
G1 X78.598 Y133.286 E18.23426
G1 X78.129 Y133.018 E18.25941
G1 X77.59 Y132.574 E18.29193
G1 X77.426 Y132.41 E18.30273
G1 X77.074 Y132.001 E18.32786
G1 X76.786 Y131.545 E18.35297
G1 X76.569 Y131.052 E18.37805
G1 X76.427 Y130.532 E18.40315
G1 X76.36 Y129.836 E18.43571
G1 X76.36 Y80.164 E20.74865
G1 X76.4 Y79.626 E20.77377
G1 X76.519 Y79.1 E20.79888
G1 X76.714 Y78.598 E20.82396
G1 X76.982 Y78.129 E20.84911
G1 X77.426 Y77.59 E20.88162
M204 S3000
M205 X10 Y10
G0 F3000 X77.822 Y77.986
M204 S1800
M205 X8 Y8
G1 F2400 X77.986 Y77.822 E20.89242
G1 X78.364 Y77.501 E20.91552
G1 X78.788 Y77.244 E20.9386
G1 X79.249 Y77.059 E20.96173
G1 X79.732 Y76.95 E20.98479
G1 X80.164 Y76.92 E21.00495
G1 X129.836 Y76.92 E23.31789
G1 X130.33 Y76.96 E23.34097
G1 X130.812 Y77.079 E23.36409
G1 X131.268 Y77.273 E23.38716
G1 X131.687 Y77.538 E23.41025
G1 X132.014 Y77.822 E23.43041
G1 X132.178 Y77.986 E23.44121
G1 X132.499 Y78.364 E23.4643
G1 X132.756 Y78.788 E23.48739
G1 X132.941 Y79.249 E23.51052
G1 X133.05 Y79.732 E23.53358
G1 X133.08 Y80.164 E23.55374
G1 X133.08 Y129.836 E25.86668
G1 X133.04 Y130.33 E25.88976
G1 X132.921 Y130.812 E25.91287
G1 X132.727 Y131.268 E25.93595
G1 X132.462 Y131.687 E25.95903
G1 X132.178 Y132.014 E25.9792
G1 X132.014 Y132.178 E25.99
G1 X131.636 Y132.499 E26.01309
G1 X131.212 Y132.756 E26.03618
G1 X130.751 Y132.941 E26.05931
G1 X130.268 Y133.05 E26.08237
G1 X129.836 Y133.08 E26.10253
G1 X80.164 Y133.08 E28.41547
G1 X79.67 Y133.04 E28.43854
G1 X79.188 Y132.921 E28.46166
G1 X78.732 Y132.727 E28.48474
G1 X78.313 Y132.462 E28.50782
G1 X77.986 Y132.178 E28.52799
G1 X77.822 Y132.014 E28.53879
G1 X77.501 Y131.636 E28.56188
G1 X77.244 Y131.212 E28.58497
G1 X77.059 Y130.751 E28.6081
G1 X76.95 Y130.268 E28.63115
G1 X76.92 Y129.836 E28.65132
G1 X76.92 Y80.164 E30.96425
G1 X76.96 Y79.67 E30.98733
G1 X77.079 Y79.188 E31.01045
G1 X77.273 Y78.732 E31.03352
G1 X77.538 Y78.313 E31.05661
G1 X77.822 Y77.986 E31.07678
M204 S3000
M205 X10 Y10
G0 F3000 X78.218 Y78.382
M204 S1800
M205 X8 Y8
G1 F2400 X78.382 Y78.218 E31.08758
G1 X78.726 Y77.93 E31.10847
G1 X79.116 Y77.708 E31.12936
G1 X79.539 Y77.559 E31.15025
G1 X80.164 Y77.48 E31.17958
G1 X129.836 Y77.48 E33.49252
G1 X130.283 Y77.52 E33.51341
G1 X130.715 Y77.638 E33.53427
G1 X131.12 Y77.832 E33.55518
G1 X131.618 Y78.218 E33.58452
G1 X131.782 Y78.382 E33.59532
G1 X132.07 Y78.726 E33.61621
G1 X132.292 Y79.116 E33.6371
G1 X132.441 Y79.539 E33.65799
G1 X132.52 Y80.164 E33.68732
G1 X132.52 Y129.836 E36.00026
G1 X132.48 Y130.283 E36.02115
G1 X132.362 Y130.715 E36.04201
G1 X132.168 Y131.12 E36.06292
G1 X131.782 Y131.618 E36.09226
G1 X131.618 Y131.782 E36.10306
G1 X131.274 Y132.07 E36.12395
G1 X130.884 Y132.292 E36.14484
G1 X130.461 Y132.441 E36.16573
G1 X129.836 Y132.52 E36.19506
G1 X80.164 Y132.52 E38.508
G1 X79.717 Y132.48 E38.52889
G1 X79.285 Y132.362 E38.54975
G1 X78.88 Y132.168 E38.57066
G1 X78.382 Y131.782 E38.6
G1 X78.218 Y131.618 E38.6108
G1 X77.93 Y131.274 E38.63169
G1 X77.708 Y130.884 E38.65258
G1 X77.559 Y130.461 E38.67347
G1 X77.48 Y129.836 E38.7028
G1 X77.48 Y80.164 E41.01574
G1 X77.52 Y79.717 E41.03663
G1 X77.638 Y79.285 E41.05749
G1 X77.832 Y78.88 E41.0784
G1 X78.218 Y78.382 E41.10774
M204 S3000
M205 X10 Y10
G0 F3000 X78.614 Y78.778
M204 S1800
M205 X8 Y8
G1 F2400 X78.778 Y78.614 E41.11853
G1 X79.084 Y78.364 E41.13693
G1 X79.435 Y78.181 E41.15537
G1 X79.815 Y78.071 E41.17379
G1 X80.164 Y78.04 E41.1901
G1 X129.836 Y78.04 E43.50304
G1 X130.229 Y78.08 E43.52143
G1 X130.607 Y78.198 E43.53987
G1 X130.953 Y78.389 E43.55827
G1 X131.222 Y78.614 E43.5746
G1 X131.386 Y78.778 E43.5854
G1 X131.636 Y79.084 E43.6038
G1 X131.819 Y79.435 E43.62224
G1 X131.929 Y79.815 E43.64066
G1 X131.96 Y80.164 E43.65697
G1 X131.96 Y129.836 E45.96991
G1 X131.92 Y130.229 E45.9883
G1 X131.802 Y130.607 E46.00674
G1 X131.611 Y130.953 E46.02514
G1 X131.386 Y131.222 E46.04147
G1 X131.222 Y131.386 E46.05227
G1 X130.916 Y131.636 E46.07067
G1 X130.565 Y131.819 E46.0891
G1 X130.185 Y131.929 E46.10753
G1 X129.836 Y131.96 E46.12384
G1 X80.164 Y131.96 E48.43678
G1 X79.771 Y131.92 E48.45517
G1 X79.393 Y131.802 E48.47361
G1 X79.047 Y131.611 E48.49201
G1 X78.778 Y131.386 E48.50834
G1 X78.614 Y131.222 E48.51914
G1 X78.364 Y130.916 E48.53754
G1 X78.181 Y130.565 E48.55597
G1 X78.071 Y130.185 E48.57439
G1 X78.04 Y129.836 E48.59071
G1 X78.04 Y80.164 E50.90365
G1 X78.08 Y79.771 E50.92204
G1 X78.198 Y79.393 E50.94048
G1 X78.389 Y79.047 E50.95888
G1 X78.614 Y78.778 E50.97521
M204 S3000
M205 X10 Y10
G0 F3000 X79.01 Y79.174
M204 S1800
M205 X8 Y8
G1 F2400 X79.174 Y79.01 E50.98601
G1 X79.437 Y78.804 E51.00157
G1 X79.741 Y78.665 E51.01713
G1 X80.164 Y78.6 E51.03706
G1 X129.836 Y78.6 E53.35
G1 X130.168 Y78.64 E53.36557
G1 X130.48 Y78.757 E53.38108
G1 X130.826 Y79.01 E53.40104
G1 X130.99 Y79.174 E53.41184
G1 X131.196 Y79.437 E53.4274
G1 X131.335 Y79.741 E53.44296
G1 X131.4 Y80.164 E53.46289
G1 X131.4 Y129.836 E55.77583
G1 X131.36 Y130.168 E55.7914
G1 X131.243 Y130.48 E55.80691
G1 X130.99 Y130.826 E55.82687
G1 X130.826 Y130.99 E55.83767
G1 X130.563 Y131.196 E55.85323
G1 X130.259 Y131.335 E55.86879
G1 X129.836 Y131.4 E55.88872
G1 X80.164 Y131.4 E58.20166
G1 X79.832 Y131.36 E58.21723
G1 X79.52 Y131.243 E58.23275
G1 X79.174 Y130.99 E58.2527
G1 X79.01 Y130.826 E58.2635
G1 X78.804 Y130.563 E58.27906
G1 X78.665 Y130.259 E58.29462
G1 X78.6 Y129.836 E58.31455
G1 X78.6 Y80.164 E60.62749
G1 X78.64 Y79.832 E60.64306
G1 X78.757 Y79.52 E60.65858
G1 X79.01 Y79.174 E60.67853
M204 S3000
M205 X10 Y10
G0 F3000 X79.406 Y79.57
M204 S1800
M205 X8 Y8
G1 F2400 X79.57 Y79.406 E60.68933
G1 X79.779 Y79.254 E60.70137
G1 X80.024 Y79.172 E60.7134
G1 X80.164 Y79.16 E60.71994
G1 X129.836 Y79.16 E63.03288
G1 X130.091 Y79.2 E63.0449
G1 X130.323 Y79.315 E63.05695
G1 X130.43 Y79.406 E63.06349
G1 X130.594 Y79.57 E63.07429
G1 X130.746 Y79.779 E63.08633
G1 X130.828 Y80.024 E63.09836
G1 X130.84 Y80.164 E63.1049
G1 X130.84 Y129.836 E65.41784
G1 X130.8 Y130.091 E65.42986
G1 X130.685 Y130.323 E65.44191
G1 X130.594 Y130.43 E65.44845
G1 X130.43 Y130.594 E65.45925
G1 X130.221 Y130.746 E65.47129
G1 X129.976 Y130.828 E65.48332
G1 X129.836 Y130.84 E65.48986
G1 X80.164 Y130.84 E67.8028
G1 X79.909 Y130.8 E67.81482
G1 X79.677 Y130.685 E67.82687
G1 X79.57 Y130.594 E67.83341
G1 X79.406 Y130.43 E67.84421
G1 X79.254 Y130.221 E67.85625
G1 X79.172 Y129.976 E67.86828
G1 X79.16 Y129.836 E67.87482
G1 X79.16 Y80.164 E70.18776
G1 X79.2 Y79.909 E70.19978
G1 X79.315 Y79.677 E70.21183
G1 X79.406 Y79.57 E70.21837
M204 S3000
M205 X10 Y10
G0 F3000 X79.802 Y79.966
M204 S1800
M205 X8 Y8
G1 F2400 X79.966 Y79.802 E70.22917
G1 X80.164 Y79.72 E70.23915
G1 X129.836 Y79.72 E72.55209
G1 X130.034 Y79.802 E72.56207
G1 X130.198 Y79.966 E72.57287
G1 X130.28 Y80.164 E72.58285
G1 X130.28 Y129.836 E74.89578
G1 X130.198 Y130.034 E74.90576
G1 X130.034 Y130.198 E74.91656
G1 X129.836 Y130.28 E74.92654
G1 X80.164 Y130.28 E77.23948
G1 X79.966 Y130.198 E77.24946
G1 X79.802 Y130.034 E77.26026
G1 X79.72 Y129.836 E77.27023
G1 X79.72 Y80.164 E79.58317
G1 X79.802 Y79.966 E79.59315
M204 S3000
M205 X10 Y10
G1 F2400 E73.59315
;MESH:81e29781-e2c4-440a-86c2-0bb43ead423a.stl
G0 F3000 X80.854 Y80.854
G0 X129.09 Y129.09
G0 X129.72 Y129.72
M204 S1800
M205 X8 Y8
;TYPE:WALL-OUTER
G1 F2400 E79.59315
G1 F1500 X80.28 Y129.72 E81.89528
G1 X80.28 Y80.28 E84.19742
G1 X129.72 Y80.28 E86.49955
G1 X129.72 Y129.72 E88.80168
M204 S3000
M205 X10 Y10
G0 F3000 X129.52 Y129.72
G0 X129.16 Y129.16
M204 S1800
M205 X8 Y8
;TYPE:WALL-INNER
G1 F1500 X80.84 Y129.16 E91.05167
G1 X80.84 Y80.84 E93.30165
G1 X129.16 Y80.84 E95.55163
G1 X129.16 Y129.16 E97.80161
M204 S3000
M205 X10 Y10
G0 F3000 X128.6 Y128.6
M204 S1800
M205 X8 Y8
G1 F1500 X81.4 Y128.6 E99.99944
G1 X81.4 Y81.4 E102.19727
G1 X128.6 Y81.4 E104.3951
G1 X128.6 Y128.6 E106.59293
M204 S3000
M205 X10 Y10
G0 F3000 X128.05 Y128.05
M204 S1800
M205 X8 Y8
;TYPE:SKIN
G1 F1500 X81.95 Y128.05 E108.73954
G1 X81.95 Y81.95 E110.88615
G1 X128.05 Y81.95 E113.03276
G1 X128.05 Y128.05 E115.17937
M204 S3000
M205 X10 Y10
G0 F3000 X127.789 Y82.648
M204 S1800
M205 X8 Y8
G1 F1500 X127.352 Y82.21 E115.20818
M204 S3000
M205 X10 Y10
G0 F3000 X126.56 Y82.21
M204 S1800
M205 X8 Y8
G1 F1500 X127.789 Y83.44 E115.28914
M204 S3000
M205 X10 Y10
G0 F3000 X127.789 Y84.231
M204 S1800
M205 X8 Y8
G1 F1500 X125.768 Y82.21 E115.42223
M204 S3000
M205 X10 Y10
G0 F3000 X124.976 Y82.21
M204 S1800
M205 X8 Y8
G1 F1500 X127.789 Y85.023 E115.60747
M204 S3000
M205 X10 Y10
G0 F3000 X127.789 Y85.815
M204 S1800
M205 X8 Y8
G1 F1500 X124.184 Y82.21 E115.84486
M204 S3000
M205 X10 Y10
G0 F3000 X123.392 Y82.21
M204 S1800
M205 X8 Y8
G1 F1500 X127.789 Y86.607 E116.13441
M204 S3000
M205 X10 Y10
G0 F3000 X127.789 Y87.399
M204 S1800
M205 X8 Y8
G1 F1500 X122.6 Y82.21 E116.47612
M204 S3000
M205 X10 Y10
G0 F3000 X121.808 Y82.21
M204 S1800
M205 X8 Y8
G1 F1500 X127.789 Y88.191 E116.86998
M204 S3000
M205 X10 Y10
G0 F3000 X127.789 Y88.983
M204 S1800
M205 X8 Y8
G1 F1500 X121.016 Y82.21 E117.31599
M204 S3000
M205 X10 Y10
G0 F3000 X120.224 Y82.21
M204 S1800
M205 X8 Y8
G1 F1500 X127.789 Y89.775 E117.81416
M204 S3000
M205 X10 Y10
G0 F3000 X127.789 Y90.567
M204 S1800
M205 X8 Y8
G1 F1500 X119.432 Y82.21 E118.36448
M204 S3000
M205 X10 Y10
G0 F3000 X118.64 Y82.21
M204 S1800
M205 X8 Y8
G1 F1500 X127.789 Y91.359 E118.96696
M204 S3000
M205 X10 Y10
G0 F3000 X127.789 Y92.151
M204 S1800
M205 X8 Y8
G1 F1500 X117.848 Y82.21 E119.62159
M204 S3000
M205 X10 Y10
G0 F3000 X117.056 Y82.21
M204 S1800
M205 X8 Y8
G1 F1500 X127.789 Y92.943 E120.32838
M204 S3000
M205 X10 Y10
G0 F3000 X127.789 Y93.735
M204 S1800
M205 X8 Y8
G1 F1500 X116.264 Y82.21 E121.08732
M204 S3000
M205 X10 Y10
G0 F3000 X115.472 Y82.21
M204 S1800
M205 X8 Y8
G1 F1500 X127.789 Y94.527 E121.89841
M204 S3000
M205 X10 Y10
G0 F3000 X127.789 Y95.319
M204 S1800
M205 X8 Y8
G1 F1500 X114.68 Y82.21 E122.76166
M204 S3000
M205 X10 Y10
G0 F3000 X113.888 Y82.21
M204 S1800
M205 X8 Y8
G1 F1500 X127.789 Y96.111 E123.67707
M204 S3000
M205 X10 Y10
G0 F3000 X127.789 Y96.903
M204 S1800
M205 X8 Y8
G1 F1500 X113.096 Y82.21 E124.64463
M204 S3000
M205 X10 Y10
G0 F3000 X112.304 Y82.21
M204 S1800
M205 X8 Y8
G1 F1500 X127.789 Y97.695 E125.66434
M204 S3000
M205 X10 Y10
G0 F3000 X127.789 Y98.487
M204 S1800
M205 X8 Y8
G1 F1500 X111.512 Y82.21 E126.73621
M204 S3000
M205 X10 Y10
G0 F3000 X110.72 Y82.21
M204 S1800
M205 X8 Y8
G1 F1500 X127.789 Y99.279 E127.86023
M204 S3000
M205 X10 Y10
G0 F3000 X127.789 Y100.071
M204 S1800
M205 X8 Y8
G1 F1500 X109.928 Y82.21 E129.03641
M204 S3000
M205 X10 Y10
G0 F3000 X109.136 Y82.21
M204 S1800
M205 X8 Y8
G1 F1500 X127.789 Y100.863 E130.26474
M204 S3000
M205 X10 Y10
G0 F3000 X127.789 Y101.655
M204 S1800
M205 X8 Y8
G1 F1500 X108.345 Y82.21 E131.54519
M204 S3000
M205 X10 Y10
G0 F3000 X107.553 Y82.21
M204 S1800
M205 X8 Y8
G1 F1500 X127.789 Y102.447 E132.8778
M204 S3000
M205 X10 Y10
G0 F3000 X127.789 Y103.239
M204 S1800
M205 X8 Y8
G1 F1500 X106.761 Y82.21 E134.26257
M204 S3000
M205 X10 Y10
G0 F3000 X105.969 Y82.21
M204 S1800
M205 X8 Y8
G1 F1500 X127.789 Y104.03 E135.69945
M204 S3000
M205 X10 Y10
G0 F3000 X127.789 Y104.822
M204 S1800
M205 X8 Y8
G1 F1500 X105.177 Y82.21 E137.18849
M204 S3000
M205 X10 Y10
G0 F3000 X104.385 Y82.21
M204 S1800
M205 X8 Y8
G1 F1500 X127.789 Y105.614 E138.72968
M204 S3000
M205 X10 Y10
G0 F3000 X127.789 Y106.406
M204 S1800
M205 X8 Y8
G1 F1500 X103.593 Y82.21 E140.32303
M204 S3000
M205 X10 Y10
G0 F3000 X102.801 Y82.21
M204 S1800
M205 X8 Y8
G1 F1500 X127.789 Y107.198 E141.96853
M204 S3000
M205 X10 Y10
G0 F3000 X127.789 Y107.99
M204 S1800
M205 X8 Y8
G1 F1500 X102.009 Y82.21 E143.66619
M204 S3000
M205 X10 Y10
G0 F3000 X101.217 Y82.21
M204 S1800
M205 X8 Y8
G1 F1500 X127.789 Y108.782 E145.416
M204 S3000
M205 X10 Y10
G0 F3000 X127.789 Y109.574
M204 S1800
M205 X8 Y8
G1 F1500 X100.425 Y82.21 E147.21797
M204 S3000
M205 X10 Y10
G0 F3000 X99.633 Y82.21
M204 S1800
M205 X8 Y8
G1 F1500 X127.789 Y110.366 E149.07209
M204 S3000
M205 X10 Y10
G0 F3000 X127.789 Y111.158
M204 S1800
M205 X8 Y8
G1 F1500 X98.841 Y82.21 E150.97836
M204 S3000
M205 X10 Y10
G0 F3000 X98.049 Y82.21
M204 S1800
M205 X8 Y8
G1 F1500 X127.789 Y111.95 E152.93679
M204 S3000
M205 X10 Y10
G0 F3000 X127.789 Y112.742
M204 S1800
M205 X8 Y8
G1 F1500 X97.257 Y82.21 E154.94738
M204 S3000
M205 X10 Y10
G0 F3000 X96.465 Y82.21
M204 S1800
M205 X8 Y8
G1 F1500 X127.789 Y113.534 E157.01012
M204 S3000
M205 X10 Y10
G0 F3000 X127.789 Y114.326
M204 S1800
M205 X8 Y8
G1 F1500 X95.673 Y82.21 E159.12501
M204 S3000
M205 X10 Y10
G0 F3000 X94.881 Y82.21
M204 S1800
M205 X8 Y8
G1 F1500 X127.789 Y115.118 E161.29206
M204 S3000
M205 X10 Y10
G0 F3000 X127.789 Y115.91
M204 S1800
M205 X8 Y8
G1 F1500 X94.089 Y82.21 E163.51126
M204 S3000
M205 X10 Y10
G0 F3000 X93.297 Y82.21
M204 S1800
M205 X8 Y8
