;FLAVOR:Marlin
;TIME:1140
;Filament used: 1.2117m
;Layer height: 0.2
;Generated with Cura_SteamEngine 3.6.0
M140 S70
M105
M190 S70
M104 S210
M105
M109 S210
M82 ;absolute extrusion mode
G21 ;metric values
G90 ;absolute positioning
M82 ;set extruder to absolute mode
M107 ;start with the fan off
G28 X0 Y0 ;move X/Y to min endstops
G28 Z0 ;move Z to min endstops
G1 Z15.0 F100 ;move the platform down 15mm
G92 E0 ;zero the extruded length
G1 F200 E3 ;extrude 3mm of feed stock
G92 E0 ;zero the extruded length again
G1 F100
M117 Printing...
G5
G92 E0
G1 F2400 E-6
;LAYER_COUNT:86
;LAYER:0
M106 S255
M204 S3000
M205 X10 Y10
G0 F3000 X91.13 Y92.952 Z0.2
M204 S1800
M205 X8 Y8
;TYPE:SKIRT
G1 F2400 E0
G1 X93.192 Y90.909 E0.13516
G1 X93.727 Y90.434 E0.16848
G1 X94.312 Y90.023 E0.20177
G1 X95.252 Y89.54 E0.25098
G1 X100.973 Y87.176 E0.53922
G1 X101.648 Y86.94 E0.57251
G1 X102.346 Y86.781 E0.60585
G1 X103.213 Y86.694 E0.64642
G1 X105.06 Y86.635 E0.73247
G1 X105.541 Y86.638 E0.75487
G1 X106.859 Y86.695 E0.8163
G1 X107.57 Y86.766 E0.84957
G1 X108.27 Y86.916 E0.8829
G1 X109.026 Y87.174 E0.9201
G1 X114.751 Y89.54 E1.20855
G1 X115.396 Y89.85 E1.24187
G1 X116.002 Y90.23 E1.27518
G1 X116.692 Y90.793 E1.31665
G1 X117.97 Y91.995 E1.39834
G1 X118.29 Y92.318 E1.41951
G1 X119.249 Y93.358 E1.48538
G1 X119.704 Y93.911 E1.51873
G1 X120.094 Y94.51 E1.55201
G1 X120.458 Y95.251 E1.59046
G1 X122.818 Y100.958 E1.87802
G1 X123.054 Y101.634 E1.91136
G1 X123.213 Y102.331 E1.94465
G1 X123.302 Y103.247 E1.98751
G1 X123.358 Y105.526 E2.09366
G1 X123.351 Y106.03 E2.11713
G1 X123.302 Y106.933 E2.15924
G1 X123.223 Y107.644 E2.19255
G1 X123.066 Y108.341 E2.22582
G1 X122.822 Y109.039 E2.26025
G1 X120.555 Y114.501 E2.53562
G1 X120.099 Y115.396 E2.58239
G1 X119.821 Y115.849 E2.60714
G1 X119.413 Y116.436 E2.64043
G1 X118.863 Y117.055 E2.67898
G1 X116.791 Y119.101 E2.81457
G1 X116.255 Y119.574 E2.84786
G1 X115.669 Y119.985 E2.88119
G1 X114.741 Y120.461 E2.92975
G1 X109.043 Y122.819 E3.2169
G1 X108.368 Y123.055 E3.2502
G1 X107.671 Y123.214 E3.28348
G1 X106.915 Y123.297 E3.3189
G1 X105.731 Y123.356 E3.3741
G1 X105.245 Y123.362 E3.39673
G1 X103.252 Y123.31 E3.48956
G1 X102.539 Y123.251 E3.52288
G1 X101.837 Y123.113 E3.55619
G1 X100.927 Y122.807 E3.6009
G1 X96.844 Y121.081 E3.80731
G1 X96.832 Y121.077 E3.8079
G1 X95.326 Y120.48 E3.88333
G1 X94.676 Y120.179 E3.91669
G1 X94.065 Y119.808 E3.94997
G1 X93.31 Y119.202 E3.99505
G1 X92.041 Y118.014 E4.07599
G1 X91.704 Y117.674 E4.09828
G1 X90.742 Y116.628 E4.16446
G1 X90.288 Y116.076 E4.19774
G1 X89.899 Y115.476 E4.23103
G1 X89.516 Y114.686 E4.27191
G1 X89.249 Y114.022 E4.30524
G1 X87.185 Y109.051 E4.55587
G1 X86.948 Y108.376 E4.58918
G1 X86.788 Y107.679 E4.62248
G1 X86.698 Y106.749 E4.66599
G1 X86.643 Y104.437 E4.77367
G1 X86.651 Y103.933 E4.79715
G1 X86.699 Y103.061 E4.83781
G1 X86.778 Y102.35 E4.87112
G1 X86.936 Y101.653 E4.9044
G1 X87.178 Y100.959 E4.93863
G1 X89.445 Y95.498 E5.21395
G1 X89.898 Y94.61 E5.26037
G1 X90.176 Y94.156 E5.28516
G1 X90.583 Y93.568 E5.31846
G1 X91.13 Y92.952 E5.35682
M204 S3000
M205 X10 Y10
G0 F3000 X91.524 Y93.349
M204 S1800
M205 X8 Y8
G1 F2400 X93.586 Y91.306 E5.49198
G1 X94.098 Y90.855 E5.52375
G1 X94.66 Y90.466 E5.55558
G1 X95.466 Y90.058 E5.59764
G1 X101.187 Y87.694 E5.88588
G1 X101.832 Y87.47 E5.91768
G1 X102.5 Y87.323 E5.94953
G1 X103.231 Y87.254 E5.98372
G1 X105.078 Y87.195 E6.06976
G1 X105.516 Y87.197 E6.09016
G1 X106.834 Y87.254 E6.15159
G1 X107.514 Y87.324 E6.18342
G1 X108.181 Y87.472 E6.21523
G1 X108.813 Y87.692 E6.24639
G1 X114.538 Y90.058 E6.53484
G1 X115.153 Y90.355 E6.56664
G1 X115.729 Y90.722 E6.59845
G1 X116.308 Y91.201 E6.63344
G1 X117.586 Y92.403 E6.71513
G1 X117.878 Y92.698 E6.73446
G1 X118.837 Y93.738 E6.80033
G1 X119.27 Y94.267 E6.83216
G1 X119.639 Y94.842 E6.86398
G1 X119.941 Y95.465 E6.89622
G1 X122.301 Y101.172 E7.18378
G1 X122.524 Y101.818 E7.21561
G1 X122.671 Y102.485 E7.24741
G1 X122.742 Y103.261 E7.28369
G1 X122.798 Y105.54 E7.38985
G1 X122.791 Y105.999 E7.41122
G1 X122.742 Y106.902 E7.45333
G1 X122.666 Y107.581 E7.48514
G1 X122.51 Y108.247 E7.517
G1 X122.305 Y108.825 E7.54555
G1 X120.038 Y114.287 E7.82092
G1 X119.621 Y115.103 E7.86359
G1 X119.343 Y115.556 E7.88834
G1 X118.953 Y116.116 E7.92012
G1 X118.469 Y116.656 E7.95388
G1 X116.397 Y118.702 E8.08948
G1 X115.884 Y119.153 E8.12128
G1 X115.321 Y119.541 E8.15312
G1 X114.527 Y119.943 E8.19456
G1 X108.829 Y122.301 E8.48171
G1 X108.184 Y122.525 E8.5135
G1 X107.516 Y122.672 E8.54535
G1 X106.887 Y122.738 E8.5748
G1 X105.703 Y122.797 E8.63
G1 X105.26 Y122.802 E8.65063
G1 X103.267 Y122.75 E8.74346
G1 X102.586 Y122.692 E8.77529
G1 X101.917 Y122.555 E8.80708
G1 X101.145 Y122.291 E8.84508
G1 X97.058 Y120.563 E9.05169
G1 X97.038 Y120.556 E9.05268
G1 X95.532 Y119.959 E9.12812
G1 X94.913 Y119.67 E9.15993
G1 X94.331 Y119.312 E9.19174
G1 X93.693 Y118.793 E9.23004
G1 X92.424 Y117.605 E9.31098
G1 X92.117 Y117.295 E9.3313
G1 X91.155 Y116.249 E9.39747
G1 X90.722 Y115.72 E9.4293
G1 X90.355 Y115.144 E9.4611
G1 X90.035 Y114.476 E9.49559
G1 X89.742 Y113.748 E9.53214
G1 X87.702 Y108.836 E9.7798
G1 X87.478 Y108.191 E9.81159
G1 X87.33 Y107.524 E9.84341
G1 X87.258 Y106.736 E9.88025
G1 X87.203 Y104.424 E9.98794
G1 X87.21 Y103.964 E10.00936
G1 X87.258 Y103.092 E10.05003
G1 X87.335 Y102.413 E10.08185
G1 X87.491 Y101.748 E10.11365
G1 X87.695 Y101.174 E10.14202
G1 X89.962 Y95.713 E10.41735
G1 X90.376 Y94.902 E10.45974
G1 X90.654 Y94.448 E10.48453
G1 X91.044 Y93.887 E10.51635
G1 X91.524 Y93.349 E10.54992
M204 S3000
M205 X10 Y10
G0 F3000 X91.918 Y93.747
M204 S1800
M205 X8 Y8
G1 F2400 X93.98 Y91.704 E10.68508
G1 X94.469 Y91.276 E10.71534
G1 X95.006 Y90.912 E10.74555
G1 X95.68 Y90.575 E10.78064
G1 X101.401 Y88.211 E11.06888
G1 X102.015 Y88.001 E11.0991
G1 X102.651 Y87.867 E11.12936
G1 X103.248 Y87.814 E11.15727
G1 X105.095 Y87.755 E11.24332
G1 X105.492 Y87.757 E11.2618
G1 X106.81 Y87.814 E11.32323
G1 X107.456 Y87.882 E11.35348
G1 X108.089 Y88.029 E11.38374
G1 X108.599 Y88.209 E11.40892
G1 X114.324 Y90.575 E11.69737
G1 X114.908 Y90.86 E11.72763
G1 X115.452 Y91.214 E11.75785
G1 X115.924 Y91.609 E11.78651
G1 X117.202 Y92.811 E11.8682
G1 X117.467 Y93.078 E11.88572
G1 X118.426 Y94.118 E11.95159
G1 X118.836 Y94.621 E11.98181
G1 X119.181 Y95.172 E12.01208
G1 X119.423 Y95.679 E12.03824
G1 X121.783 Y101.386 E12.32581
G1 X121.994 Y102.001 E12.35608
G1 X122.128 Y102.636 E12.3863
G1 X122.182 Y103.274 E12.41612
G1 X122.238 Y105.553 E12.52227
G1 X122.232 Y105.969 E12.54164
G1 X122.183 Y106.872 E12.58375
G1 X122.108 Y107.517 E12.61399
G1 X121.955 Y108.149 E12.64427
G1 X121.788 Y108.61 E12.6671
G1 X119.521 Y114.072 E12.94247
G1 X119.144 Y114.81 E12.98106
G1 X118.866 Y115.263 E13.00581
G1 X118.493 Y115.794 E13.03602
G1 X118.076 Y116.258 E13.06507
G1 X116.004 Y118.304 E13.20066
G1 X115.514 Y118.731 E13.23093
G1 X114.976 Y119.095 E13.26117
G1 X114.313 Y119.426 E13.29568
G1 X108.615 Y121.784 E13.58282
G1 X108.001 Y121.995 E13.61305
G1 X107.365 Y122.129 E13.64332
G1 X106.859 Y122.178 E13.66699
G1 X105.675 Y122.237 E13.72219
G1 X105.274 Y122.242 E13.74087
G1 X103.281 Y122.19 E13.8337
G1 X102.634 Y122.133 E13.86394
G1 X101.999 Y121.997 E13.89418
G1 X101.363 Y121.775 E13.92555
G1 X97.262 Y120.041 E14.13288
G1 X97.244 Y120.035 E14.13376
G1 X95.738 Y119.438 E14.2092
G1 X95.15 Y119.162 E14.23944
G1 X94.601 Y118.816 E14.26966
G1 X94.076 Y118.385 E14.30129
G1 X92.807 Y117.197 E14.38223
G1 X92.529 Y116.916 E14.40064
G1 X91.567 Y115.87 E14.46681
G1 X91.157 Y115.366 E14.49706
G1 X90.813 Y114.815 E14.52731
G1 X90.555 Y114.267 E14.55551
G1 X90.262 Y113.539 E14.59205
G1 X88.22 Y108.622 E14.83997
G1 X88.008 Y108.008 E14.87022
G1 X87.873 Y107.372 E14.90049
G1 X87.817 Y106.723 E14.93082
G1 X87.762 Y104.411 E15.03851
G1 X87.769 Y103.995 E15.05788
G1 X87.817 Y103.123 E15.09855
G1 X87.893 Y102.478 E15.12879
G1 X88.047 Y101.847 E15.15903
G1 X88.212 Y101.389 E15.1817
G1 X90.479 Y95.928 E15.45703
G1 X90.853 Y95.195 E15.49535
G1 X91.131 Y94.741 E15.52014
G1 X91.504 Y94.209 E15.55039
G1 X91.918 Y93.747 E15.57928
M204 S3000
M205 X10 Y10
G1 F2400 E9.57928
;MESH:83d16ae8-e9dc-4980-8b0e-9be3d041dd4b.stl
G0 F3000 X95.439 Y99.359
G0 X97.008 Y99.63
G0 X100.412 Y107.309
G0 X100.785 Y107.876
G0 X102.175 Y109.904
M204 S1800
M205 X8 Y8
;TYPE:WALL-INNER
G1 F2400 E15.57928
G1 F1500 X102.764 Y110.199 E15.60995
G1 X103.385 Y110.424 E15.64071
G1 X104.024 Y110.573 E15.67126
G1 X104.678 Y110.65 E15.70192
G1 X105.339 Y110.649 E15.7327
G1 X105.99 Y110.571 E15.76323
G1 X106.631 Y110.419 E15.79391
G1 X107.249 Y110.193 E15.82455
G1 X107.836 Y109.896 E15.85518
G1 X108.385 Y109.534 E15.8858
G1 X108.89 Y109.11 E15.9165
G1 X109.339 Y108.631 E15.94708
G1 X109.731 Y108.104 E15.97766
G1 X110.059 Y107.534 E16.00828
G1 X110.32 Y106.928 E16.03901
G1 X110.508 Y106.296 E16.06971
G1 X110.621 Y105.648 E16.10034
G1 X110.659 Y104.993 E16.13089
G1 X110.62 Y104.335 E16.16158
G1 X110.505 Y103.686 E16.19227
G1 X110.315 Y103.057 E16.22287
G1 X110.053 Y102.455 E16.25344
G1 X109.725 Y101.886 E16.28402
G1 X109.33 Y101.357 E16.31476
G1 X108.877 Y100.878 E16.34546
G1 X108.372 Y100.458 E16.37605
G1 X107.825 Y100.096 E16.40659
G1 X107.236 Y99.801 E16.43726
G1 X106.615 Y99.576 E16.46802
G1 X105.976 Y99.427 E16.49857
G1 X105.322 Y99.35 E16.52924
G1 X104.661 Y99.351 E16.56001
G1 X104.01 Y99.429 E16.59054
G1 X103.369 Y99.581 E16.62122
G1 X102.751 Y99.807 E16.65186
G1 X102.164 Y100.104 E16.68249
G1 X101.615 Y100.466 E16.71311
G1 X101.11 Y100.89 E16.74382
G1 X100.661 Y101.369 E16.77439
G1 X100.269 Y101.896 E16.80497
G1 X99.941 Y102.466 E16.8356
G1 X99.68 Y103.072 E16.86632
G1 X99.492 Y103.704 E16.89702
G1 X99.379 Y104.352 E16.92765
G1 X99.341 Y105.007 E16.9582
G1 X99.38 Y105.665 E16.98889
G1 X99.495 Y106.314 E17.01959
G1 X99.685 Y106.943 E17.05018
G1 X99.947 Y107.545 E17.08075
G1 X100.275 Y108.114 E17.11133
G1 X100.67 Y108.643 E17.14208
G1 X101.123 Y109.122 E17.17278
G1 X101.628 Y109.542 E17.20336
G1 X102.175 Y109.904 E17.2339
M204 S3000
M205 X10 Y10
G0 F3000 X104.71 Y110.129
G0 X105.899 Y110.057
G0 X107.04 Y109.714
G0 X108.072 Y109.117
G0 X108.563 Y108.652
G0 X113.64 Y103.1
M204 S1800
M205 X8 Y8
G1 F1500 X114.087 Y103.55 E17.26344
G1 X114.583 Y103.937 E17.29273
G1 X115.106 Y104.246 E17.32102
G1 X115.561 Y104.445 E17.34414
G1 X115.576 Y104.72 E17.35697
G1 X115.576 Y105.283 E17.38318
G1 X115.562 Y105.555 E17.39586
G1 X115.104 Y105.755 E17.41914
G1 X114.583 Y106.063 E17.44732
G1 X114.087 Y106.45 E17.47661
G1 X113.64 Y106.9 E17.50615
G1 X113.26 Y107.402 E17.53546
G1 X112.944 Y107.948 E17.56484
G1 X112.703 Y108.533 E17.5943
G1 X112.539 Y109.141 E17.62362
G1 X112.453 Y109.767 E17.65305
G1 X112.451 Y110.4 E17.68252
G1 X112.529 Y111.023 E17.71176
G1 X112.679 Y111.612 E17.74006
G1 X112.862 Y112.076 E17.76328
G1 X112.585 Y112.377 E17.78233
G1 X112.185 Y112.765 E17.80828
G1 X112.075 Y112.862 E17.81511
G1 X111.613 Y112.679 E17.83825
G1 X111.022 Y112.529 E17.86664
G1 X110.4 Y112.451 E17.89583
G1 X109.767 Y112.453 E17.92531
G1 X109.141 Y112.539 E17.95473
G1 X108.533 Y112.703 E17.98405
G1 X107.948 Y112.944 E18.01351
G1 X107.402 Y113.26 E18.04289
G1 X106.9 Y113.64 E18.0722
G1 X106.45 Y114.087 E18.10174
G1 X106.063 Y114.583 E18.13103
G1 X105.754 Y115.106 E18.15932
G1 X105.555 Y115.563 E18.18253
G1 X104.997 Y115.58 E18.20852
G1 X104.446 Y115.564 E18.23419
G1 X104.245 Y115.104 E18.25757
G1 X103.937 Y114.583 E18.28575
G1 X103.55 Y114.087 E18.31504
G1 X103.1 Y113.64 E18.34458
G1 X102.598 Y113.26 E18.37389
G1 X102.052 Y112.944 E18.40327
G1 X101.467 Y112.703 E18.43273
G1 X100.859 Y112.539 E18.46205
G1 X100.233 Y112.453 E18.49148
G1 X99.6 Y112.451 E18.52095
G1 X98.977 Y112.529 E18.55019
G1 X98.388 Y112.679 E18.57849
G1 X97.925 Y112.862 E18.60167
G1 X97.83 Y112.78 E18.60752
G1 X97.415 Y112.377 E18.63445
G1 X97.138 Y112.076 E18.6535
G1 X97.321 Y111.613 E18.67668
G1 X97.471 Y111.022 E18.70507
G1 X97.549 Y110.4 E18.73426
G1 X97.547 Y109.767 E18.76374
G1 X97.461 Y109.141 E18.79316
G1 X97.297 Y108.533 E18.82248
G1 X97.056 Y107.948 E18.85195
G1 X96.74 Y107.402 E18.88132
G1 X96.36 Y106.9 E18.91064
G1 X95.913 Y106.45 E18.94017
G1 X95.417 Y106.063 E18.96947
G1 X94.894 Y105.754 E18.99775
G1 X94.439 Y105.555 E19.02088
G1 X94.424 Y105.28 E19.0337
G1 X94.424 Y104.708 E19.06034
G1 X94.438 Y104.445 E19.0726
G1 X94.896 Y104.245 E19.09587
G1 X95.417 Y103.937 E19.12405
G1 X95.913 Y103.55 E19.15335
G1 X96.36 Y103.1 E19.18288
G1 X96.74 Y102.598 E19.2122
G1 X97.056 Y102.052 E19.24157
G1 X97.297 Y101.467 E19.27103
G1 X97.461 Y100.859 E19.30036
G1 X97.547 Y100.233 E19.32978
G1 X97.549 Y99.6 E19.35926
G1 X97.471 Y98.977 E19.38849
G1 X97.321 Y98.388 E19.41679
G1 X97.139 Y97.925 E19.43996
G1 X97.427 Y97.613 E19.45973
G1 X97.799 Y97.25 E19.48393
G1 X97.926 Y97.139 E19.49179
G1 X98.387 Y97.321 E19.51486
G1 X98.978 Y97.471 E19.54326
G1 X99.6 Y97.549 E19.57245
G1 X100.233 Y97.547 E19.60192
G1 X100.859 Y97.461 E19.63134
G1 X101.467 Y97.297 E19.66067
G1 X102.052 Y97.056 E19.69013
G1 X102.598 Y96.74 E19.7195
G1 X103.1 Y96.36 E19.74882
G1 X103.55 Y95.913 E19.77835
G1 X103.937 Y95.417 E19.80765
G1 X104.246 Y94.894 E19.83594
G1 X104.445 Y94.437 E19.85914
G1 X105.003 Y94.42 E19.88514
G1 X105.554 Y94.436 E19.91081
G1 X105.755 Y94.896 E19.93418
G1 X106.063 Y95.417 E19.96236
G1 X106.45 Y95.913 E19.99166
G1 X106.9 Y96.36 E20.02119
G1 X107.402 Y96.74 E20.05051
G1 X107.948 Y97.056 E20.07989
G1 X108.533 Y97.297 E20.10935
G1 X109.141 Y97.461 E20.13867
G1 X109.767 Y97.547 E20.16809
G1 X110.4 Y97.549 E20.19757
G1 X111.023 Y97.471 E20.2268
G1 X111.612 Y97.321 E20.25511
G1 X112.075 Y97.138 E20.27829
G1 X112.18 Y97.23 E20.28479
G1 X112.573 Y97.613 E20.31034
G1 X112.862 Y97.925 E20.33014
G1 X112.679 Y98.387 E20.35328
G1 X112.529 Y98.978 E20.38167
G1 X112.451 Y99.6 E20.41086
G1 X112.453 Y100.233 E20.44034
G1 X112.539 Y100.859 E20.46976
G1 X112.703 Y101.467 E20.49909
G1 X112.944 Y102.052 E20.52855
G1 X113.26 Y102.598 E20.55792
G1 X113.64 Y103.1 E20.58724
M204 S3000
M205 X10 Y10
G0 F3000 X109.806 Y97.087
G0 X109.806 Y96.987
M204 S1800
M205 X8 Y8
G1 F1500 X110.366 Y96.989 E20.61331
G1 X110.919 Y96.92 E20.63926
G1 X111.439 Y96.787 E20.66426
G1 X111.923 Y96.596 E20.68849
G1 X112.168 Y96.475 E20.70121
G1 X112.549 Y96.808 E20.72477
G1 X112.98 Y97.227 E20.75276
G1 X113.386 Y97.667 E20.78064
G1 X113.524 Y97.835 E20.79076
G1 X113.404 Y98.076 E20.8033
G1 X113.213 Y98.56 E20.82753
G1 X113.08 Y99.082 E20.85261
G1 X113.011 Y99.634 E20.87851
G1 X113.013 Y100.194 E20.90459
G1 X113.089 Y100.748 E20.93063
G1 X113.234 Y101.286 E20.95657
G1 X113.448 Y101.804 E20.98267
G1 X113.727 Y102.288 E21.00868
G1 X114.064 Y102.732 E21.03464
G1 X114.459 Y103.13 E21.06075
G1 X114.899 Y103.473 E21.08673
G1 X115.361 Y103.746 E21.11172
G1 X115.836 Y103.953 E21.13584
G1 X116.1 Y104.043 E21.14883
G1 X116.136 Y104.708 E21.17984
G1 X116.136 Y105.293 E21.20708
G1 X116.101 Y105.958 E21.23809
G1 X115.837 Y106.046 E21.25105
G1 X115.36 Y106.254 E21.27528
G1 X114.899 Y106.527 E21.30023
G1 X114.459 Y106.87 E21.3262
G1 X114.064 Y107.268 E21.35231
G1 X113.727 Y107.712 E21.37827
G1 X113.448 Y108.196 E21.40428
G1 X113.234 Y108.714 E21.43038
G1 X113.089 Y109.252 E21.45633
G1 X113.013 Y109.806 E21.48236
G1 X113.011 Y110.366 E21.50844
G1 X113.08 Y110.919 E21.53439
G1 X113.213 Y111.439 E21.55938
G1 X113.403 Y111.922 E21.58355
G1 X113.523 Y112.166 E21.59621
G1 X113.386 Y112.333 E21.60627
G1 X112.983 Y112.771 E21.63398
G1 X112.571 Y113.171 E21.66072
G1 X112.169 Y113.525 E21.68567
G1 X111.924 Y113.404 E21.69839
G1 X111.44 Y113.213 E21.72262
G1 X110.918 Y113.08 E21.7477
G1 X110.366 Y113.011 E21.7736
G1 X109.806 Y113.013 E21.79968
G1 X109.252 Y113.089 E21.82572
G1 X108.714 Y113.234 E21.85166
G1 X108.196 Y113.448 E21.87776
G1 X107.712 Y113.727 E21.90377
G1 X107.268 Y114.064 E21.92973
G1 X106.87 Y114.459 E21.95584
G1 X106.527 Y114.899 E21.98182
G1 X106.254 Y115.361 E22.00681
G1 X106.047 Y115.836 E22.03093
G1 X105.96 Y116.093 E22.04357
G1 X105.603 Y116.122 E22.06025
G1 X104.998 Y116.14 E22.08843
G1 X104.396 Y116.123 E22.11647
G1 X104.04 Y116.095 E22.1331
G1 X103.954 Y115.837 E22.14576
G1 X103.746 Y115.36 E22.16999
G1 X103.473 Y114.899 E22.19494
