;FLAVOR:Marlin
;TIME:132
;Filament used: 0.0607921m
;Layer height: 0.2
;Generated with Cura_SteamEngine 3.6.0
M140 S85
M105
M190 S85
M104 S220
M105
M109 S220
M82 ;absolute extrusion mode
G21 ;metric values
G90 ;absolute positioning
M82 ;set extruder to absolute mode
M107 ;start with the fan off
G28 X0 Y0 ;move X/Y to min endstops
G28 Z0 ;move Z to min endstops
G1 Z15.0 F100 ;move the platform down 15mm
G92 E0 ;zero the extruded length
G1 F200 E3 ;extrude 3mm of feed stock
G92 E0 ;zero the extruded length again
G1 F100
M117 Printing...
G5
G92 E0
G1 F2400 E-6
;LAYER_COUNT:26
;LAYER:0
M106 S255
M204 S3000
M205 X10 Y10
G0 F3000 X99.53 Y99.694 Z0.2
M204 S1800
M205 X8 Y8
;TYPE:SKIRT
G1 F2400 E0
G1 X99.694 Y99.53 E0.0108
G1 X100.131 Y99.15 E0.03777
G1 X100.616 Y98.833 E0.06475
G1 X101.14 Y98.586 E0.09172
G1 X101.693 Y98.414 E0.11869
G1 X102.265 Y98.319 E0.14569
G1 X102.664 Y98.3 E0.16429
G1 X107.336 Y98.3 E0.38183
G1 X107.914 Y98.34 E0.40881
G1 X108.481 Y98.459 E0.43579
G1 X109.026 Y98.655 E0.46276
G1 X109.539 Y98.924 E0.48973
G1 X110.01 Y99.261 E0.5167
G1 X110.306 Y99.53 E0.53532
G1 X110.47 Y99.694 E0.54612
G1 X110.85 Y100.131 E0.57309
G1 X111.167 Y100.616 E0.60007
G1 X111.414 Y101.14 E0.62704
G1 X111.586 Y101.693 E0.65401
G1 X111.681 Y102.265 E0.68101
G1 X111.7 Y102.664 E0.69961
G1 X111.7 Y107.336 E0.91716
G1 X111.66 Y107.914 E0.94413
G1 X111.541 Y108.481 E0.97111
G1 X111.345 Y109.026 E0.99808
G1 X111.076 Y109.539 E1.02505
G1 X110.739 Y110.01 E1.05202
G1 X110.47 Y110.306 E1.07064
G1 X110.306 Y110.47 E1.08144
G1 X109.869 Y110.85 E1.10841
G1 X109.384 Y111.167 E1.13539
G1 X108.86 Y111.414 E1.16236
G1 X108.307 Y111.586 E1.18933
G1 X107.735 Y111.681 E1.21633
G1 X107.336 Y111.7 E1.23493
G1 X102.664 Y111.7 E1.45248
G1 X102.086 Y111.66 E1.47946
G1 X101.519 Y111.541 E1.50643
G1 X100.974 Y111.345 E1.5334
G1 X100.461 Y111.076 E1.56038
G1 X99.99 Y110.739 E1.58734
G1 X99.694 Y110.47 E1.60597
G1 X99.53 Y110.306 E1.61677
G1 X99.15 Y109.869 E1.64373
G1 X98.833 Y109.384 E1.67071
G1 X98.586 Y108.86 E1.69769
G1 X98.414 Y108.307 E1.72465
G1 X98.319 Y107.735 E1.75165
G1 X98.3 Y107.336 E1.77025
G1 X98.3 Y102.664 E1.9878
G1 X98.34 Y102.086 E2.01478
G1 X98.459 Y101.519 E2.04176
G1 X98.655 Y100.974 E2.06873
G1 X98.924 Y100.461 E2.0957
G1 X99.261 Y99.99 E2.12267
G1 X99.53 Y99.694 E2.14129
M204 S3000
M205 X10 Y10
G0 F3000 X99.926 Y100.09
M204 S1800
M205 X8 Y8
G1 F2400 X100.09 Y99.926 E2.15209
G1 X100.499 Y99.574 E2.17722
G1 X100.955 Y99.286 E2.20233
G1 X101.448 Y99.069 E2.22741
G1 X101.968 Y98.927 E2.25251
G1 X102.664 Y98.86 E2.28507
G1 X107.336 Y98.86 E2.50262
G1 X107.874 Y98.9 E2.52774
G1 X108.4 Y99.019 E2.55285
G1 X108.902 Y99.214 E2.57793
G1 X109.371 Y99.482 E2.60308
G1 X109.91 Y99.926 E2.6356
G1 X110.074 Y100.09 E2.6464
G1 X110.426 Y100.499 E2.67152
G1 X110.714 Y100.955 E2.69664
G1 X110.931 Y101.448 E2.72172
G1 X111.073 Y101.968 E2.74682
G1 X111.14 Y102.664 E2.77938
G1 X111.14 Y107.336 E2.99692
G1 X111.1 Y107.874 E3.02205
G1 X110.981 Y108.4 E3.04716
G1 X110.786 Y108.902 E3.07223
G1 X110.518 Y109.371 E3.09739
G1 X110.074 Y109.91 E3.1299
G1 X109.91 Y110.074 E3.1407
G1 X109.501 Y110.426 E3.16583
G1 X109.045 Y110.714 E3.19094
G1 X108.552 Y110.931 E3.21602
G1 X108.032 Y111.073 E3.24112
G1 X107.336 Y111.14 E3.27368
G1 X102.664 Y111.14 E3.49123
G1 X102.126 Y111.1 E3.51635
G1 X101.6 Y110.981 E3.54146
G1 X101.098 Y110.786 E3.56654
G1 X100.629 Y110.518 E3.59169
G1 X100.09 Y110.074 E3.62421
G1 X99.926 Y109.91 E3.63501
G1 X99.574 Y109.501 E3.66014
G1 X99.286 Y109.045 E3.68525
G1 X99.069 Y108.552 E3.71033
G1 X98.927 Y108.032 E3.73543
G1 X98.86 Y107.336 E3.76799
G1 X98.86 Y102.664 E3.98554
G1 X98.9 Y102.126 E4.01066
G1 X99.019 Y101.6 E4.03577
G1 X99.214 Y101.098 E4.06085
G1 X99.482 Y100.629 E4.086
G1 X99.926 Y100.09 E4.11852
M204 S3000
M205 X10 Y10
G0 F3000 X100.322 Y100.486
M204 S1800
M205 X8 Y8
G1 F2400 X100.486 Y100.322 E4.12932
G1 X100.864 Y100.001 E4.15241
G1 X101.288 Y99.744 E4.17549
G1 X101.749 Y99.559 E4.19862
G1 X102.232 Y99.45 E4.22168
G1 X102.664 Y99.42 E4.24185
G1 X107.336 Y99.42 E4.45939
G1 X107.83 Y99.46 E4.48247
G1 X108.312 Y99.579 E4.50559
G1 X108.768 Y99.773 E4.52866
G1 X109.187 Y100.038 E4.55175
G1 X109.514 Y100.322 E4.57192
G1 X109.678 Y100.486 E4.58272
G1 X109.999 Y100.864 E4.60581
G1 X110.256 Y101.288 E4.62889
G1 X110.441 Y101.749 E4.65202
G1 X110.55 Y102.232 E4.67508
G1 X110.58 Y102.664 E4.69524
G1 X110.58 Y107.336 E4.91279
G1 X110.54 Y107.83 E4.93587
G1 X110.421 Y108.312 E4.95899
G1 X110.227 Y108.768 E4.98206
G1 X109.962 Y109.187 E5.00515
G1 X109.678 Y109.514 E5.02532
G1 X109.514 Y109.678 E5.03612
G1 X109.136 Y109.999 E5.05921
G1 X108.712 Y110.256 E5.08229
G1 X108.251 Y110.441 E5.10542
G1 X107.768 Y110.55 E5.12848
G1 X107.336 Y110.58 E5.14864
G1 X102.664 Y110.58 E5.36619
G1 X102.17 Y110.54 E5.38927
G1 X101.688 Y110.421 E5.41239
G1 X101.232 Y110.227 E5.43546
G1 X100.813 Y109.962 E5.45855
G1 X100.486 Y109.678 E5.47872
G1 X100.322 Y109.514 E5.48952
G1 X100.001 Y109.136 E5.51261
G1 X99.744 Y108.712 E5.53569
G1 X99.559 Y108.251 E5.55882
G1 X99.45 Y107.768 E5.58188
G1 X99.42 Y107.336 E5.60204
G1 X99.42 Y102.664 E5.81959
G1 X99.46 Y102.17 E5.84267
G1 X99.579 Y101.688 E5.86579
G1 X99.773 Y101.232 E5.88886
G1 X100.038 Y100.813 E5.91195
G1 X100.322 Y100.486 E5.93212
M204 S3000
M205 X10 Y10
G0 F3000 X100.718 Y100.882
M204 S1800
M205 X8 Y8
G1 F2400 X100.882 Y100.718 E5.94292
G1 X101.226 Y100.43 E5.96381
G1 X101.616 Y100.208 E5.9847
G1 X102.039 Y100.059 E6.00558
G1 X102.664 Y99.98 E6.03492
G1 X107.336 Y99.98 E6.25247
G1 X107.783 Y100.02 E6.27336
G1 X108.215 Y100.138 E6.29422
G1 X108.62 Y100.332 E6.31513
G1 X109.118 Y100.718 E6.34447
G1 X109.282 Y100.882 E6.35527
G1 X109.57 Y101.226 E6.37616
G1 X109.792 Y101.616 E6.39705
G1 X109.941 Y102.039 E6.41794
G1 X110.02 Y102.664 E6.44727
G1 X110.02 Y107.336 E6.66482
G1 X109.98 Y107.783 E6.68572
G1 X109.862 Y108.215 E6.70657
G1 X109.668 Y108.62 E6.72748
G1 X109.282 Y109.118 E6.75682
G1 X109.118 Y109.282 E6.76762
G1 X108.774 Y109.57 E6.78851
G1 X108.384 Y109.792 E6.8094
G1 X107.961 Y109.941 E6.83029
G1 X107.336 Y110.02 E6.85962
G1 X102.664 Y110.02 E7.07717
G1 X102.217 Y109.98 E7.09807
G1 X101.785 Y109.862 E7.11892
G1 X101.38 Y109.668 E7.13983
G1 X100.882 Y109.282 E7.16917
G1 X100.718 Y109.118 E7.17997
G1 X100.43 Y108.774 E7.20086
G1 X100.208 Y108.384 E7.22175
G1 X100.059 Y107.961 E7.24264
G1 X99.98 Y107.336 E7.27197
G1 X99.98 Y102.664 E7.48952
G1 X100.02 Y102.217 E7.51042
G1 X100.138 Y101.785 E7.53127
G1 X100.332 Y101.38 E7.55218
G1 X100.718 Y100.882 E7.58152
M204 S3000
M205 X10 Y10
G0 F3000 X101.114 Y101.278
M204 S1800
M205 X8 Y8
G1 F2400 X101.278 Y101.114 E7.59232
G1 X101.584 Y100.864 E7.61072
G1 X101.935 Y100.681 E7.62915
G1 X102.315 Y100.571 E7.64757
G1 X102.664 Y100.54 E7.66389
G1 X107.336 Y100.54 E7.88143
G1 X107.729 Y100.58 E7.89983
G1 X108.107 Y100.698 E7.91827
G1 X108.453 Y100.889 E7.93667
G1 X108.722 Y101.114 E7.953
G1 X108.886 Y101.278 E7.9638
G1 X109.136 Y101.584 E7.9822
G1 X109.319 Y101.935 E8.00063
G1 X109.429 Y102.315 E8.01905
G1 X109.46 Y102.664 E8.03537
G1 X109.46 Y107.336 E8.25291
G1 X109.42 Y107.729 E8.27131
G1 X109.302 Y108.107 E8.28975
G1 X109.111 Y108.453 E8.30815
G1 X108.886 Y108.722 E8.32448
G1 X108.722 Y108.886 E8.33528
G1 X108.416 Y109.136 E8.35368
G1 X108.065 Y109.319 E8.37211
G1 X107.685 Y109.429 E8.39053
G1 X107.336 Y109.46 E8.40685
G1 X102.664 Y109.46 E8.6244
G1 X102.271 Y109.42 E8.64279
G1 X101.893 Y109.302 E8.66123
G1 X101.547 Y109.111 E8.67963
G1 X101.278 Y108.886 E8.69596
G1 X101.114 Y108.722 E8.70676
G1 X100.864 Y108.416 E8.72516
G1 X100.681 Y108.065 E8.74359
G1 X100.571 Y107.685 E8.76201
G1 X100.54 Y107.336 E8.77833
G1 X100.54 Y102.664 E8.99588
G1 X100.58 Y102.271 E9.01427
G1 X100.698 Y101.893 E9.03271
G1 X100.889 Y101.547 E9.05111
G1 X101.114 Y101.278 E9.06744
M204 S3000
M205 X10 Y10
G0 F3000 X101.51 Y101.674
M204 S1800
M205 X8 Y8
G1 F2400 X101.674 Y101.51 E9.07824
G1 X101.937 Y101.304 E9.0938
G1 X102.241 Y101.165 E9.10936
G1 X102.664 Y101.1 E9.12929
G1 X107.336 Y101.1 E9.34684
G1 X107.668 Y101.14 E9.36241
G1 X107.98 Y101.257 E9.37793
G1 X108.326 Y101.51 E9.39788
G1 X108.49 Y101.674 E9.40868
G1 X108.696 Y101.937 E9.42424
G1 X108.835 Y102.241 E9.4398
G1 X108.9 Y102.664 E9.45973
G1 X108.9 Y107.336 E9.67728
G1 X108.86 Y107.668 E9.69285
G1 X108.743 Y107.98 E9.70837
G1 X108.49 Y108.326 E9.72833
G1 X108.326 Y108.49 E9.73913
G1 X108.063 Y108.696 E9.75468
G1 X107.759 Y108.835 E9.77025
G1 X107.336 Y108.9 E9.79017
G1 X102.664 Y108.9 E10.00772
G1 X102.332 Y108.86 E10.02329
G1 X102.02 Y108.743 E10.03881
G1 X101.674 Y108.49 E10.05877
G1 X101.51 Y108.326 E10.06957
G1 X101.304 Y108.063 E10.08512
G1 X101.165 Y107.759 E10.10069
G1 X101.1 Y107.336 E10.12062
G1 X101.1 Y102.664 E10.33816
G1 X101.14 Y102.332 E10.35374
G1 X101.257 Y102.02 E10.36925
G1 X101.51 Y101.674 E10.38921
M204 S3000
M205 X10 Y10
G0 F3000 X101.906 Y102.07
M204 S1800
M205 X8 Y8
G1 F2400 X102.07 Y101.906 E10.40001
G1 X102.279 Y101.754 E10.41204
G1 X102.524 Y101.672 E10.42407
G1 X102.664 Y101.66 E10.43062
G1 X107.336 Y101.66 E10.64816
G1 X107.591 Y101.7 E10.66018
G1 X107.823 Y101.815 E10.67224
G1 X107.93 Y101.906 E10.67878
G1 X108.094 Y102.07 E10.68958
G1 X108.246 Y102.279 E10.70162
G1 X108.328 Y102.524 E10.71365
G1 X108.34 Y102.664 E10.72019
G1 X108.34 Y107.336 E10.93774
G1 X108.3 Y107.591 E10.94976
G1 X108.185 Y107.823 E10.96181
G1 X108.094 Y107.93 E10.96835
G1 X107.93 Y108.094 E10.97915
G1 X107.721 Y108.246 E10.99119
G1 X107.476 Y108.328 E11.00322
G1 X107.336 Y108.34 E11.00976
G1 X102.664 Y108.34 E11.22731
G1 X102.409 Y108.3 E11.23933
G1 X102.177 Y108.185 E11.25138
G1 X102.07 Y108.094 E11.25792
G1 X101.906 Y107.93 E11.26872
G1 X101.754 Y107.721 E11.28076
G1 X101.672 Y107.476 E11.29279
G1 X101.66 Y107.336 E11.29933
G1 X101.66 Y102.664 E11.51688
G1 X101.7 Y102.409 E11.5289
G1 X101.815 Y102.177 E11.54095
G1 X101.906 Y102.07 E11.5475
M204 S3000
M205 X10 Y10
G0 F3000 X102.302 Y102.466
M204 S1800
M205 X8 Y8
G1 F2400 X102.466 Y102.302 E11.55829
G1 X102.664 Y102.22 E11.56827
G1 X107.336 Y102.22 E11.78582
G1 X107.534 Y102.302 E11.7958
G1 X107.698 Y102.466 E11.8066
G1 X107.78 Y102.664 E11.81658
G1 X107.78 Y107.336 E12.03413
G1 X107.698 Y107.534 E12.04411
G1 X107.534 Y107.698 E12.05491
G1 X107.336 Y107.78 E12.06489
G1 X102.664 Y107.78 E12.28243
G1 X102.466 Y107.698 E12.29241
G1 X102.302 Y107.534 E12.30321
G1 X102.22 Y107.336 E12.31319
G1 X102.22 Y102.664 E12.53074
G1 X102.302 Y102.466 E12.54072
M204 S3000
M205 X10 Y10
G1 F2400 E6.54072
;MESH:8a3ff800-4922-4c1d-8477-a247e177c26e.stl
G0 F3000 X103.354 Y103.354
G0 X106.59 Y106.59
G0 X107.22 Y107.22
M204 S1800
M205 X8 Y8
;TYPE:WALL-OUTER
G1 F2400 E12.54072
G1 F1500 X102.78 Y107.22 E12.74746
G1 X102.78 Y102.78 E12.95421
G1 X107.22 Y102.78 E13.16095
G1 X107.22 Y107.22 E13.3677
M204 S3000
M205 X10 Y10
G0 F3000 X107.02 Y107.22
G0 X106.66 Y106.66
M204 S1800
M205 X8 Y8
;TYPE:WALL-INNER
G1 F1500 X103.34 Y106.66 E13.52229
G1 X103.34 Y103.34 E13.67688
G1 X106.66 Y103.34 E13.83148
G1 X106.66 Y106.66 E13.98607
M204 S3000
M205 X10 Y10
G0 F3000 X106.1 Y106.1
M204 S1800
M205 X8 Y8
G1 F1500 X103.9 Y106.1 E14.08851
G1 X103.9 Y103.9 E14.19095
G1 X106.1 Y103.9 E14.29339
G1 X106.1 Y106.1 E14.39584
M204 S3000
M205 X10 Y10
G0 F3000 X105.55 Y105.55
M204 S1800
M205 X8 Y8
;TYPE:SKIN
G1 F1500 X104.45 Y105.55 E14.44706
G1 X104.45 Y104.45 E14.49828
G1 X105.55 Y104.45 E14.5495
G1 X105.55 Y105.55 E14.60072
M204 S3000
M205 X10 Y10
G0 F3000 X105.289 Y105.289
M204 S1800
M205 X8 Y8
G1 F1500 X104.709 Y104.709 E14.63891
M204 S3000
M205 X10 Y10
;MESH:NONMESH
G0 F3000 X106.5 Y106.5
;TIME_ELAPSED:18.123635
;LAYER:1
M140 S85
;MESH:8a3ff800-4922-4c1d-8477-a247e177c26e.stl
G0 F4500 X106.5 Y106.5 Z0.4
M204 S1800
M205 X8 Y8
;TYPE:WALL-INNER
G1 F1000 X103.5 Y106.5 E14.73869
G1 X103.5 Y103.5 E14.83847
G1 X106.5 Y103.5 E14.93825
G1 X106.5 Y106.5 E15.03803
M204 S3000
M205 X10 Y10
G0 F4500 X106.9 Y106.9
M204 S1800
M205 X8 Y8
G1 F1000 X103.1 Y106.9 E15.16442
G1 X103.1 Y103.1 E15.29081
G1 X106.9 Y103.1 E15.4172
G1 X106.9 Y106.9 E15.54359
M204 S3000
M205 X10 Y10
G0 F4500 X107.3 Y107.3
M204 S1800
M205 X8 Y8
;TYPE:WALL-OUTER
G1 F1000 X102.7 Y107.3 E15.69658
G1 X102.7 Y102.7 E15.84958
G1 X107.3 Y102.7 E16.00258
G1 X107.3 Y107.3 E16.15557
M204 S3000
M205 X10 Y10
G0 F4500 X107.1 Y107.3
G0 X106.83 Y106.83
G0 X106.11 Y106.11
M204 S1800
M205 X8 Y8
;TYPE:SKIN
G1 F600 X103.89 Y106.11 E16.22941
G1 X103.89 Y103.89 E16.30325
G1 X106.11 Y103.89 E16.37709
G1 X106.11 Y106.11 E16.45092
M204 S3000
M205 X10 Y10
G0 F4500 X105.636 Y105.929
M204 S1800
M205 X8 Y8
G1 F600 X105.929 Y105.636 E16.46471
M204 S3000
M205 X10 Y10
G0 F4500 X105.929 Y105.071
M204 S1800
M205 X8 Y8
G1 F600 X105.071 Y105.929 E16.50506
M204 S3000
M205 X10 Y10
G0 F4500 X104.505 Y105.929
M204 S1800
M205 X8 Y8
G1 F600 X105.929 Y104.505 E16.57204
M204 S3000
M205 X10 Y10
G0 F4500 X105.799 Y104.069
M204 S1800
M205 X8 Y8
G1 F600 X104.069 Y105.799 E16.65342
M204 S3000
M205 X10 Y10
G0 F4500 X104.069 Y105.233
M204 S1800
M205 X8 Y8
G1 F600 X105.233 Y104.069 E16.70817
M204 S3000
M205 X10 Y10
G0 F4500 X104.668 Y104.069
M204 S1800
M205 X8 Y8
G1 F600 X104.069 Y104.668 E16.73634
G1 X103.999 Y104.738
M204 S3000
M205 X10 Y10
;MESH:NONMESH
G0 F4500 X106.5 Y106.5
;TIME_ELAPSED:23.067144
;LAYER:2
;MESH:8a3ff800-4922-4c1d-8477-a247e177c26e.stl
G0 F6000 X106.5 Y106.5 Z0.6
M204 S1800
M205 X8 Y8
;TYPE:WALL-INNER
G1 F1500 X103.5 Y106.5 E16.83612
G1 X103.5 Y103.5 E16.9359
G1 X106.5 Y103.5 E17.03569
G1 X106.5 Y106.5 E17.13547
M204 S3000
M205 X10 Y10
G0 F6000 X106.9 Y106.9
M204 S1800
M205 X8 Y8
G1 F1500 X103.1 Y106.9 E17.26185
G1 X103.1 Y103.1 E17.38824
G1 X106.9 Y103.1 E17.51463
G1 X106.9 Y106.9 E17.64102
M204 S3000
M205 X10 Y10
G0 F6000 X107.3 Y107.3
M204 S1800
M205 X8 Y8
;TYPE:WALL-OUTER
G1 F1500 X102.7 Y107.3 E17.79402
G1 X102.7 Y102.7 E17.94701
G1 X107.3 Y102.7 E18.10001
G1 X107.3 Y107.3 E18.25301
M204 S3000
M205 X10 Y10
G0 F6000 X107.1 Y107.3
G0 X106.83 Y106.83
G0 X106.11 Y106.11
M204 S1800
M205 X8 Y8
;TYPE:SKIN
G1 F600 X103.89 Y106.11 E18.32684
G1 X103.89 Y103.89 E18.40068
G1 X106.11 Y103.89 E18.47452
G1 X106.11 Y106.11 E18.54836
M204 S3000
M205 X10 Y10
G0 F6000 X105.929 Y104.232
M204 S1800
M205 X8 Y8
G1 F600 X105.766 Y104.069 E18.55602
M204 S3000
M205 X10 Y10
G0 F6000 X105.201 Y104.069
M204 S1800
M205 X8 Y8
G1 F600 X105.929 Y104.798 E18.59029
M204 S3000
M205 X10 Y10
G0 F6000 X105.929 Y105.363
M204 S1800
M205 X8 Y8
G1 F600 X104.635 Y104.069 E18.65116
M204 S3000
M205 X10 Y10
G0 F6000 X104.069 Y104.069
M204 S1800
M205 X8 Y8
G1 F600 X105.929 Y105.929 E18.73864
M204 S3000
M205 X10 Y10
G0 F6000 X105.363 Y105.929
M204 S1800
M205 X8 Y8
G1 F600 X104.069 Y104.635 E18.79951
M204 S3000
M205 X10 Y10
G0 F6000 X104.069 Y105.201
M204 S1800
M205 X8 Y8
G1 F600 X104.798 Y105.929 E18.83378
M204 S3000
M205 X10 Y10
G0 F6000 X104.232 Y105.929
M204 S1800
M205 X8 Y8
G1 F600 X104.069 Y105.766 E18.84144
M204 S3000
M205 X10 Y10
;MESH:NONMESH
G0 F6000 X106.5 Y106.5
;TIME_ELAPSED:27.204544
;LAYER:3
;MESH:8a3ff800-4922-4c1d-8477-a247e177c26e.stl
G0 X106.5 Y106.5 Z0.8
M204 S1800
M205 X8 Y8
;TYPE:WALL-INNER
G1 F1500 X103.5 Y106.5 E18.94122
G1 X103.5 Y103.5 E19.041
G1 X106.5 Y103.5 E19.14078
G1 X106.5 Y106.5 E19.24056
M204 S3000
M205 X10 Y10
G0 F6000 X106.9 Y106.9
M204 S1800
M205 X8 Y8
G1 F1500 X103.1 Y106.9 E19.36695
G1 X103.1 Y103.1 E19.49334
G1 X106.9 Y103.1 E19.61973
G1 X106.9 Y106.9 E19.74612
M204 S3000
M205 X10 Y10
G0 F6000 X107.3 Y107.3
M204 S1800
M205 X8 Y8
;TYPE:WALL-OUTER
G1 F1500 X102.7 Y107.3 E19.89912
G1 X102.7 Y102.7 E20.05211
G1 X107.3 Y102.7 E20.20511
G1 X107.3 Y107.3 E20.35811
M204 S3000
M205 X10 Y10
G0 F6000 X107.1 Y107.3
G0 X106.83 Y106.83
G0 X106.11 Y106.11
M204 S1800
M205 X8 Y8
;TYPE:SKIN
G1 F600 X103.89 Y106.11 E20.43194
G1 X103.89 Y103.89 E20.50578
G1 X106.11 Y103.89 E20.57962
G1 X106.11 Y106.11 E20.65346
M204 S3000
M205 X10 Y10
G0 F6000 X105.636 Y105.929
M204 S1800
M205 X8 Y8
G1 F600 X105.929 Y105.636 E20.66724
M204 S3000
M205 X10 Y10
G0 F6000 X105.929 Y105.071
M204 S1800
M205 X8 Y8
G1 F600 X105.071 Y105.929 E20.7076
M204 S3000
M205 X10 Y10
G0 F6000 X104.505 Y105.929
M204 S1800
M205 X8 Y8
