;FLAVOR:Marlin
;TIME:68
;Filament used: 0.0213232m
;Layer height: 0.2
;Generated with Cura_SteamEngine 3.6.0
M140 S85
M105
M190 S85
M104 S220
M105
M109 S220
M82 ;absolute extrusion mode
G21 ;metric values
G90 ;absolute positioning
M82 ;set extruder to absolute mode
M107 ;start with the fan off
G28 X0 Y0 ;move X/Y to min endstops
G28 Z0 ;move Z to min endstops
G1 Z15.0 F100 ;move the platform down 15mm
G92 E0 ;zero the extruded length
G1 F200 E3 ;extrude 3mm of feed stock
G92 E0 ;zero the extruded length again
G1 F100
M117 Printing...
G5
G92 E0
G1 F2400 E-6
;LAYER_COUNT:26
;LAYER:0
M106 S255
M204 S3000
M205 X10 Y10
;MESH:box.stl
G0 F3000 X107.22 Y107.22 Z0.2
M204 S1800
M205 X8 Y8
;TYPE:WALL-OUTER
G1 F2400 E0
G1 F1500 X102.78 Y107.22 E0.20674
G1 X102.78 Y102.78 E0.41349
G1 X107.22 Y102.78 E0.62023
G1 X107.22 Y107.22 E0.82698
M204 S3000
M205 X10 Y10
G0 F3000 X107.02 Y107.22
G0 X106.67 Y106.67
M204 S1800
M205 X8 Y8
;TYPE:SKIN
G1 F1500 X103.33 Y106.67 E0.9825
G1 X103.33 Y103.33 E1.13803
G1 X106.67 Y103.33 E1.29355
G1 X106.67 Y106.67 E1.44908
M204 S3000
M205 X10 Y10
G0 F3000 X106.409 Y104.033
M204 S1800
M205 X8 Y8
G1 F1500 X105.965 Y103.589 E1.47832
M204 S3000
M205 X10 Y10
G0 F3000 X105.173 Y103.589
M204 S1800
M205 X8 Y8
G1 F1500 X106.409 Y104.825 E1.55971
M204 S3000
M205 X10 Y10
G0 F3000 X106.409 Y105.617
M204 S1800
M205 X8 Y8
G1 F1500 X104.381 Y103.589 E1.69326
M204 S3000
M205 X10 Y10
G0 F3000 X103.589 Y103.589
M204 S1800
M205 X8 Y8
G1 F1500 X106.409 Y106.409 E1.87896
M204 S3000
M205 X10 Y10
G0 F3000 X105.617 Y106.409
M204 S1800
M205 X8 Y8
G1 F1500 X103.589 Y104.381 E2.0125
M204 S3000
M205 X10 Y10
G0 F3000 X103.589 Y105.173
M204 S1800
M205 X8 Y8
G1 F1500 X104.825 Y106.409 E2.0939
M204 S3000
M205 X10 Y10
G0 F3000 X104.033 Y106.409
M204 S1800
M205 X8 Y8
G1 F1500 X103.589 Y105.965 E2.12314
M204 S3000
M205 X10 Y10
;MESH:NONMESH
G0 F3000 X107.15 Y107.15
G0 X107.3 Y107.3
;TIME_ELAPSED:10.813057
;LAYER:1
M140 S85
;MESH:box.stl
G0 F4500 X107.3 Y107.3 Z0.4
M204 S1800
M205 X8 Y8
;TYPE:WALL-OUTER
G1 F1159 X102.7 Y107.3 E2.27613
G1 X102.7 Y102.7 E2.42913
G1 X107.3 Y102.7 E2.58213
G1 X107.3 Y107.3 E2.73512
M204 S3000
M205 X10 Y10
G0 F4500 X107.1 Y107.3
G0 X106.91 Y106.91
M204 S1800
M205 X8 Y8
;TYPE:SKIN
G1 F695.4 X103.09 Y106.91 E2.86218
G1 X103.09 Y103.09 E2.98923
G1 X106.91 Y103.09 E3.11628
G1 X106.91 Y106.91 E3.24334
M204 S3000
M205 X10 Y10
G0 F4500 X106.729 Y106.534
M204 S1800
M205 X8 Y8
G1 F695.4 X106.533 Y106.729 E3.25253
M204 S3000
M205 X10 Y10
G0 F4500 X105.967 Y106.729
M204 S1800
M205 X8 Y8
G1 F695.4 X106.729 Y105.968 E3.28835
M204 S3000
M205 X10 Y10
G0 F4500 X106.729 Y105.402
M204 S1800
M205 X8 Y8
G1 F695.4 X105.402 Y106.729 E3.35077
M204 S3000
M205 X10 Y10
G0 F4500 X104.836 Y106.729
M204 S1800
M205 X8 Y8
G1 F695.4 X106.729 Y104.837 E3.43979
M204 S3000
M205 X10 Y10
G0 F4500 X106.729 Y104.271
M204 S1800
M205 X8 Y8
G1 F695.4 X104.27 Y106.729 E3.55543
M204 S3000
M205 X10 Y10
G0 F4500 X103.704 Y106.729
M204 S1800
M205 X8 Y8
G1 F695.4 X106.729 Y103.705 E3.69769
M204 S3000
M205 X10 Y10
G0 F4500 X106.599 Y103.269
M204 S1800
M205 X8 Y8
G1 F695.4 X103.27 Y106.599 E3.8543
M204 S3000
M205 X10 Y10
G0 F4500 X103.27 Y106.033
M204 S1800
M205 X8 Y8
G1 F695.4 X106.034 Y103.269 E3.98431
M204 S3000
M205 X10 Y10
G0 F4500 X105.468 Y103.269
M204 S1800
M205 X8 Y8
G1 F695.4 X103.27 Y105.467 E4.0877
M204 S3000
M205 X10 Y10
G0 F4500 X103.27 Y104.902
M204 S1800
M205 X8 Y8
G1 F695.4 X104.902 Y103.269 E4.16448
M204 S3000
M205 X10 Y10
G0 F4500 X104.337 Y103.269
M204 S1800
M205 X8 Y8
G1 F695.4 X103.27 Y104.336 E4.21467
M204 S3000
M205 X10 Y10
G0 F4500 X103.27 Y103.77
M204 S1800
M205 X8 Y8
G1 F695.4 X103.771 Y103.269 E4.23824
M204 S3000
M205 X10 Y10
;MESH:NONMESH
G0 F4500 X107.23 Y107.23
G0 X107.3 Y107.3
;TIME_ELAPSED:16.209626
;LAYER:2
;MESH:box.stl
G0 F6000 X107.3 Y107.3 Z0.6
M204 S1800
M205 X8 Y8
;TYPE:WALL-OUTER
G1 F600 X102.7 Y107.3 E4.39124
G1 X102.7 Y102.7 E4.54423
G1 X107.3 Y102.7 E4.69723
G1 X107.3 Y107.3 E4.85023
M204 S3000
M205 X10 Y10
G0 F6000 X107.1 Y107.3
G0 X106.9 Y106.9
;MESH:NONMESH
G0 X107.3 Y107.3
;TIME_ELAPSED:18.192351
;LAYER:3
;MESH:box.stl
G0 X107.3 Y107.3 Z0.8
M204 S1800
M205 X8 Y8
;TYPE:WALL-OUTER
G1 F600 X102.7 Y107.3 E5.00322
G1 X102.7 Y102.7 E5.15622
G1 X107.3 Y102.7 E5.30922
G1 X107.3 Y107.3 E5.46221
M204 S3000
M205 X10 Y10
G0 F6000 X107.1 Y107.3
G0 X106.9 Y106.9
;MESH:NONMESH
G0 X107.3 Y107.3
;TIME_ELAPSED:20.175075
;LAYER:4
;MESH:box.stl
G0 X107.3 Y107.3 Z1
M204 S1800
M205 X8 Y8
;TYPE:WALL-OUTER
G1 F600 X102.7 Y107.3 E5.61521
G1 X102.7 Y102.7 E5.7682
G1 X107.3 Y102.7 E5.9212
G1 X107.3 Y107.3 E6.0742
M204 S3000
M205 X10 Y10
G0 F6000 X107.1 Y107.3
G0 X106.9 Y106.9
;MESH:NONMESH
G0 X107.3 Y107.3
;TIME_ELAPSED:22.157800
;LAYER:5
;MESH:box.stl
G0 X107.3 Y107.3 Z1.2
M204 S1800
M205 X8 Y8
;TYPE:WALL-OUTER
G1 F600 X102.7 Y107.3 E6.22719
G1 X102.7 Y102.7 E6.38019
G1 X107.3 Y102.7 E6.53319
G1 X107.3 Y107.3 E6.68618
M204 S3000
M205 X10 Y10
G0 F6000 X107.1 Y107.3
G0 X106.9 Y106.9
;MESH:NONMESH
G0 X107.3 Y107.3
;TIME_ELAPSED:24.140524
;LAYER:6
;MESH:box.stl
G0 X107.3 Y107.3 Z1.4
M204 S1800
M205 X8 Y8
;TYPE:WALL-OUTER
G1 F600 X102.7 Y107.3 E6.83918
G1 X102.7 Y102.7 E6.99218
G1 X107.3 Y102.7 E7.14517
G1 X107.3 Y107.3 E7.29817
M204 S3000
M205 X10 Y10
G0 F6000 X107.1 Y107.3
G0 X106.9 Y106.9
;MESH:NONMESH
G0 X107.3 Y107.3
;TIME_ELAPSED:26.123249
;LAYER:7
;MESH:box.stl
G0 X107.3 Y107.3 Z1.6
M204 S1800
M205 X8 Y8
;TYPE:WALL-OUTER
G1 F600 X102.7 Y107.3 E7.45117
G1 X102.7 Y102.7 E7.60416
G1 X107.3 Y102.7 E7.75716
G1 X107.3 Y107.3 E7.91016
M204 S3000
M205 X10 Y10
G0 F6000 X107.1 Y107.3
G0 X106.9 Y106.9
;MESH:NONMESH
G0 X107.3 Y107.3
;TIME_ELAPSED:28.105974
;LAYER:8
;MESH:box.stl
G0 X107.3 Y107.3 Z1.8
M204 S1800
M205 X8 Y8
;TYPE:WALL-OUTER
G1 F600 X102.7 Y107.3 E8.06315
G1 X102.7 Y102.7 E8.21615
G1 X107.3 Y102.7 E8.36915
G1 X107.3 Y107.3 E8.52214
M204 S3000
M205 X10 Y10
G0 F6000 X107.1 Y107.3
G0 X106.9 Y106.9
;MESH:NONMESH
G0 X107.3 Y107.3
;TIME_ELAPSED:30.088698
;LAYER:9
;MESH:box.stl
G0 X107.3 Y107.3 Z2
M204 S1800
M205 X8 Y8
;TYPE:WALL-OUTER
G1 F600 X102.7 Y107.3 E8.67514
G1 X102.7 Y102.7 E8.82814
G1 X107.3 Y102.7 E8.98113
G1 X107.3 Y107.3 E9.13413
M204 S3000
M205 X10 Y10
G0 F6000 X107.1 Y107.3
G0 X106.9 Y106.9
;MESH:NONMESH
G0 X107.3 Y107.3
;TIME_ELAPSED:32.071423
;LAYER:10
;MESH:box.stl
G0 X107.3 Y107.3 Z2.2
M204 S1800
M205 X8 Y8
;TYPE:WALL-OUTER
G1 F600 X102.7 Y107.3 E9.28713
G1 X102.7 Y102.7 E9.44012
G1 X107.3 Y102.7 E9.59312
G1 X107.3 Y107.3 E9.74612
M204 S3000
M205 X10 Y10
G0 F6000 X107.1 Y107.3
G0 X106.9 Y106.9
;MESH:NONMESH
G0 X107.3 Y107.3
;TIME_ELAPSED:34.054148
;LAYER:11
;MESH:box.stl
G0 X107.3 Y107.3 Z2.4
M204 S1800
M205 X8 Y8
;TYPE:WALL-OUTER
G1 F600 X102.7 Y107.3 E9.89911
G1 X102.7 Y102.7 E10.05211
G1 X107.3 Y102.7 E10.20511
G1 X107.3 Y107.3 E10.3581
M204 S3000
M205 X10 Y10
G0 F6000 X107.1 Y107.3
G0 X106.9 Y106.9
;MESH:NONMESH
G0 X107.3 Y107.3
;TIME_ELAPSED:36.036872
;LAYER:12
;MESH:box.stl
G0 X107.3 Y107.3 Z2.6
M204 S1800
M205 X8 Y8
;TYPE:WALL-OUTER
G1 F600 X102.7 Y107.3 E10.5111
G1 X102.7 Y102.7 E10.6641
G1 X107.3 Y102.7 E10.81709
G1 X107.3 Y107.3 E10.97009
M204 S3000
M205 X10 Y10
G0 F6000 X107.1 Y107.3
G0 X106.9 Y106.9
;MESH:NONMESH
G0 X107.3 Y107.3
;TIME_ELAPSED:38.019597
;LAYER:13
;MESH:box.stl
G0 X107.3 Y107.3 Z2.8
M204 S1800
M205 X8 Y8
;TYPE:WALL-OUTER
G1 F600 X102.7 Y107.3 E11.12309
G1 X102.7 Y102.7 E11.27608
G1 X107.3 Y102.7 E11.42908
G1 X107.3 Y107.3 E11.58208
M204 S3000
M205 X10 Y10
G0 F6000 X107.1 Y107.3
G0 X106.9 Y106.9
;MESH:NONMESH
G0 X107.3 Y107.3
;TIME_ELAPSED:40.002322
;LAYER:14
;MESH:box.stl
G0 X107.3 Y107.3 Z3
M204 S1800
M205 X8 Y8
;TYPE:WALL-OUTER
G1 F600 X102.7 Y107.3 E11.73507
G1 X102.7 Y102.7 E11.88807
G1 X107.3 Y102.7 E12.04107
G1 X107.3 Y107.3 E12.19406
M204 S3000
M205 X10 Y10
G0 F6000 X107.1 Y107.3
G0 X106.9 Y106.9
;MESH:NONMESH
G0 X107.3 Y107.3
;TIME_ELAPSED:41.985046
;LAYER:15
;MESH:box.stl
G0 X107.3 Y107.3 Z3.2
M204 S1800
M205 X8 Y8
;TYPE:WALL-OUTER
G1 F600 X102.7 Y107.3 E12.34706
G1 X102.7 Y102.7 E12.50006
G1 X107.3 Y102.7 E12.65305
G1 X107.3 Y107.3 E12.80605
M204 S3000
M205 X10 Y10
G0 F6000 X107.1 Y107.3
G0 X106.9 Y106.9
;MESH:NONMESH
G0 X107.3 Y107.3
;TIME_ELAPSED:43.967771
;LAYER:16
;MESH:box.stl
G0 X107.3 Y107.3 Z3.4
M204 S1800
M205 X8 Y8
;TYPE:WALL-OUTER
G1 F600 X102.7 Y107.3 E12.95905
G1 X102.7 Y102.7 E13.11204
G1 X107.3 Y102.7 E13.26504
G1 X107.3 Y107.3 E13.41804
M204 S3000
M205 X10 Y10
G0 F6000 X107.1 Y107.3
G0 X106.9 Y106.9
;MESH:NONMESH
G0 X107.3 Y107.3
;TIME_ELAPSED:45.950496
;LAYER:17
;MESH:box.stl
G0 X107.3 Y107.3 Z3.6
M204 S1800
M205 X8 Y8
;TYPE:WALL-OUTER
G1 F600 X102.7 Y107.3 E13.57103
G1 X102.7 Y102.7 E13.72403
G1 X107.3 Y102.7 E13.87703
G1 X107.3 Y107.3 E14.03002
M204 S3000
M205 X10 Y10
G0 F6000 X107.1 Y107.3
G0 X106.9 Y106.9
;MESH:NONMESH
G0 X107.3 Y107.3
;TIME_ELAPSED:47.933220
;LAYER:18
;MESH:box.stl
G0 X107.3 Y107.3 Z3.8
M204 S1800
M205 X8 Y8
;TYPE:WALL-OUTER
G1 F600 X102.7 Y107.3 E14.18302
G1 X102.7 Y102.7 E14.33602
G1 X107.3 Y102.7 E14.48901
G1 X107.3 Y107.3 E14.64201
M204 S3000
M205 X10 Y10
G0 F6000 X107.1 Y107.3
G0 X106.9 Y106.9
;MESH:NONMESH
G0 X107.3 Y107.3
;TIME_ELAPSED:49.915945
;LAYER:19
;MESH:box.stl
G0 X107.3 Y107.3 Z4
M204 S1800
M205 X8 Y8
;TYPE:WALL-OUTER
G1 F600 X102.7 Y107.3 E14.79501
G1 X102.7 Y102.7 E14.948
G1 X107.3 Y102.7 E15.101
G1 X107.3 Y107.3 E15.254
M204 S3000
M205 X10 Y10
G0 F6000 X107.1 Y107.3
G0 X106.9 Y106.9
;MESH:NONMESH
G0 X107.3 Y107.3
;TIME_ELAPSED:51.898669
;LAYER:20
;MESH:box.stl
G0 X107.3 Y107.3 Z4.2
M204 S1800
M205 X8 Y8
;TYPE:WALL-OUTER
G1 F600 X102.7 Y107.3 E15.40699
G1 X102.7 Y102.7 E15.55999
G1 X107.3 Y102.7 E15.71299
G1 X107.3 Y107.3 E15.86598
M204 S3000
M205 X10 Y10
G0 F6000 X107.1 Y107.3
G0 X106.9 Y106.9
;MESH:NONMESH
G0 X107.3 Y107.3
;TIME_ELAPSED:53.881394
;LAYER:21
;MESH:box.stl
G0 X107.3 Y107.3 Z4.4
M204 S1800
M205 X8 Y8
;TYPE:WALL-OUTER
G1 F600 X102.7 Y107.3 E16.01898
G1 X102.7 Y102.7 E16.17198
G1 X107.3 Y102.7 E16.32497
G1 X107.3 Y107.3 E16.47797
M204 S3000
M205 X10 Y10
G0 F6000 X107.1 Y107.3
G0 X106.9 Y106.9
;MESH:NONMESH
G0 X107.3 Y107.3
;TIME_ELAPSED:55.864119
;LAYER:22
;MESH:box.stl
G0 X107.3 Y107.3 Z4.6
M204 S1800
M205 X8 Y8
;TYPE:WALL-OUTER
G1 F600 X102.7 Y107.3 E16.63097
G1 X102.7 Y102.7 E16.78396
G1 X107.3 Y102.7 E16.93696
G1 X107.3 Y107.3 E17.08995
M204 S3000
M205 X10 Y10
G0 F6000 X107.1 Y107.3
G0 X106.9 Y106.9
;MESH:NONMESH
G0 X107.3 Y107.3
;TIME_ELAPSED:57.846843
;LAYER:23
;MESH:box.stl
G0 X107.3 Y107.3 Z4.8
M204 S1800
M205 X8 Y8
;TYPE:WALL-OUTER
G1 F1601.3 X102.7 Y107.3 E17.24295
G1 X102.7 Y102.7 E17.39595
G1 X107.3 Y102.7 E17.54894
G1 X107.3 Y107.3 E17.70194
M204 S3000
M205 X10 Y10
G0 F6000 X107.1 Y107.3
G0 X106.91 Y106.91
M204 S1800
M205 X8 Y8
;TYPE:SKIN
G1 F640.5 X103.09 Y106.91 E17.829
G1 X103.09 Y103.09 E17.95605
G1 X106.91 Y103.09 E18.0831
G1 X106.91 Y106.91 E18.21016
M204 S3000
M205 X10 Y10
G0 F6000 X106.729 Y106.534
M204 S1800
M205 X8 Y8
G1 F640.5 X106.533 Y106.729 E18.21935
M204 S3000
M205 X10 Y10
G0 F6000 X105.967 Y106.729
M204 S1800
M205 X8 Y8
G1 F640.5 X106.729 Y105.968 E18.25517
M204 S3000
M205 X10 Y10
G0 F6000 X106.729 Y105.402
M204 S1800
M205 X8 Y8
G1 F640.5 X105.402 Y106.729 E18.31759
M204 S3000
M205 X10 Y10
G0 F6000 X104.836 Y106.729
M204 S1800
M205 X8 Y8
G1 F640.5 X106.729 Y104.837 E18.40661
M204 S3000
M205 X10 Y10
G0 F6000 X106.729 Y104.271
M204 S1800
M205 X8 Y8
G1 F640.5 X104.27 Y106.729 E18.52225
M204 S3000
M205 X10 Y10
G0 F6000 X103.704 Y106.729
M204 S1800
M205 X8 Y8
G1 F640.5 X106.729 Y103.705 E18.66451
M204 S3000
M205 X10 Y10
G0 F6000 X106.599 Y103.269
M204 S1800
M205 X8 Y8
G1 F640.5 X103.27 Y106.599 E18.82112
M204 S3000
M205 X10 Y10
G0 F6000 X103.27 Y106.033
M204 S1800
M205 X8 Y8
G1 F640.5 X106.034 Y103.269 E18.95113
M204 S3000
M205 X10 Y10
G0 F6000 X105.468 Y103.269
M204 S1800
M205 X8 Y8
G1 F640.5 X103.27 Y105.467 E19.05452
M204 S3000
M205 X10 Y10
G0 F6000 X103.27 Y104.902
M204 S1800
M205 X8 Y8
G1 F640.5 X104.902 Y103.269 E19.1313
M204 S3000
M205 X10 Y10
G0 F6000 X104.337 Y103.269
M204 S1800
M205 X8 Y8
G1 F640.5 X103.27 Y104.336 E19.18149
M204 S3000
M205 X10 Y10
G0 F6000 X103.27 Y103.77
M204 S1800
M205 X8 Y8
G1 F640.5 X103.771 Y103.269 E19.20506
M204 S3000
M205 X10 Y10
;MESH:NONMESH
G0 F6000 X107.23 Y107.23
G0 X107.3 Y107.3
;TIME_ELAPSED:63.315038
;LAYER:24
;MESH:box.stl
G0 X107.3 Y107.3 Z5
M204 S1800
M205 X8 Y8
;TYPE:WALL-OUTER
G1 F1632.8 X102.7 Y107.3 E19.35805
G1 X102.7 Y102.7 E19.51105
G1 X107.3 Y102.7 E19.66405
G1 X107.3 Y107.3 E19.81704
M204 S3000
M205 X10 Y10
G0 F6000 X107.1 Y107.3
G0 X106.91 Y106.91
M204 S1800
M205 X8 Y8
;TYPE:SKIN
G1 F653.1 X103.09 Y106.91 E19.9441
G1 X103.09 Y103.09 E20.07115
G1 X106.91 Y103.09 E20.19821
G1 X106.91 Y106.91 E20.32526
M204 S3000
M205 X10 Y10
G0 F6000 X106.729 Y103.335
M204 S1800
M205 X8 Y8
G1 F653.1 X106.664 Y103.27 E20.32832
M204 S3000
M205 X10 Y10
G0 F6000 X106.098 Y103.27
M204 S1800
M205 X8 Y8
G1 F653.1 X106.729 Y103.901 E20.358
M204 S3000
M205 X10 Y10
G0 F6000 X106.729 Y104.467
M204 S1800
M205 X8 Y8
G1 F653.1 X105.532 Y103.27 E20.4143
M204 S3000
M205 X10 Y10
G0 F6000 X104.967 Y103.27
M204 S1800
M205 X8 Y8
G1 F653.1 X106.729 Y105.032 E20.49718
M204 S3000
M205 X10 Y10
G0 F6000 X106.729 Y105.598
M204 S1800
M205 X8 Y8
G1 F653.1 X104.401 Y103.27 E20.60668
M204 S3000
M205 X10 Y10
G0 F6000 X103.835 Y103.27
M204 S1800
M205 X8 Y8
G1 F653.1 X106.729 Y106.164 E20.74281
M204 S3000
M205 X10 Y10
G0 F6000 X106.729 Y106.729
M204 S1800
M205 X8 Y8
G1 F653.1 X103.269 Y103.269 E20.90555
M204 S3000
M205 X10 Y10
G0 F6000 X103.269 Y103.835
M204 S1800
M205 X8 Y8
G1 F653.1 X106.163 Y106.729 E21.04168
M204 S3000
M205 X10 Y10
G0 F6000 X105.597 Y106.729
M204 S1800
M205 X8 Y8
G1 F653.1 X103.269 Y104.4 E21.1512
M204 S3000
M205 X10 Y10
G0 F6000 X103.269 Y104.966
M204 S1800
M205 X8 Y8
G1 F653.1 X105.032 Y106.729 E21.23413
M204 S3000
M205 X10 Y10
G0 F6000 X104.466 Y106.729
M204 S1800
M205 X8 Y8
G1 F653.1 X103.269 Y105.532 E21.29043
M204 S3000
M205 X10 Y10
G0 F6000 X103.269 Y106.097
M204 S1800
M205 X8 Y8
G1 F653.1 X103.9 Y106.729 E21.32014
M204 S3000
M205 X10 Y10
G0 F6000 X103.335 Y106.729
M204 S1800
M205 X8 Y8
G1 F653.1 X103.269 Y106.663 E21.32324
;TIME_ELAPSED:68.692737
G1 F2400 E15.32324
M140 S0
M204 S4000
M205 X20 Y20
M107
M104 S0 ; turn off extruder
M140 S0 ; turn off bed
M84 ; disable motors
M107
G91 ;relative positioning
G1 E-1 F300 ;retract the filament a bit before lifting the nozzle
to release some of the pressure
G1 Z+0.5 E-5 ;X-20 Y-20 F100 ;move Z up a bit and retract filament even more
G28 X0 ;Y0 ;move X/Y to min endstops
so the head is out of the way
G1 Y180 F2000
M84 ;steppers off
G90
M300 P300 S4000
M82 ;absolute extrusion mode
M104 S0
;End of Gcode
;SETTING_3 {"extruder_quality": ["[general]\\nversion = 4\\nname = 3d scanmode\\
;SETTING_3 ndefinition = anycubic_i3_mega\\n\\n[metadata]\\ntype = quality_chang
;SETTING_3 es\\nposition = 0\\nquality_type = normal\\nsetting_version = 5\\n\\n
;SETTING_3 [values]\\ninfill_pattern = grid\\ninfill_sparse_density = 0\\nmateri
;SETTING_3 al_print_temperature = 220\\nsupport_infill_rate = =15 if support_ena
;SETTING_3 ble else 0 if support_tree_enable else 15\\nsupport_interface_density
;SETTING_3  = 40\\ntop_bottom_thickness = 0.4\\nwall_thickness = 0.4\\n\\n"], "g
;SETTING_3 lobal_quality": "[general]\\nversion = 4\\nname = 3d scanmode\\ndefin
;SETTING_3 ition = anycubic_i3_mega\\n\\n[metadata]\\ntype = quality_changes\\nq
;SETTING_3 uality_type = normal\\nsetting_version = 5\\n\\n[values]\\nadhesion_t
;SETTING_3 ype = none\\nlayer_height = 0.2\\nmaterial_bed_temperature = 85\\nsup
;SETTING_3 port_enable = True\\nsupport_type = everywhere\\n\\n"}
