;FLAVOR:Marlin
;TIME:1981
;Filament used: 2.14722m
;Layer height: 0.2
;Generated with Cura_SteamEngine 3.6.0
M140 S85
M105
M190 S85
M104 S215
M105
M109 S215
M82 ;absolute extrusion mode
G21 ;metric values
G90 ;absolute positioning
M82 ;set extruder to absolute mode
M107 ;start with the fan off
G28 X0 Y0 ;move X/Y to min endstops
G28 Z0 ;move Z to min endstops
G1 Z15.0 F100 ;move the platform down 15mm
G92 E0 ;zero the extruded length
G1 F200 E3 ;extrude 3mm of feed stock
G92 E0 ;zero the extruded length again
G1 F100
M117 Printing...
G5
G92 E0
G1 F2400 E-6
;LAYER_COUNT:217
;LAYER:-6
M107
M204 S3000
M205 X10 Y10
G0 F6000 X76.936 Y92.333 Z0.36
M204 S1800
M205 X8 Y8
;TYPE:SUPPORT-INTERFACE
G1 F2400 E0
G1 F1125 X77.764 Y91.687 E0.12575
G1 X77.923 Y91.574 E0.1491
G1 X78.661 Y91.084 E0.25517
G1 X79.581 Y90.562 E0.38183
G1 X79.731 Y90.484 E0.40207
G1 X80.546 Y90.101 E0.50989
G1 X81.548 Y89.712 E0.63859
G1 X81.698 Y89.66 E0.6576
G1 X82.548 Y89.405 E0.76386
G1 X82.721 Y89.358 E0.78532
G1 X83.616 Y89.158 E0.89513
G1 X84.651 Y89.001 E1.02048
G1 X84.82 Y88.983 E1.04083
G1 X85.893 Y88.908 E1.16962
G1 X86.398 Y88.9 E1.23009
G1 X136.166 Y88.901 E7.18914
G1 X137.29 Y88.946 E7.32383
G1 X138.382 Y89.073 E7.45546
G1 X139.394 Y89.265 E7.5788
G1 X140.288 Y89.499 E7.68945
G1 X141.293 Y89.835 E7.81633
G1 X141.459 Y89.898 E7.83759
G1 X142.262 Y90.239 E7.94205
G1 X142.451 Y90.327 E7.96701
G1 X143.245 Y90.736 E8.07395
G1 X143.362 Y90.801 E8.08998
G1 X144.141 Y91.276 E8.19923
G1 X144.292 Y91.376 E8.22091
G1 X145.154 Y92 E8.34833
G1 X145.845 Y92.576 E8.45604
G1 X145.958 Y92.677 E8.47419
G1 X146.607 Y93.302 E8.58208
G1 X146.727 Y93.427 E8.60282
G1 X147.33 Y94.098 E8.71084
G1 X147.985 Y94.938 E8.83838
G1 X148.079 Y95.069 E8.85769
G1 X148.579 Y95.823 E8.96602
G1 X149.101 Y96.743 E9.09267
G1 X149.179 Y96.893 E9.11291
G1 X149.562 Y97.708 E9.22074
G1 X149.951 Y98.71 E9.34944
G1 X150.003 Y98.86 E9.36845
G1 X150.258 Y99.71 E9.4747
G1 X150.305 Y99.883 E9.49617
G1 X150.503 Y100.769 E9.60487
G1 X150.661 Y101.807 E9.73059
G1 X150.679 Y101.969 E9.75011
G1 X150.755 Y103.054 E9.88034
G1 X150.763 Y103.562 E9.94117
G1 X150.762 Y106.491 E10.29188
G1 X150.716 Y107.632 E10.42861
G1 X150.615 Y108.544 E10.53848
G1 X150.59 Y108.715 E10.55917
G1 X150.428 Y109.59 E10.66572
G1 X150.163 Y110.628 E10.794
G1 X150.116 Y110.784 E10.8135
G1 X149.831 Y111.619 E10.91915
G1 X149.756 Y111.815 E10.94427
G1 X149.421 Y112.603 E11.0468
G1 X149.34 Y112.778 E11.06989
G1 X148.928 Y113.579 E11.17774
G1 X148.393 Y114.467 E11.30187
G1 X148.283 Y114.633 E11.32572
G1 X147.659 Y115.495 E11.45314
G1 X147.085 Y116.184 E11.56051
G1 X146.349 Y116.955 E11.68814
G1 X146.236 Y117.064 E11.70694
G1 X145.583 Y117.648 E11.81183
G1 X145.435 Y117.772 E11.83495
G1 X144.719 Y118.325 E11.94328
G1 X144.573 Y118.429 E11.96474
G1 X143.835 Y118.919 E12.07081
G1 X142.905 Y119.447 E12.19886
G1 X142.769 Y119.517 E12.21717
G1 X141.971 Y119.891 E12.3227
G1 X141.773 Y119.975 E12.34845
G1 X140.8 Y120.341 E12.47292
G1 X139.941 Y120.599 E12.58032
G1 X139.782 Y120.641 E12.60001
G1 X138.904 Y120.838 E12.70775
G1 X138.715 Y120.871 E12.73072
G1 X137.687 Y121.018 E12.85506
G1 X136.633 Y121.091 E12.98157
G1 X136.103 Y121.1 E13.04504
G1 X86.335 Y121.099 E19.00408
G1 X85.211 Y121.054 E19.13877
G1 X84.119 Y120.927 E19.27041
G1 X83.107 Y120.735 E19.39374
G1 X82.213 Y120.501 E19.50439
G1 X81.208 Y120.165 E19.63127
G1 X81.042 Y120.102 E19.65253
G1 X80.239 Y119.761 E19.75699
G1 X80.05 Y119.673 E19.78196
G1 X79.256 Y119.264 E19.8889
G1 X79.139 Y119.199 E19.90492
G1 X78.36 Y118.724 E20.01417
G1 X78.209 Y118.624 E20.03586
G1 X77.347 Y118 E20.16327
G1 X76.656 Y117.424 E20.27099
G1 X76.543 Y117.323 E20.28914
G1 X75.894 Y116.698 E20.39702
G1 X75.774 Y116.573 E20.41777
G1 X75.171 Y115.902 E20.52579
G1 X74.516 Y115.062 E20.65333
G1 X73.919 Y114.172 E20.78165
G1 X73.394 Y113.246 E20.9091
G1 X73.322 Y113.107 E20.92785
G1 X72.937 Y112.286 E21.03642
G1 X72.874 Y112.137 E21.05579
G1 X72.55 Y111.29 E21.16438
G1 X72.493 Y111.125 E21.18528
G1 X72.243 Y110.29 E21.28964
G1 X72.196 Y110.117 E21.31111
G1 X71.995 Y109.216 E21.42164
G1 X71.838 Y108.178 E21.54734
G1 X71.821 Y108.018 E21.56661
G1 X71.746 Y106.945 E21.6954
G1 X71.738 Y106.444 E21.7554
G1 X71.738 Y103.514 E22.10622
G1 X71.784 Y102.373 E22.24295
G1 X71.911 Y101.281 E22.37459
G1 X72.103 Y100.269 E22.49792
G1 X72.334 Y99.384 E22.60744
G1 X72.386 Y99.212 E22.62895
G1 X72.672 Y98.37 E22.73543
G1 X72.736 Y98.204 E22.75673
G1 X73.077 Y97.401 E22.86119
G1 X73.158 Y97.226 E22.88428
G1 X73.574 Y96.418 E22.9931
G1 X73.639 Y96.301 E23.00912
G1 X74.114 Y95.522 E23.11837
G1 X74.214 Y95.371 E23.14006
G1 X74.838 Y94.509 E23.26747
G1 X75.414 Y93.818 E23.37519
G1 X75.515 Y93.705 E23.39333
G1 X76.14 Y93.056 E23.50122
G1 X76.265 Y92.936 E23.52197
G1 X76.936 Y92.333 E23.62998
M204 S3000
M205 X10 Y10
G0 F6000 X76.8 Y92.455
M204 S1800
M205 X8 Y8
G1 F1125 X76.8 Y117.544 E26.63405
M204 S3000
M205 X10 Y10
G0 F6000 X78.4 Y118.748
M204 S1800
M205 X8 Y8
G1 F1125 X78.4 Y91.257 E29.92573
M204 S3000
M205 X10 Y10
G0 F6000 X80 Y90.357
M204 S1800
M205 X8 Y8
G1 F1125 X80 Y119.647 E33.43281
M204 S3000
M205 X10 Y10
G0 F6000 X81.6 Y120.296
M204 S1800
M205 X8 Y8
G1 F1125 X81.6 Y89.693 E37.09711
M204 S3000
M205 X10 Y10
G0 F6000 X83.2 Y89.25
M204 S1800
M205 X8 Y8
G1 F1125 X83.2 Y120.752 E40.86905
M204 S3000
M205 X10 Y10
G0 F6000 X84.8 Y121.006
M204 S1800
M205 X8 Y8
G1 F1125 X84.8 Y88.985 E44.70313
M204 S3000
M205 X10 Y10
G0 F6000 X86.4 Y88.901
M204 S1800
M205 X8 Y8
G1 F1125 X86.4 Y121.099 E48.5584
M204 S3000
M205 X10 Y10
G0 F6000 X88 Y121.099
M204 S1800
M205 X8 Y8
G1 F1125 X88 Y88.901 E52.41368
M204 S3000
M205 X10 Y10
G0 F6000 X89.6 Y88.901
M204 S1800
M205 X8 Y8
G1 F1125 X89.6 Y121.099 E56.26895
M204 S3000
M205 X10 Y10
G0 F6000 X91.2 Y121.099
M204 S1800
M205 X8 Y8
G1 F1125 X91.2 Y88.901 E60.12423
M204 S3000
M205 X10 Y10
G0 F6000 X92.8 Y88.901
M204 S1800
M205 X8 Y8
G1 F1125 X92.8 Y121.099 E63.9795
M204 S3000
M205 X10 Y10
G0 F6000 X94.4 Y121.099
M204 S1800
M205 X8 Y8
G1 F1125 X94.4 Y88.901 E67.83478
M204 S3000
M205 X10 Y10
G0 F6000 X96 Y88.901
M204 S1800
M205 X8 Y8
G1 F1125 X96 Y121.099 E71.69005
M204 S3000
M205 X10 Y10
G0 F6000 X97.6 Y121.099
M204 S1800
M205 X8 Y8
G1 F1125 X97.6 Y88.901 E75.54533
M204 S3000
M205 X10 Y10
G0 F6000 X99.2 Y88.901
M204 S1800
M205 X8 Y8
G1 F1125 X99.2 Y121.099 E79.40061
M204 S3000
M205 X10 Y10
G0 F6000 X100.8 Y121.099
M204 S1800
M205 X8 Y8
G1 F1125 X100.8 Y88.901 E83.25588
M204 S3000
M205 X10 Y10
G0 F6000 X102.4 Y88.901
M204 S1800
M205 X8 Y8
G1 F1125 X102.4 Y121.099 E87.11116
M204 S3000
M205 X10 Y10
G0 F6000 X104 Y121.099
M204 S1800
M205 X8 Y8
G1 F1125 X104 Y88.901 E90.96643
M204 S3000
M205 X10 Y10
G0 F6000 X105.6 Y88.901
M204 S1800
M205 X8 Y8
G1 F1125 X105.6 Y121.099 E94.82171
M204 S3000
M205 X10 Y10
G0 F6000 X107.2 Y121.099
M204 S1800
M205 X8 Y8
G1 F1125 X107.2 Y88.901 E98.67698
M204 S3000
M205 X10 Y10
G0 F6000 X108.8 Y88.901
M204 S1800
M205 X8 Y8
G1 F1125 X108.8 Y121.099 E102.53226
M204 S3000
M205 X10 Y10
G0 F6000 X110.4 Y121.099
M204 S1800
M205 X8 Y8
G1 F1125 X110.4 Y88.901 E106.38753
M204 S3000
M205 X10 Y10
G0 F6000 X112 Y88.901
M204 S1800
M205 X8 Y8
G1 F1125 X112 Y121.099 E110.24281
M204 S3000
M205 X10 Y10
G0 F6000 X113.6 Y121.099
M204 S1800
M205 X8 Y8
G1 F1125 X113.6 Y88.901 E114.09808
M204 S3000
M205 X10 Y10
G0 F6000 X115.2 Y88.901
M204 S1800
M205 X8 Y8
G1 F1125 X115.2 Y121.099 E117.95336
M204 S3000
M205 X10 Y10
G0 F6000 X116.8 Y121.099
M204 S1800
M205 X8 Y8
G1 F1125 X116.8 Y88.901 E121.80863
M204 S3000
M205 X10 Y10
G0 F6000 X118.4 Y88.901
M204 S1800
M205 X8 Y8
G1 F1125 X118.4 Y121.099 E125.66391
M204 S3000
M205 X10 Y10
G0 F6000 X120 Y121.099
M204 S1800
M205 X8 Y8
G1 F1125 X120 Y88.901 E129.51919
M204 S3000
M205 X10 Y10
G0 F6000 X121.6 Y88.901
M204 S1800
M205 X8 Y8
G1 F1125 X121.6 Y121.099 E133.37446
M204 S3000
M205 X10 Y10
G0 F6000 X123.2 Y121.099
M204 S1800
M205 X8 Y8
G1 F1125 X123.2 Y88.901 E137.22974
M204 S3000
M205 X10 Y10
G0 F6000 X124.8 Y88.901
M204 S1800
M205 X8 Y8
G1 F1125 X124.8 Y121.099 E141.08501
M204 S3000
M205 X10 Y10
G0 F6000 X126.4 Y121.099
M204 S1800
M205 X8 Y8
G1 F1125 X126.4 Y88.901 E144.94029
M204 S3000
M205 X10 Y10
G0 F6000 X128 Y88.901
M204 S1800
M205 X8 Y8
G1 F1125 X128 Y121.099 E148.79556
M204 S3000
M205 X10 Y10
G0 F6000 X129.6 Y121.099
M204 S1800
M205 X8 Y8
G1 F1125 X129.6 Y88.901 E152.65084
M204 S3000
M205 X10 Y10
G0 F6000 X131.2 Y88.901
M204 S1800
M205 X8 Y8
G1 F1125 X131.2 Y121.099 E156.50611
M204 S3000
M205 X10 Y10
G0 F6000 X132.8 Y121.099
M204 S1800
M205 X8 Y8
G1 F1125 X132.8 Y88.901 E160.36139
M204 S3000
M205 X10 Y10
G0 F6000 X134.4 Y88.901
M204 S1800
M205 X8 Y8
G1 F1125 X134.4 Y121.099 E164.21666
M204 S3000
M205 X10 Y10
G0 F6000 X136 Y121.099
M204 S1800
M205 X8 Y8
G1 F1125 X136 Y88.901 E168.07194
M204 S3000
M205 X10 Y10
G0 F6000 X137.6 Y88.983
M204 S1800
M205 X8 Y8
G1 F1125 X137.6 Y121.025 E171.90854
M204 S3000
M205 X10 Y10
G0 F6000 X139.2 Y120.772
M204 S1800
M205 X8 Y8
G1 F1125 X139.2 Y89.229 E175.68538
M204 S3000
M205 X10 Y10
G0 F6000 X140.8 Y89.671
M204 S1800
M205 X8 Y8
G1 F1125 X140.8 Y120.341 E179.3577
M204 S3000
M205 X10 Y10
G0 F6000 X142.4 Y119.69
M204 S1800
M205 X8 Y8
G1 F1125 X142.4 Y90.304 E182.87628
M204 S3000
M205 X10 Y10
G0 F6000 X144 Y91.191
M204 S1800
M205 X8 Y8
G1 F1125 X144 Y118.81 E186.18328
M204 S3000
M205 X10 Y10
G0 F6000 X145.6 Y117.633
M204 S1800
M205 X8 Y8
G1 F1125 X145.6 Y92.372 E189.20794
M204 S3000
M205 X10 Y10
G0 F6000 X147.2 Y93.954
M204 S1800
M205 X8 Y8
G1 F1125 X147.2 Y116.046 E191.85316
M204 S3000
M205 X10 Y10
G0 F6000 X148.8 Y113.792
M204 S1800
M205 X8 Y8
G1 F1125 X148.8 Y96.213 E193.95801
M204 S3000
M205 X10 Y10
G0 F6000 X150.4 Y100.309
M204 S1800
M205 X8 Y8
G1 F1125 X150.4 Y109.7 E195.08246
M204 S3000
M205 X10 Y10
G0 F6000 X75.2 Y115.934
M204 S1800
M205 X8 Y8
G1 F1125 X75.2 Y94.074 E197.69989
M204 S3000
M205 X10 Y10
G0 F6000 X73.6 Y96.371
M204 S1800
M205 X8 Y8
G1 F1125 X73.6 Y113.609 E199.76391
M204 S3000
M205 X10 Y10
G0 F6000 X72 Y109.238
M204 S1800
M205 X8 Y8
G1 F1125 X72 Y100.811 E200.77293
M204 S3000
M205 X10 Y10
G0 F6000 X73.322 Y113.106
;TIME_ELAPSED:101.242791
;LAYER:-5
M140 S85
G0 X73.322 Y113.106 Z0.66
M204 S1800
M205 X8 Y8
;TYPE:SUPPORT
G1 F1125 X73.394 Y113.245 E200.78855
G1 X73.918 Y114.171 E200.89472
G1 X74.515 Y115.061 E201.00165
G1 X75.171 Y115.901 E201.10799
G1 X75.773 Y116.572 E201.19794
G1 X75.894 Y116.697 E201.2153
G1 X76.542 Y117.321 E201.30507
G1 X76.656 Y117.423 E201.32033
G1 X77.346 Y117.999 E201.41001
G1 X78.208 Y118.622 E201.51614
G1 X78.36 Y118.723 E201.53435
G1 X79.139 Y119.198 E201.62539
G1 X79.256 Y119.262 E201.63869
G1 X80.05 Y119.672 E201.72786
G1 X80.094 Y119.692 E201.73268
G1 X73.157 Y112.755 E202.71156
G1 X72.937 Y112.285 E202.76334
G1 X72.873 Y112.136 E202.77953
G1 X72.549 Y111.289 E202.87001
G1 X72.493 Y111.123 E202.88749
G1 X72.301 Y110.485 E202.95397
G1 X82.353 Y120.536 E204.37235
G1 X83.106 Y120.734 E204.45004
G1 X84.118 Y120.926 E204.55282
G1 X84.161 Y120.931 E204.55714
G1 X71.914 Y108.683 E206.28539
G1 X71.837 Y108.177 E206.33646
G1 X71.82 Y108.017 E206.35251
G1 X71.757 Y107.112 E206.44303
G1 X85.717 Y121.072 E208.41294
G1 X86.334 Y121.097 E208.47456
G1 X87.156 Y121.097 E208.55658
G1 X71.737 Y105.678 E210.73236
G1 X71.737 Y104.264 E210.87345
G1 X88.57 Y121.097 E213.24877
G1 X89.984 Y121.097 E213.38986
G1 X71.762 Y102.875 E215.96118
G1 X71.784 Y102.372 E216.01142
G1 X71.876 Y101.575 E216.09147
G1 X91.399 Y121.097 E218.84631
G1 X92.813 Y121.097 E218.9874
G1 X72.083 Y100.368 E221.91255
G1 X72.102 Y100.268 E221.92271
G1 X72.333 Y99.383 E222.01397
G1 X72.375 Y99.245 E222.02837
G1 X94.227 Y121.097 E225.11192
G1 X95.641 Y121.097 E225.25301
G1 X72.738 Y98.194 E228.48487
G1 X73.077 Y97.4 E228.57102
G1 X73.157 Y97.225 E228.59021
G1 X73.166 Y97.208 E228.59213
G1 X97.056 Y121.097 E231.9632
G1 X98.47 Y121.097 E232.10429
G1 X73.651 Y96.278 E235.60652
G1 X74.113 Y95.52 E235.69509
G1 X74.191 Y95.404 E235.70904
G1 X99.884 Y121.097 E239.3346
G1 X101.298 Y121.097 E239.47569
G1 X74.783 Y94.582 E243.21724
G1 X74.838 Y94.508 E243.22644
G1 X75.414 Y93.817 E243.31621
G1 X75.422 Y93.807 E243.31748
G1 X102.712 Y121.097 E247.1684
G1 X104.127 Y121.098 E247.30959
G1 X76.112 Y93.082 E251.26288
G1 X76.139 Y93.055 E251.26669
G1 X76.265 Y92.935 E251.28405
G1 X76.851 Y92.408 E251.36269
G1 X105.542 Y121.098 E255.41123
G1 X106.956 Y121.098 E255.55232
G1 X77.64 Y91.782 E259.68912
G1 X77.763 Y91.686 E259.70469
G1 X77.923 Y91.573 E259.72423
G1 X78.477 Y91.205 E259.7906
G1 X108.37 Y121.098 E264.00882
G1 X109.784 Y121.098 E264.14991
G1 X79.368 Y90.682 E268.44194
G1 X79.581 Y90.561 E268.46638
G1 X79.731 Y90.483 E268.48325
G1 X80.311 Y90.211 E268.54717
G1 X111.198 Y121.098 E272.90566
G1 X112.613 Y121.098 E273.04685
G1 X81.316 Y89.801 E277.46319
G1 X81.548 Y89.711 E277.48802
G1 X81.698 Y89.659 E277.50386
G1 X82.383 Y89.454 E277.57521
G1 X114.027 Y121.098 E282.04052
G1 X115.441 Y121.098 E282.18161
G1 X83.522 Y89.178 E286.68579
G1 X83.616 Y89.156 E286.69543
G1 X84.651 Y88.999 E286.79988
G1 X84.747 Y88.99 E286.8095
G1 X116.855 Y121.098 E291.34029
G1 X118.269 Y121.098 E291.48138
G1 X86.076 Y88.904 E296.02423
G1 X86.397 Y88.899 E296.05626
G1 X87.486 Y88.9 E296.16492
G1 X119.684 Y121.099 E300.70848
G1 X121.099 Y121.099 E300.84967
G1 X88.9 Y88.9 E305.39329
G1 X90.314 Y88.9 E305.53438
G1 X122.513 Y121.099 E310.07801
G1 X123.927 Y121.099 E310.2191
G1 X91.728 Y88.9 E314.76273
G1 X93.142 Y88.9 E314.90382
G1 X125.341 Y121.099 E319.44744
G1 X126.755 Y121.099 E319.58853
G1 X94.557 Y88.9 E324.13209
G1 X95.971 Y88.9 E324.27318
G1 X128.17 Y121.099 E328.81681
G1 X129.584 Y121.099 E328.95789
G1 X97.385 Y88.9 E333.50152
G1 X98.799 Y88.9 E333.64261
G1 X130.998 Y121.099 E338.18624
G1 X132.412 Y121.099 E338.32733
G1 X100.214 Y88.9 E342.87088
G1 X101.628 Y88.9 E343.01197
G1 X133.827 Y121.099 E347.5556
G1 X135.241 Y121.099 E347.69669
G1 X103.042 Y88.9 E352.24032
G1 X104.456 Y88.9 E352.38141
G1 X136.646 Y121.089 E356.92369
G1 X137.686 Y121.018 E357.0277
G1 X137.95 Y120.98 E357.05432
G1 X105.87 Y88.9 E361.58115
G1 X107.285 Y88.9 E361.72234
G1 X139.164 Y120.779 E366.22081
G1 X139.78 Y120.64 E366.28382
G1 X139.939 Y120.599 E366.30021
G1 X140.292 Y120.493 E366.33698
G1 X108.699 Y88.9 E370.7951
G1 X110.113 Y88.9 E370.93619
G1 X141.347 Y120.133 E375.34357
G1 X141.772 Y119.974 E375.38885
G1 X141.97 Y119.891 E375.41027
G1 X142.343 Y119.716 E375.45138
G1 X111.528 Y88.901 E379.79971
G1 X112.942 Y88.901 E379.9408
G1 X143.276 Y119.235 E384.22125
G1 X143.834 Y118.919 E384.28524
G1 X144.159 Y118.703 E384.32418
G1 X114.356 Y88.901 E388.52963
G1 X115.771 Y88.901 E388.67082
G1 X144.987 Y118.117 E392.79352
G1 X145.434 Y117.772 E392.84986
G1 X145.582 Y117.647 E392.86919
G1 X145.766 Y117.482 E392.89385
G1 X117.185 Y88.901 E396.92693
G1 X118.599 Y88.901 E397.06802
G1 X146.497 Y116.799 E401.00473
G1 X147.084 Y116.184 E401.08956
G1 X147.181 Y116.068 E401.10465
G1 X120.013 Y88.901 E404.93828
G1 X121.427 Y88.901 E405.07937
G1 X147.81 Y115.283 E408.80222
G1 X148.282 Y114.632 E408.88246
G1 X148.392 Y114.467 E408.90225
G1 X148.399 Y114.457 E408.90346
G1 X122.842 Y88.901 E412.50976
G1 X124.256 Y88.901 E412.65085
G1 X148.93 Y113.574 E416.13255
G1 X149.339 Y112.777 E416.22193
G1 X149.405 Y112.635 E416.23756
G1 X125.67 Y88.901 E419.58675
G1 X127.084 Y88.901 E419.72784
G1 X149.823 Y111.639 E422.93649
G1 X149.83 Y111.619 E422.9386
G1 X150.115 Y110.784 E423.02664
G1 X150.162 Y110.628 E423.0429
G1 X150.176 Y110.578 E423.04808
G1 X128.498 Y88.901 E426.10701
G1 X129.913 Y88.901 E426.2482
G1 X150.454 Y109.442 E429.14675
G1 X150.589 Y108.714 E429.22063
G1 X150.614 Y108.544 E429.23778
G1 X150.649 Y108.223 E429.27
G1 X131.327 Y88.901 E431.99654
G1 X132.741 Y88.901 E432.13763
G1 X150.745 Y106.904 E434.67812
G1 X150.761 Y106.49 E434.71946
G1 X150.762 Y105.507 E434.81754
G1 X134.155 Y88.901 E437.1609
G1 X135.57 Y88.901 E437.30209
G1 X150.762 Y104.093 E439.44584
G1 X150.762 Y103.561 E439.49893
G1 X150.754 Y103.054 E439.54952
G1 X150.726 Y102.642 E439.59073
G1 X137.018 Y88.935 E441.525
G1 X137.289 Y88.946 E441.55206
G1 X138.38 Y89.072 E441.66165
G1 X138.614 Y89.117 E441.68542
