;FLAVOR:Marlin
;TIME:5723
;Filament used: 7.45766m
;Layer height: 0.2
;Generated with Cura_SteamEngine 3.6.0
M140 S85
M105
M190 S85
M104 S215
M105
M109 S215
M82 ;absolute extrusion mode
G21 ;metric values
G90 ;absolute positioning
M82 ;set extruder to absolute mode
M107 ;start with the fan off
G28 X0 Y0 ;move X/Y to min endstops
G28 Z0 ;move Z to min endstops
G1 Z15.0 F100 ;move the platform down 15mm
G92 E0 ;zero the extruded length
G1 F200 E3 ;extrude 3mm of feed stock
G92 E0 ;zero the extruded length again
G1 F100
M117 Printing...
G5
G92 E0
G1 F2400 E-6
;LAYER_COUNT:250
;LAYER:-6
M107
M204 S3000
M205 X10 Y10
G0 F6000 X99.118 Y64.407 Z0.36
M204 S1800
M205 X8 Y8
;TYPE:SUPPORT-INTERFACE
G1 F2400 E0
G1 F1125 X99.229 Y64.246 E0.02342
G1 X99.749 Y63.537 E0.12869
G1 X99.877 Y63.375 E0.15341
G1 X100.431 Y62.725 E0.25568
G1 X100.559 Y62.585 E0.27839
G1 X101.183 Y61.954 E0.38465
G1 X101.296 Y61.848 E0.4032
G1 X102.096 Y61.154 E0.53001
G1 X102.963 Y60.507 E0.65954
G1 X103.727 Y60.015 E0.76835
G1 X103.863 Y59.934 E0.7873
G1 X104.65 Y59.505 E0.89462
G1 X104.814 Y59.423 E0.91658
G1 X105.622 Y59.056 E1.02284
G1 X105.778 Y58.992 E1.04303
G1 X106.604 Y58.687 E1.14846
G1 X106.801 Y58.622 E1.1733
G1 X107.633 Y58.383 E1.27695
G1 X107.83 Y58.334 E1.30125
G1 X108.662 Y58.158 E1.40308
G1 X108.878 Y58.121 E1.42932
G1 X109.74 Y58.005 E1.53346
G1 X109.9 Y57.989 E1.55271
G1 X110.82 Y57.933 E1.66308
G1 X111.878 Y57.941 E1.78976
G1 X113.092 Y58.043 E1.93563
G1 X114.145 Y58.216 E2.06341
G1 X115.011 Y58.42 E2.16994
G1 X115.196 Y58.471 E2.19291
G1 X116.036 Y58.734 E2.29831
G1 X117.184 Y59.187 E2.44608
G1 X117.988 Y59.576 E2.55302
G1 X118.166 Y59.67 E2.57712
G1 X118.908 Y60.098 E2.67969
G1 X119.085 Y60.209 E2.70471
G1 X119.934 Y60.791 E2.82795
G1 X120.651 Y61.357 E2.93733
G1 X120.784 Y61.471 E2.95831
G1 X121.43 Y62.063 E3.06322
G1 X121.569 Y62.2 E3.08659
G1 X122.282 Y62.964 E3.21172
G1 X122.856 Y63.67 E3.32067
G1 X123.485 Y64.56 E3.45116
G1 X123.894 Y65.224 E3.54454
G1 X148.861 Y108.468 E9.52345
G1 X149.345 Y109.376 E9.64665
G1 X149.43 Y109.552 E9.67005
G1 X149.783 Y110.355 E9.77508
G1 X149.856 Y110.539 E9.79878
G1 X150.146 Y111.358 E9.90281
G1 X150.198 Y111.522 E9.92341
G1 X150.439 Y112.4 E10.03243
G1 X150.479 Y112.567 E10.05299
G1 X150.646 Y113.415 E10.15648
G1 X150.677 Y113.608 E10.17988
G1 X150.784 Y114.478 E10.28484
G1 X150.8 Y114.666 E10.30743
G1 X150.844 Y115.558 E10.41436
G1 X150.846 Y115.74 E10.43616
G1 X150.815 Y116.79 E10.56194
G1 X150.73 Y117.671 E10.66791
G1 X150.704 Y117.86 E10.69076
G1 X150.518 Y118.909 E10.81832
G1 X150.261 Y119.923 E10.94357
G1 X149.979 Y120.784 E11.05205
G1 X149.919 Y120.946 E11.07274
G1 X149.504 Y121.94 E11.20171
G1 X149.038 Y122.866 E11.32584
G1 X148.571 Y123.652 E11.43531
G1 X148.475 Y123.802 E11.45663
G1 X147.968 Y124.529 E11.56276
G1 X147.871 Y124.658 E11.58208
G1 X147.295 Y125.369 E11.69165
G1 X147.188 Y125.491 E11.71108
G1 X146.585 Y126.133 E11.81654
G1 X146.448 Y126.268 E11.83957
G1 X145.8 Y126.865 E11.94507
G1 X145.664 Y126.981 E11.96647
G1 X144.971 Y127.529 E12.07226
G1 X144.823 Y127.638 E12.09426
G1 X143.955 Y128.224 E12.21966
G1 X143.507 Y128.493 E12.28223
G1 X140.144 Y130.435 E12.74722
G1 X139.224 Y130.926 E12.87209
G1 X139.055 Y131.007 E12.89453
G1 X138.248 Y131.362 E13.00009
G1 X138.09 Y131.425 E13.02046
G1 X137.254 Y131.721 E13.12665
G1 X137.075 Y131.777 E13.1491
G1 X136.211 Y132.014 E13.25638
G1 X136.044 Y132.054 E13.27694
G1 X135.196 Y132.221 E13.38042
G1 X134.997 Y132.253 E13.40456
G1 X134.133 Y132.359 E13.50879
G1 X133.941 Y132.375 E13.53186
G1 X133.054 Y132.419 E13.63819
G1 X132.868 Y132.421 E13.66046
G1 X131.819 Y132.39 E13.78612
G1 X130.766 Y132.282 E13.91287
G1 X129.87 Y132.128 E14.02172
G1 X128.677 Y131.833 E14.16887
G1 X127.818 Y131.551 E14.27713
G1 X126.848 Y131.158 E14.40244
G1 X126.673 Y131.079 E14.42543
G1 X125.869 Y130.68 E14.5329
G1 X124.956 Y130.143 E14.65973
G1 X124.807 Y130.048 E14.68089
G1 X124.077 Y129.539 E14.78744
G1 X123.951 Y129.444 E14.80634
G1 X123.238 Y128.866 E14.91624
G1 X123.12 Y128.763 E14.93499
G1 X122.478 Y128.16 E15.04046
G1 X122.343 Y128.023 E15.06349
G1 X121.745 Y127.374 E15.16915
G1 X121.621 Y127.228 E15.19209
G1 X121.082 Y126.546 E15.29617
G1 X120.967 Y126.39 E15.31938
G1 X120.387 Y125.53 E15.44358
G1 X120.118 Y125.082 E15.50615
G1 X115.92 Y117.812 E16.51134
G1 X115.549 Y117.254 E16.59157
G1 X115.102 Y116.738 E16.67331
G1 X114.594 Y116.282 E16.75505
G1 X114.032 Y115.893 E16.83689
G1 X113.425 Y115.58 E16.91866
G1 X112.785 Y115.345 E17.0003
G1 X112.118 Y115.192 E17.08224
G1 X111.439 Y115.125 E17.16393
G1 X110.756 Y115.145 E17.24575
G1 X110.082 Y115.25 E17.32742
G1 X109.427 Y115.44 E17.40908
G1 X108.799 Y115.71 E17.49093
G1 X108.211 Y116.058 E17.57275
G1 X107.672 Y116.477 E17.65449
G1 X107.191 Y116.961 E17.73619
G1 X106.777 Y117.497 E17.81729
G1 X106.577 Y117.817 E17.86247
G1 X102.349 Y125.138 E18.87474
G1 X101.846 Y125.942 E18.9883
G1 X101.735 Y126.103 E19.01171
G1 X101.215 Y126.812 E19.11699
G1 X101.087 Y126.974 E19.14171
G1 X100.533 Y127.624 E19.24398
G1 X100.415 Y127.753 E19.26491
G1 X99.671 Y128.499 E19.39106
G1 X99.002 Y129.084 E19.49747
G1 X98.834 Y129.22 E19.52335
G1 X98.003 Y129.841 E19.64757
G1 X97.239 Y130.333 E19.75637
G1 X97.092 Y130.421 E19.77689
G1 X96.317 Y130.842 E19.88249
G1 X96.139 Y130.931 E19.90632
G1 X95.348 Y131.29 E20.01033
G1 X95.179 Y131.36 E20.03223
G1 X94.36 Y131.662 E20.13675
G1 X94.163 Y131.727 E20.16159
G1 X93.331 Y131.966 E20.26524
G1 X93.135 Y132.015 E20.28943
G1 X92.302 Y132.191 E20.39137
G1 X92.085 Y132.228 E20.41773
G1 X91.224 Y132.344 E20.52176
G1 X91.064 Y132.36 E20.54101
G1 X90.144 Y132.416 E20.65137
G1 X89.086 Y132.408 E20.77806
G1 X87.872 Y132.306 E20.92393
G1 X86.818 Y132.133 E21.05182
G1 X85.953 Y131.929 E21.15823
G1 X85.768 Y131.878 E21.18121
G1 X84.928 Y131.615 E21.2866
G1 X83.78 Y131.162 E21.43438
G1 X82.823 Y130.695 E21.56188
G1 X82.373 Y130.445 E21.62352
G1 X78.926 Y128.453 E22.10021
G1 X78.118 Y127.946 E22.21443
G1 X77.971 Y127.847 E22.23565
G1 X77.263 Y127.326 E22.3409
G1 X77.101 Y127.198 E22.36562
G1 X76.452 Y126.645 E22.46771
G1 X76.321 Y126.525 E22.48899
G1 X75.684 Y125.896 E22.59618
G1 X75.552 Y125.756 E22.61921
G1 X74.96 Y125.079 E22.7269
G1 X74.874 Y124.972 E22.74333
G1 X74.237 Y124.117 E22.871
G1 X73.656 Y123.207 E23.00027
G1 X73.233 Y122.428 E23.10641
G1 X73.144 Y122.25 E23.13024
G1 X72.785 Y121.459 E23.23425
G1 X72.715 Y121.29 E23.25615
G1 X72.413 Y120.471 E23.36067
G1 X72.348 Y120.274 E23.38551
G1 X72.109 Y119.442 E23.48916
G1 X72.06 Y119.245 E23.51347
G1 X71.882 Y118.402 E23.61663
G1 X71.847 Y118.197 E23.64153
G1 X71.731 Y117.335 E23.74567
G1 X71.715 Y117.173 E23.76517
G1 X71.656 Y116.133 E23.88989
G1 X71.675 Y115.033 E24.02162
G1 X71.77 Y113.978 E24.14846
G1 X71.911 Y113.095 E24.25552
G1 X71.944 Y112.921 E24.27673
G1 X72.189 Y111.905 E24.40187
G1 X72.465 Y111.024 E24.51241
G1 X72.521 Y110.867 E24.53237
G1 X72.918 Y109.881 E24.65964
G1 X73.372 Y108.949 E24.78377
G1 X73.606 Y108.525 E24.84176
G1 X98.633 Y65.181 E30.83463
G1 X99.118 Y64.407 E30.944
M204 S3000
M205 X10 Y10
G0 F6000 X99.2 Y64.288
M204 S1800
M205 X8 Y8
G1 F1125 X99.2 Y128.911 E38.68173
M204 S3000
M205 X10 Y10
G0 F6000 X97.6 Y130.101
M204 S1800
M205 X8 Y8
G1 F1125 X97.6 Y66.97 E46.24081
M204 S3000
M205 X10 Y10
G0 F6000 X96 Y69.741
M204 S1800
M205 X8 Y8
G1 F1125 X96 Y130.995 E53.57515
M204 S3000
M205 X10 Y10
G0 F6000 X94.4 Y131.648
M204 S1800
M205 X8 Y8
G1 F1125 X94.4 Y72.512 E60.65589
M204 S3000
M205 X10 Y10
G0 F6000 X92.8 Y75.283
M204 S1800
M205 X8 Y8
G1 F1125 X92.8 Y132.086 E67.45728
M204 S3000
M205 X10 Y10
G0 F6000 X91.2 Y132.347
M204 S1800
M205 X8 Y8
G1 F1125 X91.2 Y78.054 E73.95813
M204 S3000
M205 X10 Y10
G0 F6000 X89.6 Y80.825
M204 S1800
M205 X8 Y8
G1 F1125 X89.6 Y132.411 E80.13486
M204 S3000
M205 X10 Y10
G0 F6000 X88 Y132.316
M204 S1800
M205 X8 Y8
G1 F1125 X88 Y83.596 E85.96842
M204 S3000
M205 X10 Y10
G0 F6000 X86.4 Y86.367
M204 S1800
M205 X8 Y8
G1 F1125 X86.4 Y132.034 E91.43642
M204 S3000
M205 X10 Y10
G0 F6000 X84.8 Y131.564
M204 S1800
M205 X8 Y8
G1 F1125 X84.8 Y89.138 E96.51636
M204 S3000
M205 X10 Y10
G0 F6000 X83.2 Y91.909
M204 S1800
M205 X8 Y8
G1 F1125 X83.2 Y130.878 E101.18238
M204 S3000
M205 X10 Y10
G0 F6000 X81.6 Y129.998
M204 S1800
M205 X8 Y8
G1 F1125 X81.6 Y94.68 E105.41123
M204 S3000
M205 X10 Y10
G0 F6000 X80 Y97.451
M204 S1800
M205 X8 Y8
G1 F1125 X80 Y129.073 E109.19754
M204 S3000
M205 X10 Y10
G0 F6000 X78.4 Y128.122
M204 S1800
M205 X8 Y8
G1 F1125 X78.4 Y100.222 E112.53818
M204 S3000
M205 X10 Y10
G0 F6000 X76.8 Y102.993
M204 S1800
M205 X8 Y8
G1 F1125 X76.8 Y126.941 E115.40563
M204 S3000
M205 X10 Y10
G0 F6000 X75.2 Y125.353
M204 S1800
M205 X8 Y8
G1 F1125 X75.2 Y105.764 E117.75115
M204 S3000
M205 X10 Y10
G0 F6000 X73.6 Y108.535
M204 S1800
M205 X8 Y8
G1 F1125 X73.6 Y123.103 E119.49547
M204 S3000
M205 X10 Y10
G0 F6000 X72 Y118.96
M204 S1800
M205 X8 Y8
G1 F1125 X72 Y112.688 E120.24646
M204 S3000
M205 X10 Y10
G0 F6000 X100.8 Y127.311
M204 S1800
M205 X8 Y8
G1 F1125 X100.8 Y62.341 E128.02574
M204 S3000
M205 X10 Y10
G0 F6000 X102.4 Y60.927
M204 S1800
M205 X8 Y8
G1 F1125 X102.4 Y125.05 E135.7036
M204 S3000
M205 X10 Y10
G0 F6000 X104 Y122.28
M204 S1800
M205 X8 Y8
G1 F1125 X104 Y59.859 E143.17767
M204 S3000
M205 X10 Y10
G0 F6000 X105.6 Y59.065
M204 S1800
M205 X8 Y8
G1 F1125 X105.6 Y119.509 E150.41503
M204 S3000
M205 X10 Y10
G0 F6000 X107.2 Y116.952
M204 S1800
M205 X8 Y8
G1 F1125 X107.2 Y58.507 E157.41302
M204 S3000
M205 X10 Y10
G0 F6000 X108.8 Y58.134
M204 S1800
M205 X8 Y8
G1 F1125 X108.8 Y115.71 E164.30697
M204 S3000
M205 X10 Y10
G0 F6000 X110.4 Y115.201
M204 S1800
M205 X8 Y8
G1 F1125 X110.4 Y57.958 E171.16105
M204 S3000
M205 X10 Y10
G0 F6000 X112 Y57.952
M204 S1800
M205 X8 Y8
G1 F1125 X112 Y115.18 E178.01333
M204 S3000
M205 X10 Y10
G0 F6000 X113.6 Y115.67
M204 S1800
M205 X8 Y8
G1 F1125 X113.6 Y58.127 E184.90332
M204 S3000
M205 X10 Y10
G0 F6000 X115.2 Y58.473
M204 S1800
M205 X8 Y8
G1 F1125 X115.2 Y116.851 E191.8933
M204 S3000
M205 X10 Y10
G0 F6000 X116.8 Y119.335
M204 S1800
M205 X8 Y8
G1 F1125 X116.8 Y59.036 E199.11329
M204 S3000
M205 X10 Y10
G0 F6000 X118.4 Y59.805
M204 S1800
M205 X8 Y8
G1 F1125 X118.4 Y122.106 E206.57299
M204 S3000
M205 X10 Y10
G0 F6000 X120 Y124.877
M204 S1800
M205 X8 Y8
G1 F1125 X120 Y60.844 E214.24008
M204 S3000
M205 X10 Y10
G0 F6000 X121.6 Y62.234
M204 S1800
M205 X8 Y8
G1 F1125 X121.6 Y127.201 E222.019
M204 S3000
M205 X10 Y10
G0 F6000 X123.2 Y128.832
M204 S1800
M205 X8 Y8
G1 F1125 X123.2 Y64.157 E229.76296
M204 S3000
M205 X10 Y10
G0 F6000 X124.8 Y66.794
M204 S1800
M205 X8 Y8
G1 F1125 X124.8 Y130.043 E237.33617
M204 S3000
M205 X10 Y10
G0 F6000 X126.4 Y130.943
M204 S1800
M205 X8 Y8
G1 F1125 X126.4 Y69.565 E244.68536
M204 S3000
M205 X10 Y10
G0 F6000 X128 Y72.336
M204 S1800
M205 X8 Y8
G1 F1125 X128 Y131.61 E251.78262
M204 S3000
M205 X10 Y10
G0 F6000 X129.6 Y132.061
M204 S1800
M205 X8 Y8
G1 F1125 X129.6 Y75.108 E258.60197
M204 S3000
M205 X10 Y10
G0 F6000 X131.2 Y77.879
M204 S1800
M205 X8 Y8
G1 F1125 X131.2 Y132.326 E265.12126
M204 S3000
M205 X10 Y10
G0 F6000 X132.8 Y132.418
M204 S1800
M205 X8 Y8
G1 F1125 X132.8 Y80.65 E271.31978
M204 S3000
M205 X10 Y10
G0 F6000 X134.4 Y83.421
M204 S1800
M205 X8 Y8
G1 F1125 X134.4 Y132.327 E277.17561
M204 S3000
M205 X10 Y10
G0 F6000 X136 Y132.063
M204 S1800
M205 X8 Y8
G1 F1125 X136 Y86.193 E282.66793
M204 S3000
M205 X10 Y10
G0 F6000 X137.6 Y88.964
M204 S1800
M205 X8 Y8
G1 F1125 X137.6 Y131.599 E287.77289
M204 S3000
M205 X10 Y10
G0 F6000 X139.2 Y130.938
M204 S1800
M205 X8 Y8
G1 F1125 X139.2 Y91.735 E292.46692
M204 S3000
M205 X10 Y10
G0 F6000 X140.8 Y94.506
M204 S1800
M205 X8 Y8
G1 F1125 X140.8 Y130.057 E296.72367
M204 S3000
M205 X10 Y10
G0 F6000 X142.4 Y129.133
M204 S1800
M205 X8 Y8
G1 F1125 X142.4 Y97.278 E300.53788
M204 S3000
M205 X10 Y10
G0 F6000 X144 Y100.049
M204 S1800
M205 X8 Y8
G1 F1125 X144 Y128.194 E303.90786
M204 S3000
M205 X10 Y10
G0 F6000 X145.6 Y127.032
M204 S1800
M205 X8 Y8
G1 F1125 X145.6 Y102.82 E306.80692
M204 S3000
M205 X10 Y10
G0 F6000 X147.2 Y105.592
M204 S1800
M205 X8 Y8
G1 F1125 X147.2 Y125.478 E309.188
M204 S3000
M205 X10 Y10
G0 F6000 X148.8 Y123.267
M204 S1800
M205 X8 Y8
G1 F1125 X148.8 Y108.363 E310.97255
M204 S3000
M205 X10 Y10
G0 F6000 X150.4 Y112.258
M204 S1800
M205 X8 Y8
G1 F1125 X150.4 Y119.375 E311.82472
M204 S3000
M205 X10 Y10
G0 F6000 X117.16 Y59.177
;TIME_ELAPSED:151.233735
;LAYER:-5
M140 S85
G0 X117.16 Y59.177 Z0.66
M204 S1800
M205 X8 Y8
;TYPE:SUPPORT
G1 F1125 X116.035 Y58.734 E311.94536
G1 X115.195 Y58.471 E312.03319
G1 X115.01 Y58.42 E312.05234
G1 X114.982 Y58.414 E312.05519
G1 X126.762 Y70.193 E313.71741
G1 X128.694 Y73.539 E314.10293
G1 X113.218 Y58.064 E316.28669
G1 X113.091 Y58.042 E316.29955
G1 X111.877 Y57.941 E316.4211
G1 X111.679 Y57.939 E316.44086
G1 X130.626 Y76.886 E319.11449
G1 X132.558 Y80.232 E319.50001
G1 X110.291 Y57.965 E322.64213
G1 X109.899 Y57.989 E322.68131
G1 X109.739 Y58.004 E322.69735
G1 X109.014 Y58.102 E322.77035
G1 X134.49 Y83.578 E326.36529
G1 X136.422 Y86.925 E326.7509
G1 X107.831 Y58.334 E330.7854
M204 S3000
M205 X10 Y10
G0 F6000 X107.828 Y58.334
M204 S1800
M205 X8 Y8
G1 F1125 X107.632 Y58.382 E330.80553
G1 X106.799 Y58.621 E330.892
G1 X106.729 Y58.646 E330.89942
G1 X138.354 Y90.271 E335.36205
G1 X140.286 Y93.617 E335.74757
G1 X105.694 Y59.025 E340.62887
G1 X105.621 Y59.055 E340.63675
G1 X104.813 Y59.423 E340.72534
G1 X104.723 Y59.468 E340.73538
G1 X142.218 Y96.964 E346.0264
G1 X144.15 Y100.31 E346.41192
G1 X103.807 Y59.966 E352.10483
G1 X103.726 Y60.014 E352.11422
G1 X102.961 Y60.507 E352.20503
G1 X102.946 Y60.519 E352.20695
G1 X146.082 Y103.656 E358.29398
G1 X148.015 Y107.002 E358.67955
G1 X102.136 Y61.124 E365.1535
G1 X102.095 Y61.154 E365.15857
G1 X101.376 Y61.778 E365.25356
G1 X149.648 Y110.05 E372.06526
G1 X149.782 Y110.355 E372.0985
G1 X149.855 Y110.539 E372.11826
G1 X150.145 Y111.358 E372.20495
G1 X150.197 Y111.521 E372.22202
G1 X150.383 Y112.2 E372.29227
G1 X100.663 Y62.479 E379.30837
G1 X100.558 Y62.585 E379.32325
G1 X100.43 Y62.724 E379.34211
G1 X99.999 Y63.229 E379.40835
G1 X150.718 Y113.948 E386.56535
G1 X150.783 Y114.477 E386.61853
G1 X150.799 Y114.665 E386.63736
G1 X150.839 Y115.483 E386.71908
G1 X99.385 Y64.03 E393.97972
G1 X99.228 Y64.246 E394.00637
G1 X99.117 Y64.406 E394.0258
G1 X98.82 Y64.879 E394.08153
G1 X150.807 Y116.866 E401.41745
G1 X150.729 Y117.671 E401.49815
G1 X150.703 Y117.859 E401.51709
G1 X150.656 Y118.129 E401.54444
G1 X98.293 Y65.766 E408.93342
G1 X97.775 Y66.663 E409.03678
G1 X150.417 Y119.304 E416.46506
G1 X150.26 Y119.922 E416.52868
G1 X150.103 Y120.404 E416.57926
G1 X97.258 Y67.559 E424.03626
G1 X96.74 Y68.456 E424.13962
G1 X149.715 Y121.431 E431.61496
G1 X149.502 Y121.939 E431.66993
G1 X149.271 Y122.401 E431.72147
G1 X96.222 Y69.352 E439.20725
G1 X95.704 Y70.248 E439.31052
G1 X148.771 Y123.315 E446.79885
G1 X148.57 Y123.651 E446.83792
G1 X148.474 Y123.801 E446.85569
G1 X148.215 Y124.173 E446.90092
G1 X95.187 Y71.145 E454.38374
G1 X94.669 Y72.042 E454.48709
G1 X147.609 Y124.981 E461.95743
G1 X147.294 Y125.368 E462.00722
G1 X147.187 Y125.49 E462.02341
G1 X146.953 Y125.74 E462.05758
G1 X94.151 Y72.938 E469.50851
G1 X93.634 Y73.835 E469.61182
G1 X146.248 Y126.449 E477.03622
G1 X145.799 Y126.864 E477.09723
G1 X145.663 Y126.981 E477.11513
G1 X145.497 Y127.112 E477.13623
G1 X93.116 Y74.731 E484.52775
G1 X92.599 Y75.628 E484.63106
G1 X144.694 Y127.723 E491.98223
G1 X143.954 Y128.223 E492.07134
G1 X143.845 Y128.288 E492.084
G1 X92.081 Y76.525 E499.38839
G1 X91.563 Y77.421 E499.49166
G1 X142.953 Y128.811 E506.74334
G1 X142.057 Y129.329 E506.84661
G1 X91.046 Y78.318 E514.04481
G1 X90.528 Y79.215 E514.14817
G1 X141.161 Y129.847 E521.29296
G1 X140.264 Y130.365 E521.39632
G1 X90.011 Y80.111 E528.48763
G1 X89.493 Y81.008 E528.59098
G1 X139.345 Y130.86 E535.62564
G1 X139.222 Y130.925 E535.63952
G1 X139.053 Y131.007 E535.65826
G1 X138.375 Y131.304 E535.73212
G1 X88.975 Y81.904 E542.703
G1 X88.457 Y82.8 E542.80626
G1 X137.344 Y131.688 E549.70482
G1 X137.253 Y131.721 E549.71448
G1 X137.074 Y131.777 E549.73319
G1 X136.246 Y132.003 E549.81883
G1 X87.94 Y83.697 E556.63533
