;FLAVOR:Marlin
;TIME:3240
;Filament used: 2.46064m
;Layer height: 0.2
;Generated with Cura_SteamEngine 3.6.0
M140 S60
M105
M190 S60
M104 S200
M105
M109 S200
M82 ;absolute extrusion mode
G21 ;metric values
G90 ;absolute positioning
M82 ;set extruder to absolute mode
M107 ;start with the fan off
G28 X0 Y0 ;move X/Y to min endstops
G28 Z0 ;move Z to min endstops
G1 Z15.0 F100 ;move the platform down 15mm
G92 E0 ;zero the extruded length
G1 F200 E3 ;extrude 3mm of feed stock
G92 E0 ;zero the extruded length again
G1 F100
M117 Printing...
G5
G92 E0
G1 F2400 E-6
;LAYER_COUNT:500
;LAYER:-6
M107
M204 S3000
M205 X10 Y10
G0 F6000 X71.426 Y92.787 Z0.36
M204 S1800
M205 X8 Y8
;TYPE:SUPPORT-INTERFACE
G1 F2400 E0
G1 F1125 X71.585 Y92.674 E0.02336
G1 X72.323 Y92.184 E0.12943
G1 X73.243 Y91.662 E0.25608
G1 X73.393 Y91.584 E0.27632
G1 X74.208 Y91.201 E0.38415
G1 X75.21 Y90.812 E0.51285
G1 X75.36 Y90.76 E0.53186
G1 X76.21 Y90.505 E0.63811
G1 X76.383 Y90.458 E0.65958
G1 X77.278 Y90.258 E0.76939
G1 X78.313 Y90.101 E0.89473
G1 X78.482 Y90.083 E0.91508
G1 X79.555 Y90.008 E1.04387
G1 X80.06 Y90 E1.10435
G1 X130.003 Y90.001 E7.08435
G1 X131.127 Y90.046 E7.21904
G1 X132.219 Y90.173 E7.35067
G1 X133.231 Y90.365 E7.47401
G1 X134.125 Y90.599 E7.58466
G1 X135.13 Y90.935 E7.71154
G1 X135.296 Y90.998 E7.7328
G1 X136.099 Y91.339 E7.83726
G1 X136.288 Y91.427 E7.86222
G1 X137.082 Y91.836 E7.96916
G1 X137.199 Y91.901 E7.98519
G1 X137.978 Y92.376 E8.09444
G1 X138.129 Y92.476 E8.11612
G1 X138.991 Y93.1 E8.24354
G1 X139.682 Y93.676 E8.35125
G1 X139.795 Y93.777 E8.3694
G1 X140.444 Y94.402 E8.47728
G1 X140.564 Y94.527 E8.49803
G1 X141.167 Y95.198 E8.60605
G1 X141.822 Y96.038 E8.73359
G1 X141.916 Y96.169 E8.7529
G1 X142.416 Y96.923 E8.86122
G1 X142.938 Y97.843 E8.98788
G1 X143.016 Y97.993 E9.00812
G1 X143.399 Y98.808 E9.11595
G1 X143.788 Y99.81 E9.24465
G1 X143.84 Y99.96 E9.26366
G1 X144.095 Y100.81 E9.36991
G1 X144.142 Y100.983 E9.39138
G1 X144.34 Y101.869 E9.50008
G1 X144.498 Y102.907 E9.6258
G1 X144.516 Y103.069 E9.64532
G1 X144.592 Y104.155 E9.77567
G1 X144.6 Y104.656 E9.83566
G1 X144.6 Y105.386 E9.92307
G1 X144.554 Y106.527 E10.0598
G1 X144.427 Y107.619 E10.19143
G1 X144.235 Y108.631 E10.31477
G1 X144.004 Y109.516 E10.42429
G1 X143.952 Y109.688 E10.4458
G1 X143.676 Y110.5 E10.54849
G1 X143.596 Y110.709 E10.57529
G1 X143.18 Y111.674 E10.70111
G1 X142.699 Y112.599 E10.82595
G1 X142.224 Y113.378 E10.93519
G1 X142.124 Y113.529 E10.95688
G1 X141.5 Y114.391 E11.0843
G1 X140.924 Y115.082 E11.19201
G1 X140.823 Y115.195 E11.21016
G1 X140.198 Y115.844 E11.31804
G1 X140.073 Y115.964 E11.33879
G1 X139.403 Y116.566 E11.44664
G1 X138.574 Y117.213 E11.57255
G1 X138.415 Y117.326 E11.59591
G1 X137.677 Y117.816 E11.70198
G1 X136.757 Y118.338 E11.82863
G1 X136.606 Y118.416 E11.84898
G1 X135.792 Y118.799 E11.9567
G1 X134.79 Y119.188 E12.0854
G1 X134.64 Y119.24 E12.10441
G1 X133.79 Y119.495 E12.21066
G1 X133.617 Y119.542 E12.23213
G1 X132.722 Y119.742 E12.34194
G1 X131.687 Y119.899 E12.46728
G1 X131.519 Y119.917 E12.48751
G1 X130.445 Y119.992 E12.61642
G1 X129.94 Y120 E12.6769
G1 X79.997 Y119.999 E18.6569
G1 X78.873 Y119.954 E18.79159
G1 X77.781 Y119.827 E18.92322
G1 X76.769 Y119.635 E19.04656
G1 X75.875 Y119.401 E19.15721
G1 X74.87 Y119.065 E19.28409
G1 X74.704 Y119.002 E19.30535
G1 X73.901 Y118.661 E19.40981
G1 X73.712 Y118.573 E19.43477
G1 X72.918 Y118.164 E19.54171
G1 X72.801 Y118.099 E19.55774
G1 X72.022 Y117.624 E19.66699
G1 X71.871 Y117.524 E19.68867
G1 X71.009 Y116.9 E19.81609
G1 X70.318 Y116.324 E19.9238
G1 X70.205 Y116.223 E19.94195
G1 X69.556 Y115.598 E20.04983
G1 X69.436 Y115.473 E20.07058
G1 X68.833 Y114.802 E20.1786
G1 X68.178 Y113.962 E20.30614
G1 X67.581 Y113.072 E20.43446
G1 X67.056 Y112.146 E20.56192
G1 X66.984 Y112.007 E20.58066
G1 X66.587 Y111.161 E20.69256
G1 X66.212 Y110.19 E20.81719
G1 X66.155 Y110.025 E20.83809
G1 X65.905 Y109.19 E20.94246
G1 X65.858 Y109.017 E20.96392
G1 X65.657 Y108.116 E21.07446
G1 X65.5 Y107.078 E21.20016
G1 X65.483 Y106.918 E21.21942
G1 X65.408 Y105.845 E21.34822
G1 X65.4 Y105.344 E21.40821
G1 X65.4 Y104.614 E21.49562
G1 X65.446 Y103.473 E21.63235
G1 X65.573 Y102.381 E21.76398
G1 X65.765 Y101.369 E21.88732
G1 X65.996 Y100.484 E21.99683
G1 X66.048 Y100.312 E22.01835
G1 X66.334 Y99.47 E22.12482
G1 X66.398 Y99.304 E22.14613
G1 X66.739 Y98.501 E22.25059
G1 X66.82 Y98.326 E22.27368
G1 X67.236 Y97.518 E22.38249
G1 X67.301 Y97.401 E22.39852
G1 X67.776 Y96.622 E22.50777
G1 X67.876 Y96.471 E22.52945
G1 X68.5 Y95.609 E22.65687
G1 X69.076 Y94.918 E22.76458
G1 X69.177 Y94.805 E22.78273
G1 X69.802 Y94.156 E22.89061
G1 X69.927 Y94.036 E22.91136
G1 X70.598 Y93.433 E23.01938
G1 X71.426 Y92.787 E23.14513
M204 S3000
M205 X10 Y10
G0 F6000 X72 Y92.398
M204 S1800
M205 X8 Y8
G1 F1125 X72 Y117.609 E26.1638
M204 S3000
M205 X10 Y10
G0 F6000 X70.4 Y116.392
M204 S1800
M205 X8 Y8
G1 F1125 X70.4 Y93.61 E28.89164
M204 S3000
M205 X10 Y10
G0 F6000 X68.8 Y95.249
M204 S1800
M205 X8 Y8
G1 F1125 X68.8 Y114.759 E31.2277
M204 S3000
M205 X10 Y10
G0 F6000 X67.2 Y112.399
M204 S1800
M205 X8 Y8
G1 F1125 X67.2 Y97.587 E33.00123
M204 S3000
M205 X10 Y10
G0 F6000 X65.6 Y102.238
M204 S1800
M205 X8 Y8
G1 F1125 X65.6 Y107.739 E33.6599
M204 S3000
M205 X10 Y10
G0 F6000 X73.6 Y118.515
M204 S1800
M205 X8 Y8
G1 F1125 X73.6 Y91.486 E36.89626
M204 S3000
M205 X10 Y10
G0 F6000 X75.2 Y90.815
M204 S1800
M205 X8 Y8
G1 F1125 X75.2 Y119.175 E40.29199
M204 S3000
M205 X10 Y10
G0 F6000 X76.8 Y119.64
M204 S1800
M205 X8 Y8
G1 F1125 X76.8 Y90.364 E43.79739
M204 S3000
M205 X10 Y10
G0 F6000 X78.4 Y90.091
M204 S1800
M205 X8 Y8
G1 F1125 X78.4 Y119.898 E47.36638
M204 S3000
M205 X10 Y10
G0 F6000 X80 Y119.999
M204 S1800
M205 X8 Y8
G1 F1125 X80 Y90 E50.95835
M204 S3000
M205 X10 Y10
G0 F6000 X81.6 Y90.001
M204 S1800
M205 X8 Y8
G1 F1125 X81.6 Y119.999 E54.55021
M204 S3000
M205 X10 Y10
G0 F6000 X83.2 Y119.999
M204 S1800
M205 X8 Y8
G1 F1125 X83.2 Y90.001 E58.14206
M204 S3000
M205 X10 Y10
G0 F6000 X84.8 Y90.001
M204 S1800
M205 X8 Y8
G1 F1125 X84.8 Y119.999 E61.73392
M204 S3000
M205 X10 Y10
G0 F6000 X86.4 Y119.999
M204 S1800
M205 X8 Y8
G1 F1125 X86.4 Y90.001 E65.32578
M204 S3000
M205 X10 Y10
G0 F6000 X88 Y90.001
M204 S1800
M205 X8 Y8
G1 F1125 X88 Y119.999 E68.91763
M204 S3000
M205 X10 Y10
G0 F6000 X89.6 Y119.999
M204 S1800
M205 X8 Y8
G1 F1125 X89.6 Y90.001 E72.50949
M204 S3000
M205 X10 Y10
G0 F6000 X91.2 Y90.001
M204 S1800
M205 X8 Y8
G1 F1125 X91.2 Y119.999 E76.10134
M204 S3000
M205 X10 Y10
G0 F6000 X92.8 Y119.999
M204 S1800
M205 X8 Y8
G1 F1125 X92.8 Y90.001 E79.6932
M204 S3000
M205 X10 Y10
G0 F6000 X94.4 Y90.001
M204 S1800
M205 X8 Y8
G1 F1125 X94.4 Y119.999 E83.28505
M204 S3000
M205 X10 Y10
G0 F6000 X96 Y119.999
M204 S1800
M205 X8 Y8
G1 F1125 X96 Y90.001 E86.87691
M204 S3000
M205 X10 Y10
G0 F6000 X97.6 Y90.001
M204 S1800
M205 X8 Y8
G1 F1125 X97.6 Y119.999 E90.46876
M204 S3000
M205 X10 Y10
G0 F6000 X99.2 Y119.999
M204 S1800
M205 X8 Y8
G1 F1125 X99.2 Y90.001 E94.06062
M204 S3000
M205 X10 Y10
G0 F6000 X100.8 Y90.001
M204 S1800
M205 X8 Y8
G1 F1125 X100.8 Y119.999 E97.65247
M204 S3000
M205 X10 Y10
G0 F6000 X102.4 Y119.999
M204 S1800
M205 X8 Y8
G1 F1125 X102.4 Y90.001 E101.24433
M204 S3000
M205 X10 Y10
G0 F6000 X104 Y90.001
M204 S1800
M205 X8 Y8
G1 F1125 X104 Y119.999 E104.83618
M204 S3000
M205 X10 Y10
G0 F6000 X105.6 Y119.999
M204 S1800
M205 X8 Y8
G1 F1125 X105.6 Y90.001 E108.42804
M204 S3000
M205 X10 Y10
G0 F6000 X107.2 Y90.001
M204 S1800
M205 X8 Y8
G1 F1125 X107.2 Y119.999 E112.01989
M204 S3000
M205 X10 Y10
G0 F6000 X108.8 Y119.999
M204 S1800
M205 X8 Y8
G1 F1125 X108.8 Y90.001 E115.61175
M204 S3000
M205 X10 Y10
G0 F6000 X110.4 Y90.001
M204 S1800
M205 X8 Y8
G1 F1125 X110.4 Y119.999 E119.2036
M204 S3000
M205 X10 Y10
G0 F6000 X112 Y119.999
M204 S1800
M205 X8 Y8
G1 F1125 X112 Y90.001 E122.79546
M204 S3000
M205 X10 Y10
G0 F6000 X113.6 Y90.001
M204 S1800
M205 X8 Y8
G1 F1125 X113.6 Y119.999 E126.38731
M204 S3000
M205 X10 Y10
G0 F6000 X115.2 Y119.999
M204 S1800
M205 X8 Y8
G1 F1125 X115.2 Y90.001 E129.97917
M204 S3000
M205 X10 Y10
G0 F6000 X116.8 Y90.001
M204 S1800
M205 X8 Y8
G1 F1125 X116.8 Y119.999 E133.57102
M204 S3000
M205 X10 Y10
G0 F6000 X118.4 Y119.999
M204 S1800
M205 X8 Y8
G1 F1125 X118.4 Y90.001 E137.16288
M204 S3000
M205 X10 Y10
G0 F6000 X120 Y90.001
M204 S1800
M205 X8 Y8
G1 F1125 X120 Y119.999 E140.75473
M204 S3000
M205 X10 Y10
G0 F6000 X121.6 Y119.999
M204 S1800
M205 X8 Y8
G1 F1125 X121.6 Y90.001 E144.34659
M204 S3000
M205 X10 Y10
G0 F6000 X123.2 Y90.001
M204 S1800
M205 X8 Y8
G1 F1125 X123.2 Y119.999 E147.93844
M204 S3000
M205 X10 Y10
G0 F6000 X124.8 Y119.999
M204 S1800
M205 X8 Y8
G1 F1125 X124.8 Y90.001 E151.5303
M204 S3000
M205 X10 Y10
G0 F6000 X126.4 Y90.001
M204 S1800
M205 X8 Y8
G1 F1125 X126.4 Y119.999 E155.12215
M204 S3000
M205 X10 Y10
G0 F6000 X128 Y119.999
M204 S1800
M205 X8 Y8
G1 F1125 X128 Y90.001 E158.71401
M204 S3000
M205 X10 Y10
G0 F6000 X129.6 Y90.001
M204 S1800
M205 X8 Y8
G1 F1125 X129.6 Y119.999 E162.30586
M204 S3000
M205 X10 Y10
G0 F6000 X131.2 Y119.94
M204 S1800
M205 X8 Y8
G1 F1125 X131.2 Y90.055 E165.88419
M204 S3000
M205 X10 Y10
G0 F6000 X132.8 Y90.284
M204 S1800
M205 X8 Y8
G1 F1125 X132.8 Y119.725 E169.40935
M204 S3000
M205 X10 Y10
G0 F6000 X134.4 Y119.312
M204 S1800
M205 X8 Y8
G1 F1125 X134.4 Y90.691 E172.83633
M204 S3000
M205 X10 Y10
G0 F6000 X136 Y91.297
M204 S1800
M205 X8 Y8
G1 F1125 X136 Y118.702 E176.11771
M204 S3000
M205 X10 Y10
G0 F6000 X137.6 Y117.86
M204 S1800
M205 X8 Y8
G1 F1125 X137.6 Y92.146 E179.19661
M204 S3000
M205 X10 Y10
G0 F6000 X139.2 Y93.275
M204 S1800
M205 X8 Y8
G1 F1125 X139.2 Y116.725 E182.00443
M204 S3000
M205 X10 Y10
G0 F6000 X140.8 Y115.219
M204 S1800
M205 X8 Y8
G1 F1125 X140.8 Y94.79 E184.45053
M204 S3000
M205 X10 Y10
G0 F6000 X142.4 Y96.899
M204 S1800
M205 X8 Y8
G1 F1125 X142.4 Y113.09 E186.38918
M204 S3000
M205 X10 Y10
G0 F6000 X144 Y109.53
M204 S1800
M205 X8 Y8
G1 F1125 X144 Y100.494 E187.47112
M204 S3000
M205 X10 Y10
G0 F6000 X67.581 Y113.07
;TIME_ELAPSED:95.355637
;LAYER:-5
M140 S60
G0 X67.581 Y113.07 Z0.66
M204 S1800
M205 X8 Y8
;TYPE:SUPPORT
G1 F1125 X68.177 Y113.961 E187.57808
G1 X68.833 Y114.8 E187.68435
G1 X69.435 Y115.472 E187.77437
G1 X69.555 Y115.597 E187.79166
G1 X70.205 Y116.222 E187.88164
G1 X70.317 Y116.323 E187.89668
G1 X71.009 Y116.898 E187.98646
G1 X71.871 Y117.523 E188.0927
G1 X72.021 Y117.622 E188.11063
G1 X72.8 Y118.098 E188.20172
G1 X72.895 Y118.15 E188.21253
G1 X67.272 Y112.527 E189.006
G1 X67.055 Y112.145 E189.04983
G1 X66.983 Y112.006 E189.06545
G1 X66.586 Y111.16 E189.1587
G1 X66.212 Y110.189 E189.26252
G1 X66.155 Y110.024 E189.27994
G1 X66.142 Y109.983 E189.28423
G1 X75.4 Y119.241 E190.59064
G1 X75.874 Y119.399 E190.64049
G1 X76.769 Y119.633 E190.7328
G1 X77.31 Y119.736 E190.78775
G1 X65.65 Y108.077 E192.43303
G1 X65.5 Y107.077 E192.53393
G1 X65.483 Y106.916 E192.55008
G1 X65.451 Y106.463 E192.59539
G1 X78.943 Y119.955 E194.49926
G1 X79.997 Y119.998 E194.60452
G1 X80.4 Y119.998 E194.64473
G1 X65.4 Y104.998 E196.76139
G1 X65.4 Y104.613 E196.79981
G1 X65.439 Y103.622 E196.89876
G1 X81.814 Y119.998 E199.20952
G1 X83.228 Y119.998 E199.35061
G1 X65.578 Y102.348 E201.84122
G1 X65.765 Y101.367 E201.94087
G1 X65.816 Y101.171 E201.96107
G1 X84.642 Y119.998 E204.6177
G1 X86.057 Y119.998 E204.75889
G1 X66.129 Y100.07 E207.57094
G1 X66.334 Y99.469 E207.6343
G1 X66.398 Y99.303 E207.65205
G1 X66.51 Y99.037 E207.68085
G1 X87.471 Y119.998 E210.63868
G1 X88.885 Y119.998 E210.77977
G1 X66.953 Y98.065 E213.87468
G1 X67.235 Y97.517 E213.93617
G1 X67.301 Y97.399 E213.94966
G1 X67.452 Y97.15 E213.97872
G1 X90.299 Y119.998 E217.20275
G1 X91.713 Y119.998 E217.34384
G1 X68.005 Y96.289 E220.68937
G1 X68.5 Y95.607 E220.77345
G1 X68.607 Y95.477 E220.79025
G1 X93.128 Y119.998 E224.25043
G1 X94.542 Y119.998 E224.39152
G1 X69.26 Y94.716 E227.95908
G1 X69.802 Y94.154 E228.03699
G1 X69.927 Y94.035 E228.05421
G1 X69.962 Y94.004 E228.05887
G1 X95.956 Y119.998 E231.72691
G1 X97.371 Y119.998 E231.8681
G1 X70.714 Y93.342 E235.62962
G1 X71.426 Y92.786 E235.71976
G1 X71.512 Y92.725 E235.73028
G1 X98.785 Y119.998 E239.57879
G1 X100.199 Y119.998 E239.71988
G1 X72.362 Y92.161 E243.64798
G1 X73.242 Y91.661 E243.74897
G1 X73.265 Y91.65 E243.75152
G1 X101.614 Y119.998 E247.7518
G1 X103.028 Y119.998 E247.89289
G1 X74.223 Y91.194 E251.95751
G1 X75.209 Y90.811 E252.06306
G1 X75.243 Y90.8 E252.06662
G1 X104.442 Y119.998 E256.18685
G1 X105.856 Y119.998 E256.32794
G1 X76.33 Y90.472 E260.49437
G1 X76.383 Y90.457 E260.49987
G1 X77.277 Y90.257 E260.59128
G1 X77.496 Y90.224 E260.61338
G1 X107.27 Y119.998 E264.81481
G1 X108.685 Y119.998 E264.956
G1 X78.75 Y90.064 E269.18008
G1 X79.555 Y90.007 E269.2606
G1 X80.06 Y89.999 E269.311
G1 X80.1 Y89.999 E269.31499
G1 X110.099 Y119.998 E273.54817
G1 X111.513 Y119.998 E273.68926
G1 X81.514 Y89.999 E277.92245
G1 X82.928 Y89.999 E278.06354
G1 X112.927 Y119.998 E282.29672
G1 X114.342 Y119.999 E282.43791
G1 X84.342 Y89.999 E286.67123
G1 X85.757 Y89.999 E286.81242
G1 X115.756 Y119.999 E291.04568
G1 X117.171 Y119.999 E291.18686
G1 X87.171 Y89.999 E295.42019
G1 X88.585 Y89.999 E295.56128
G1 X118.585 Y119.999 E299.7946
G1 X119.999 Y119.999 E299.93569
G1 X89.999 Y89.999 E304.16902
G1 X91.414 Y89.999 E304.3102
G1 X121.413 Y119.999 E308.54346
G1 X122.827 Y119.999 E308.68455
G1 X92.828 Y89.999 E312.9178
G1 X94.242 Y89.999 E313.05889
G1 X124.242 Y119.999 E317.29221
G1 X125.656 Y119.999 E317.4333
G1 X95.656 Y89.999 E321.66663
G1 X97.071 Y90 E321.80782
G1 X127.07 Y119.999 E326.041
G1 X128.484 Y119.999 E326.18209
G1 X98.485 Y90 E330.41527
G1 X99.9 Y90 E330.55646
G1 X129.899 Y119.999 E334.78965
G1 X129.939 Y120 E334.79364
G1 X130.444 Y119.991 E334.84404
G1 X131.249 Y119.935 E334.92455
G1 X101.314 Y90 E339.1487
G1 X102.728 Y90 E339.28979
G1 X132.502 Y119.774 E343.49123
G1 X132.721 Y119.742 E343.51331
G1 X133.616 Y119.542 E343.60482
G1 X133.669 Y119.527 E343.61031
G1 X104.142 Y90 E347.77689
G1 X105.556 Y90 E347.91798
G1 X134.755 Y119.199 E352.03828
G1 X134.789 Y119.187 E352.04187
G1 X135.775 Y118.805 E352.14738
G1 X106.971 Y90 E356.21201
G1 X108.385 Y90 E356.3531
G1 X136.733 Y118.349 E360.35338
G1 X136.756 Y118.337 E360.35597
G1 X137.636 Y117.837 E360.45696
G1 X109.799 Y90 E364.38506
G1 X111.213 Y90 E364.52615
G1 X138.486 Y117.273 E368.37466
G1 X138.573 Y117.212 E368.38526
G1 X139.284 Y116.657 E368.47526
G1 X112.627 Y90 E372.23685
G1 X114.042 Y90.001 E372.37804
G1 X140.036 Y115.995 E376.04608
G1 X140.072 Y115.964 E376.05082
G1 X140.197 Y115.844 E376.06811
G1 X140.738 Y115.283 E376.14587
G1 X115.457 Y90.001 E379.71336
G1 X116.871 Y90.001 E379.85445
G1 X141.391 Y114.521 E383.31449
G1 X141.499 Y114.391 E383.33135
G1 X141.993 Y113.709 E383.41538
G1 X118.285 Y90.001 E386.76084
G1 X119.699 Y90.001 E386.90193
G1 X142.546 Y112.847 E390.12581
G1 X142.697 Y112.598 E390.15487
G1 X143.044 Y111.932 E390.2298
G1 X121.113 Y90.001 E393.3245
G1 X122.528 Y90.001 E393.46569
G1 X143.486 Y110.959 E396.42309
G1 X143.595 Y110.708 E396.4504
G1 X143.674 Y110.5 E396.4726
G1 X143.87 Y109.928 E396.53293
G1 X123.942 Y90.001 E399.34492
G1 X125.356 Y90.001 E399.48601
G1 X144.183 Y108.827 E402.14263
G1 X144.234 Y108.631 E402.16284
G1 X144.42 Y107.651 E402.26237
G1 X126.77 Y90.001 E404.75297
G1 X128.185 Y90.001 E404.89416
G1 X144.56 Y106.376 E407.20485
G1 X144.599 Y105.385 E407.30381
G1 X144.599 Y105.001 E407.34213
G1 X129.599 Y90.001 E409.45879
G1 X130.002 Y90.001 E409.499
G1 X131.055 Y90.043 E409.60415
G1 X144.548 Y103.536 E411.50816
G1 X144.515 Y103.069 E411.55487
G1 X144.497 Y102.906 E411.57124
G1 X144.348 Y101.921 E411.67064
G1 X132.688 Y90.262 E413.31592
G1 X133.23 Y90.365 E413.37097
G1 X134.124 Y90.598 E413.46315
G1 X134.598 Y90.757 E413.51304
G1 X143.855 Y100.015 E414.81937
G1 X143.838 Y99.96 E414.82512
G1 X143.787 Y99.809 E414.84102
G1 X143.398 Y98.808 E414.94818
G1 X143.015 Y97.992 E415.03812
G1 X142.936 Y97.843 E415.05495
G1 X142.726 Y97.471 E415.09757
G1 X137.103 Y91.848 E415.89104
G1 X137.198 Y91.901 E415.90189
G1 X137.977 Y92.375 E415.99288
G1 X138.128 Y92.476 E416.01101
G1 X138.99 Y93.1 E416.11719
G1 X139.681 Y93.676 E416.20695
G1 X139.794 Y93.777 E416.22207
