;FLAVOR:Marlin
;TIME:3228
;Filament used: 1.75871m
;Layer height: 0.2
;Generated with Cura_SteamEngine 3.6.0
M140 S85
M105
M190 S85
M104 S220
M105
M109 S220
M82 ;absolute extrusion mode
G21 ;metric values
G90 ;absolute positioning
M82 ;set extruder to absolute mode
M107 ;start with the fan off
G28 X0 Y0 ;move X/Y to min endstops
G28 Z0 ;move Z to min endstops
G1 Z15.0 F100 ;move the platform down 15mm
G92 E0 ;zero the extruded length
G1 F200 E3 ;extrude 3mm of feed stock
G92 E0 ;zero the extruded length again
G1 F100
M117 Printing...
G5
G92 E0
G1 F2400 E-6
;LAYER_COUNT:500
;LAYER:-6
M107
M204 S3000
M205 X10 Y10
G0 F6000 X71.338 Y93.089 Z0.24
M204 S1800
M205 X8 Y8
;TYPE:SUPPORT-INTERFACE
G1 F2400 E0
G1 F1125 X71.477 Y92.985 E0.01386
G1 X72.192 Y92.492 E0.08318
G1 X72.376 Y92.376 E0.10055
G1 X73.274 Y91.856 E0.18338
G1 X74.219 Y91.397 E0.26724
G1 X75.069 Y91.054 E0.34041
G1 X75.242 Y90.992 E0.35508
G1 X76.08 Y90.723 E0.42533
G1 X76.244 Y90.677 E0.43893
G1 X77.116 Y90.465 E0.51056
G1 X77.278 Y90.432 E0.52376
G1 X78.171 Y90.284 E0.59602
G1 X78.348 Y90.261 E0.61026
G1 X79.242 Y90.178 E0.68193
G1 X80.125 Y90.15 E0.75245
G1 X129.886 Y90.151 E4.72459
G1 X131.01 Y90.196 E4.81439
G1 X132.102 Y90.323 E4.90214
G1 X133.114 Y90.515 E4.98437
G1 X134.008 Y90.749 E5.05813
G1 X135.013 Y91.085 E5.14272
G1 X135.179 Y91.148 E5.15689
G1 X135.982 Y91.489 E5.22653
G1 X136.171 Y91.577 E5.24317
G1 X136.965 Y91.986 E5.31447
G1 X137.082 Y92.051 E5.32515
G1 X137.861 Y92.526 E5.39798
G1 X138.012 Y92.626 E5.41244
G1 X138.874 Y93.25 E5.49739
G1 X139.674 Y93.923 E5.58084
G1 X140.186 Y94.405 E5.63697
G1 X140.342 Y94.562 E5.65464
G1 X140.988 Y95.258 E5.73044
G1 X141.107 Y95.397 E5.74504
G1 X141.661 Y96.088 E5.81574
G1 X141.765 Y96.227 E5.8296
G1 X142.258 Y96.942 E5.89893
G1 X142.374 Y97.126 E5.91629
G1 X142.887 Y98.009 E5.9978
G1 X143.292 Y98.832 E6.07102
G1 X143.353 Y98.969 E6.083
G1 X143.695 Y99.814 E6.15576
G1 X143.754 Y99.98 E6.16982
G1 X144.025 Y100.822 E6.24043
G1 X144.072 Y100.988 E6.2542
G1 X144.283 Y101.857 E6.32559
G1 X144.317 Y102.02 E6.33888
G1 X144.465 Y102.912 E6.41105
G1 X144.489 Y103.098 E6.42603
G1 X144.57 Y103.982 E6.49689
G1 X144.6 Y104.867 E6.56757
G1 X144.6 Y105.119 E6.58769
G1 X144.554 Y106.26 E6.67884
G1 X144.427 Y107.352 E6.7666
G1 X144.235 Y108.364 E6.84882
G1 X144.004 Y109.249 E6.92183
G1 X143.952 Y109.421 E6.93617
G1 X143.666 Y110.263 E7.00716
G1 X143.602 Y110.429 E7.02136
G1 X143.261 Y111.232 E7.091
G1 X143.18 Y111.407 E7.10639
G1 X142.776 Y112.193 E7.17694
G1 X142.224 Y113.111 E7.26244
G1 X142.124 Y113.262 E7.2769
G1 X141.5 Y114.124 E7.36184
G1 X140.827 Y114.924 E7.4453
G1 X140.345 Y115.436 E7.50143
G1 X140.188 Y115.592 E7.51909
G1 X139.503 Y116.228 E7.59371
G1 X139.355 Y116.355 E7.60928
G1 X138.662 Y116.911 E7.6802
G1 X138.523 Y117.015 E7.69405
G1 X137.808 Y117.508 E7.76338
G1 X137.624 Y117.624 E7.78074
G1 X136.726 Y118.144 E7.86358
G1 X135.781 Y118.603 E7.94744
G1 X134.926 Y118.948 E8.02103
G1 X134.763 Y119.006 E8.03485
G1 X133.92 Y119.277 E8.10553
G1 X133.756 Y119.323 E8.11913
G1 X132.884 Y119.535 E8.19076
G1 X132.722 Y119.568 E8.20396
G1 X131.829 Y119.716 E8.27621
G1 X131.652 Y119.739 E8.29046
G1 X130.758 Y119.822 E8.36213
G1 X129.875 Y119.85 E8.43265
G1 X80.114 Y119.849 E12.40479
G1 X78.99 Y119.804 E12.49458
G1 X77.898 Y119.677 E12.58234
G1 X76.886 Y119.485 E12.66456
G1 X75.992 Y119.251 E12.73833
G1 X74.987 Y118.915 E12.82292
G1 X74.821 Y118.852 E12.83709
G1 X74.018 Y118.511 E12.90673
G1 X73.829 Y118.423 E12.92337
G1 X73.035 Y118.014 E12.99467
G1 X72.918 Y117.949 E13.00535
G1 X72.139 Y117.474 E13.07818
G1 X71.988 Y117.374 E13.09264
G1 X71.126 Y116.75 E13.17758
G1 X70.326 Y116.077 E13.26103
G1 X69.814 Y115.595 E13.31717
G1 X69.654 Y115.434 E13.33528
G1 X69.01 Y114.74 E13.41086
G1 X68.343 Y113.917 E13.49542
G1 X68.227 Y113.761 E13.51094
G1 X67.742 Y113.058 E13.57912
G1 X67.626 Y112.874 E13.59648
G1 X67.106 Y111.976 E13.67931
G1 X66.647 Y111.031 E13.76317
G1 X66.298 Y110.167 E13.83755
G1 X66.242 Y110.009 E13.85094
G1 X65.97 Y109.161 E13.92202
G1 X65.928 Y109.011 E13.93446
G1 X65.712 Y108.123 E14.00741
G1 X65.683 Y107.98 E14.01906
G1 X65.533 Y107.074 E14.09236
G1 X65.511 Y106.902 E14.1062
G1 X65.428 Y106.003 E14.17827
G1 X65.4 Y105.133 E14.24775
G1 X65.4 Y104.881 E14.26787
G1 X65.446 Y103.74 E14.35902
G1 X65.547 Y102.825 E14.43251
G1 X65.735 Y101.77 E14.51805
G1 X65.996 Y100.75 E14.60209
G1 X66.048 Y100.579 E14.61636
G1 X66.334 Y99.737 E14.68734
G1 X66.398 Y99.571 E14.70154
G1 X66.739 Y98.768 E14.77118
G1 X66.82 Y98.593 E14.78658
G1 X67.236 Y97.785 E14.85912
G1 X67.301 Y97.668 E14.8698
G1 X67.776 Y96.889 E14.94263
G1 X67.876 Y96.738 E14.95709
G1 X68.392 Y96.017 E15.02787
G1 X68.5 Y95.876 E15.04204
G1 X69.173 Y95.076 E15.12549
G1 X69.655 Y94.564 E15.18163
G1 X69.812 Y94.408 E15.19929
G1 X70.508 Y93.762 E15.27509
G1 X70.647 Y93.643 E15.2897
G1 X71.338 Y93.089 E15.3604
M204 S3000
M205 X10 Y10
G0 F6000 X72 Y92.624
M204 S1800
M205 X8 Y8
G1 F1125 X72 Y117.381 E17.33661
M204 S3000
M205 X10 Y10
G0 F6000 X70.4 Y116.139
M204 S1800
M205 X8 Y8
G1 F1125 X70.4 Y93.862 E19.11485
M204 S3000
M205 X10 Y10
G0 F6000 X68.8 Y95.519
M204 S1800
M205 X8 Y8
G1 F1125 X68.8 Y114.48 E20.6284
M204 S3000
M205 X10 Y10
G0 F6000 X67.2 Y112.138
M204 S1800
M205 X8 Y8
G1 F1125 X67.2 Y97.854 E21.76861
M204 S3000
M205 X10 Y10
G0 F6000 X65.6 Y102.527
M204 S1800
M205 X8 Y8
G1 F1125 X65.6 Y107.478 E22.16382
M204 S3000
M205 X10 Y10
G0 F6000 X73.6 Y118.305
M204 S1800
M205 X8 Y8
G1 F1125 X73.6 Y91.697 E24.28779
M204 S3000
M205 X10 Y10
G0 F6000 X75.2 Y91.007
M204 S1800
M205 X8 Y8
G1 F1125 X75.2 Y118.986 E26.52119
M204 S3000
M205 X10 Y10
G0 F6000 X76.8 Y119.462
M204 S1800
M205 X8 Y8
G1 F1125 X76.8 Y90.541 E28.82979
M204 S3000
M205 X10 Y10
G0 F6000 X78.4 Y90.256
M204 S1800
M205 X8 Y8
G1 F1125 X78.4 Y119.735 E31.18294
M204 S3000
M205 X10 Y10
G0 F6000 X80 Y119.844
M204 S1800
M205 X8 Y8
G1 F1125 X80 Y90.153 E33.553
M204 S3000
M205 X10 Y10
G0 F6000 X81.6 Y90.151
M204 S1800
M205 X8 Y8
G1 F1125 X81.6 Y119.849 E35.92362
M204 S3000
M205 X10 Y10
G0 F6000 X83.2 Y119.849
M204 S1800
M205 X8 Y8
G1 F1125 X83.2 Y90.151 E38.29424
M204 S3000
M205 X10 Y10
G0 F6000 X84.8 Y90.151
M204 S1800
M205 X8 Y8
G1 F1125 X84.8 Y119.849 E40.66487
M204 S3000
M205 X10 Y10
G0 F6000 X86.4 Y119.849
M204 S1800
M205 X8 Y8
G1 F1125 X86.4 Y90.151 E43.03549
M204 S3000
M205 X10 Y10
G0 F6000 X88 Y90.151
M204 S1800
M205 X8 Y8
G1 F1125 X88 Y119.849 E45.40611
M204 S3000
M205 X10 Y10
G0 F6000 X89.6 Y119.849
M204 S1800
M205 X8 Y8
G1 F1125 X89.6 Y90.151 E47.77674
M204 S3000
M205 X10 Y10
G0 F6000 X91.2 Y90.151
M204 S1800
M205 X8 Y8
G1 F1125 X91.2 Y119.849 E50.14736
M204 S3000
M205 X10 Y10
G0 F6000 X92.8 Y119.849
M204 S1800
M205 X8 Y8
G1 F1125 X92.8 Y90.151 E52.51798
M204 S3000
M205 X10 Y10
G0 F6000 X94.4 Y90.151
M204 S1800
M205 X8 Y8
G1 F1125 X94.4 Y119.849 E54.8886
M204 S3000
M205 X10 Y10
G0 F6000 X96 Y119.849
M204 S1800
M205 X8 Y8
G1 F1125 X96 Y90.151 E57.25923
M204 S3000
M205 X10 Y10
G0 F6000 X97.6 Y90.151
M204 S1800
M205 X8 Y8
G1 F1125 X97.6 Y119.849 E59.62985
M204 S3000
M205 X10 Y10
G0 F6000 X99.2 Y119.849
M204 S1800
M205 X8 Y8
G1 F1125 X99.2 Y90.151 E62.00047
M204 S3000
M205 X10 Y10
G0 F6000 X100.8 Y90.151
M204 S1800
M205 X8 Y8
G1 F1125 X100.8 Y119.849 E64.3711
M204 S3000
M205 X10 Y10
G0 F6000 X102.4 Y119.849
M204 S1800
M205 X8 Y8
G1 F1125 X102.4 Y90.151 E66.74172
M204 S3000
M205 X10 Y10
G0 F6000 X104 Y90.151
M204 S1800
M205 X8 Y8
G1 F1125 X104 Y119.849 E69.11234
M204 S3000
M205 X10 Y10
G0 F6000 X105.6 Y119.849
M204 S1800
M205 X8 Y8
G1 F1125 X105.6 Y90.151 E71.48296
M204 S3000
M205 X10 Y10
G0 F6000 X107.2 Y90.151
M204 S1800
M205 X8 Y8
G1 F1125 X107.2 Y119.849 E73.85359
M204 S3000
M205 X10 Y10
G0 F6000 X108.8 Y119.849
M204 S1800
M205 X8 Y8
G1 F1125 X108.8 Y90.151 E76.22421
M204 S3000
M205 X10 Y10
G0 F6000 X110.4 Y90.151
M204 S1800
M205 X8 Y8
G1 F1125 X110.4 Y119.849 E78.59483
M204 S3000
M205 X10 Y10
G0 F6000 X112 Y119.849
M204 S1800
M205 X8 Y8
G1 F1125 X112 Y90.151 E80.96545
M204 S3000
M205 X10 Y10
G0 F6000 X113.6 Y90.151
M204 S1800
M205 X8 Y8
G1 F1125 X113.6 Y119.849 E83.33608
M204 S3000
M205 X10 Y10
G0 F6000 X115.2 Y119.849
M204 S1800
M205 X8 Y8
G1 F1125 X115.2 Y90.151 E85.7067
M204 S3000
M205 X10 Y10
G0 F6000 X116.8 Y90.151
M204 S1800
M205 X8 Y8
G1 F1125 X116.8 Y119.849 E88.07732
M204 S3000
M205 X10 Y10
G0 F6000 X118.4 Y119.849
M204 S1800
M205 X8 Y8
G1 F1125 X118.4 Y90.151 E90.44795
M204 S3000
M205 X10 Y10
G0 F6000 X120 Y90.151
M204 S1800
M205 X8 Y8
G1 F1125 X120 Y119.849 E92.81857
M204 S3000
M205 X10 Y10
G0 F6000 X121.6 Y119.849
M204 S1800
M205 X8 Y8
G1 F1125 X121.6 Y90.151 E95.18919
M204 S3000
M205 X10 Y10
G0 F6000 X123.2 Y90.151
M204 S1800
M205 X8 Y8
G1 F1125 X123.2 Y119.849 E97.55981
M204 S3000
M205 X10 Y10
G0 F6000 X124.8 Y119.849
M204 S1800
M205 X8 Y8
G1 F1125 X124.8 Y90.151 E99.93044
M204 S3000
M205 X10 Y10
G0 F6000 X126.4 Y90.151
M204 S1800
M205 X8 Y8
G1 F1125 X126.4 Y119.849 E102.30106
M204 S3000
M205 X10 Y10
G0 F6000 X128 Y119.849
M204 S1800
M205 X8 Y8
G1 F1125 X128 Y90.151 E104.67168
M204 S3000
M205 X10 Y10
G0 F6000 X129.6 Y90.151
M204 S1800
M205 X8 Y8
G1 F1125 X129.6 Y119.849 E107.04231
M204 S3000
M205 X10 Y10
G0 F6000 X131.2 Y119.781
M204 S1800
M205 X8 Y8
G1 F1125 X131.2 Y90.219 E109.40207
M204 S3000
M205 X10 Y10
G0 F6000 X132.8 Y90.456
M204 S1800
M205 X8 Y8
G1 F1125 X132.8 Y119.553 E111.72472
M204 S3000
M205 X10 Y10
G0 F6000 X134.4 Y119.123
M204 S1800
M205 X8 Y8
G1 F1125 X134.4 Y90.881 E113.97912
M204 S3000
M205 X10 Y10
G0 F6000 X136 Y91.498
M204 S1800
M205 X8 Y8
G1 F1125 X136 Y118.497 E116.1343
M204 S3000
M205 X10 Y10
G0 F6000 X137.6 Y117.638
M204 S1800
M205 X8 Y8
G1 F1125 X137.6 Y92.367 E118.15154
M204 S3000
M205 X10 Y10
G0 F6000 X139.2 Y93.525
M204 S1800
M205 X8 Y8
G1 F1125 X139.2 Y116.48 E119.9839
M204 S3000
M205 X10 Y10
G0 F6000 X140.8 Y114.953
M204 S1800
M205 X8 Y8
G1 F1125 X140.8 Y95.056 E121.57217
M204 S3000
M205 X10 Y10
G0 F6000 X142.4 Y97.171
M204 S1800
M205 X8 Y8
G1 F1125 X142.4 Y112.819 E122.82126
M204 S3000
M205 X10 Y10
G0 F6000 X144 Y109.263
M204 S1800
M205 X8 Y8
G1 F1125 X144 Y100.745 E123.5012
M204 S3000
M205 X10 Y10
G0 F6000 X67.741 Y113.057
;TIME_ELAPSED:94.391976
;LAYER:-5
M140 S85
G0 X67.741 Y113.057 Z0.54
M204 S1800
M205 X8 Y8
;TYPE:SUPPORT
G1 F1125 X68.226 Y113.76 E123.58642
G1 X68.343 Y113.916 E123.60588
G1 X69.01 Y114.738 E123.7115
G1 X69.653 Y115.433 E123.80598
G1 X69.813 Y115.594 E123.82863
G1 X70.326 Y116.075 E123.8988
G1 X71.125 Y116.749 E124.0031
G1 X71.988 Y117.373 E124.10936
G1 X72.139 Y117.473 E124.12743
G1 X72.341 Y117.596 E124.15103
G1 X67.637 Y112.892 E124.81481
G1 X67.625 Y112.873 E124.81706
G1 X67.106 Y111.975 E124.92055
G1 X66.646 Y111.03 E125.02542
G1 X66.297 Y110.166 E125.1184
G1 X66.282 Y110.122 E125.12303
G1 X75.116 Y118.957 E126.36968
G1 X75.992 Y119.25 E126.46184
G1 X76.885 Y119.484 E126.55396
G1 X77.098 Y119.525 E126.5756
G1 X65.716 Y108.142 E128.18179
G1 X65.711 Y108.122 E128.18385
G1 X65.683 Y107.979 E128.19839
G1 X65.533 Y107.072 E128.29012
G1 X65.511 Y106.901 E128.30732
G1 X65.472 Y106.484 E128.34911
G1 X78.764 Y119.776 E130.22476
G1 X78.99 Y119.802 E130.24746
G1 X80.114 Y119.848 E130.35971
G1 X80.25 Y119.848 E130.37328
G1 X65.399 Y104.997 E132.46891
G1 X65.399 Y104.88 E132.48059
G1 X65.446 Y103.738 E132.59463
G1 X65.456 Y103.64 E132.60446
G1 X81.664 Y119.848 E134.89158
G1 X83.078 Y119.848 E135.03267
G1 X65.623 Y102.392 E137.49583
G1 X65.734 Y101.768 E137.55907
G1 X65.873 Y101.228 E137.61471
G1 X84.492 Y119.848 E140.24212
G1 X85.907 Y119.848 E140.38331
G1 X66.197 Y100.138 E143.16461
G1 X66.333 Y99.735 E143.20705
G1 X66.398 Y99.569 E143.22484
G1 X66.59 Y99.117 E143.27384
G1 X87.321 Y119.848 E146.1992
G1 X88.735 Y119.848 E146.34029
G1 X67.043 Y98.156 E149.40127
G1 X67.235 Y97.784 E149.44304
G1 X67.301 Y97.667 E149.45644
G1 X67.553 Y97.251 E149.50497
G1 X90.149 Y119.848 E152.69358
G1 X91.563 Y119.848 E152.83467
G1 X68.116 Y96.4 E156.14337
G1 X68.392 Y96.015 E156.19064
G1 X68.5 Y95.875 E156.20828
G1 X68.73 Y95.6 E156.24405
G1 X92.978 Y119.848 E159.66571
G1 X94.392 Y119.848 E159.8068
G1 X69.389 Y94.844 E163.33506
G1 X69.654 Y94.563 E163.3736
G1 X69.812 Y94.407 E163.39575
G1 X70.099 Y94.141 E163.4348
G1 X95.806 Y119.848 E167.06233
G1 X97.221 Y119.848 E167.20352
G1 X70.851 Y93.478 E170.92462
G1 X71.337 Y93.088 E170.98679
G1 X71.477 Y92.984 E171.00419
G1 X71.651 Y92.865 E171.02523
G1 X98.635 Y119.848 E174.83289
G1 X100.049 Y119.848 E174.97398
G1 X72.503 Y92.302 E178.86102
G1 X73.273 Y91.855 E178.94986
G1 X73.406 Y91.791 E178.96459
G1 X101.464 Y119.848 E182.9238
G1 X102.878 Y119.848 E183.06489
G1 X74.367 Y91.337 E187.0881
G1 X75.068 Y91.053 E187.16357
G1 X75.242 Y90.991 E187.182
G1 X75.388 Y90.944 E187.1973
G1 X104.292 Y119.848 E191.27597
G1 X105.706 Y119.848 E191.41706
G1 X76.477 Y90.619 E195.54159
G1 X77.115 Y90.464 E195.6071
G1 X77.277 Y90.431 E195.6236
G1 X77.643 Y90.371 E195.6606
G1 X107.121 Y119.848 E199.8202
G1 X108.535 Y119.848 E199.96129
G1 X78.896 Y90.209 E204.14367
G1 X79.242 Y90.177 E204.17834
G1 X80.125 Y90.149 E204.26649
G1 X80.25 Y90.149 E204.27896
G1 X109.949 Y119.848 E208.46981
G1 X111.363 Y119.848 E208.6109
G1 X81.664 Y90.149 E212.80175
G1 X83.078 Y90.149 E212.94284
G1 X112.777 Y119.848 E217.13369
G1 X114.192 Y119.849 E217.27488
G1 X84.492 Y90.149 E221.46587
G1 X85.907 Y90.149 E221.60706
G1 X115.607 Y119.849 E225.79805
G1 X117.021 Y119.849 E225.93914
G1 X87.321 Y90.149 E230.13013
G1 X88.735 Y90.149 E230.27122
G1 X118.435 Y119.849 E234.46221
G1 X119.849 Y119.849 E234.6033
G1 X90.149 Y90.149 E238.79429
G1 X91.563 Y90.149 E238.93538
G1 X121.263 Y119.849 E243.12637
G1 X122.678 Y119.849 E243.26756
G1 X92.978 Y90.149 E247.45855
G1 X94.392 Y90.149 E247.59964
G1 X124.092 Y119.849 E251.79063
G1 X125.506 Y119.849 E251.93172
G1 X95.806 Y90.149 E256.12271
G1 X97.221 Y90.15 E256.2639
G1 X126.92 Y119.849 E260.45475
G1 X128.334 Y119.849 E260.59584
G1 X98.635 Y90.15 E264.78669
G1 X100.049 Y90.15 E264.92778
G1 X129.749 Y119.849 E269.1187
G1 X129.874 Y119.85 E269.13118
G1 X130.756 Y119.822 E269.21923
G1 X131.103 Y119.789 E269.25401
G1 X101.464 Y90.15 E273.43639
G1 X102.878 Y90.15 E273.57748
G1 X132.355 Y119.627 E277.737
G1 X132.721 Y119.567 E277.77401
G1 X132.883 Y119.534 E277.79051
G1 X133.521 Y119.379 E277.85602
G1 X104.292 Y90.15 E281.98054
G1 X105.706 Y90.15 E282.12163
G1 X134.61 Y119.054 E286.2003
G1 X134.761 Y119.006 E286.21611
G1 X134.925 Y118.948 E286.23347
G1 X135.632 Y118.662 E286.30957
G1 X107.121 Y90.15 E290.33285
G1 X108.535 Y90.15 E290.47394
G1 X136.592 Y118.207 E294.43308
G1 X136.725 Y118.144 E294.44777
G1 X137.496 Y117.697 E294.53669
G1 X109.949 Y90.15 E298.42387
G1 X111.363 Y90.15 E298.56496
G1 X138.347 Y117.134 E302.37269
G1 X138.522 Y117.014 E302.39387
G1 X138.661 Y116.91 E302.41119
G1 X139.148 Y116.52 E302.47344
G1 X112.777 Y90.15 E306.1946
G1 X114.192 Y90.151 E306.33579
G1 X139.899 Y115.858 E309.96333
G1 X140.186 Y115.592 E310.00237
G1 X140.344 Y115.435 E310.0246
G1 X140.61 Y115.154 E310.06321
G1 X115.607 Y90.151 E313.5914
G1 X117.021 Y90.151 E313.73249
G1 X141.268 Y114.398 E317.154
G1 X141.499 Y114.124 E317.18976
G1 X141.881 Y113.597 E317.25471
G1 X118.435 Y90.151 E320.56319
G1 X119.849 Y90.151 E320.70428
G1 X142.443 Y112.745 E323.89254
G1 X142.775 Y112.193 E323.95681
G1 X142.955 Y111.843 E323.99608
G1 X121.263 Y90.151 E327.05706
G1 X122.678 Y90.151 E327.19825
G1 X143.409 Y110.882 E330.12362
G1 X143.601 Y110.429 E330.17271
G1 X143.665 Y110.262 E330.19056
G1 X143.802 Y109.861 E330.23284
G1 X124.092 Y90.151 E333.01413
G1 X125.506 Y90.151 E333.15522
G1 X144.128 Y108.772 E335.78292
G1 X144.234 Y108.364 E335.82498
G1 X144.377 Y107.608 E335.90175
G1 X126.92 Y90.151 E338.36512
G1 X128.334 Y90.151 E338.50621
G1 X144.541 Y106.358 E340.79319
G1 X144.553 Y106.26 E340.80305
G1 X144.599 Y105.118 E340.91709
G1 X144.599 Y105.001 E340.92876
G1 X129.749 Y90.151 E343.02426
G1 X129.884 Y90.151 E343.03773
G1 X131.009 Y90.196 E343.15007
G1 X131.234 Y90.222 E343.17267
G1 X144.526 Y103.514 E345.04831
G1 X144.488 Y103.098 E345.09
G1 X144.464 Y102.911 E345.10881
G1 X144.316 Y102.019 E345.19903
G1 X144.282 Y101.855 E345.21574
