;FLAVOR:Marlin
;TIME:22189
;Filament used: 29.5071m
;Layer height: 0.2
;Generated with Cura_SteamEngine 3.6.0
M140 S85
M105
M190 S85
M104 S215
M105
M109 S215
M82 ;absolute extrusion mode
G21 ;metric values
G90 ;absolute positioning
M82 ;set extruder to absolute mode
M107 ;start with the fan off
G28 X0 Y0 ;move X/Y to min endstops
G28 Z0 ;move Z to min endstops
G1 Z15.0 F100 ;move the platform down 15mm
G92 E0 ;zero the extruded length
G1 F200 E3 ;extrude 3mm of feed stock
G92 E0 ;zero the extruded length again
G1 F100
M117 Printing...
G5
G92 E0
G1 F2400 E-6
;LAYER_COUNT:250
;LAYER:-6
M107
M204 S3000
M205 X10 Y10
G0 F6000 X46.426 Y63.187 Z0.36
M204 S1800
M205 X8 Y8
;TYPE:SUPPORT-INTERFACE
G1 F2400 E0
G1 F1125 X46.585 Y63.074 E0.02336
G1 X47.323 Y62.584 E0.12943
G1 X48.243 Y62.062 E0.25608
G1 X48.393 Y61.984 E0.27632
G1 X49.208 Y61.601 E0.38415
G1 X50.21 Y61.212 E0.51285
G1 X50.36 Y61.16 E0.53186
G1 X51.21 Y60.905 E0.63811
G1 X51.383 Y60.858 E0.65958
G1 X52.278 Y60.658 E0.76939
G1 X53.313 Y60.501 E0.89473
G1 X53.482 Y60.483 E0.91508
G1 X54.555 Y60.408 E1.04387
G1 X55.06 Y60.4 E1.10435
G1 X67.503 Y60.401 E2.59423
G1 X68.627 Y60.446 E2.72892
G1 X69.719 Y60.573 E2.86055
G1 X70.731 Y60.765 E2.98389
G1 X71.783 Y61.046 E3.11427
G1 X72.012 Y61.125 E3.14327
G1 X72.659 Y61.3 E3.22352
G1 X73.335 Y61.395 E3.30526
G1 X74.018 Y61.402 E3.38705
G1 X74.695 Y61.325 E3.46863
G1 X75.289 Y61.182 E3.54179
G1 X76.232 Y60.898 E3.65971
G1 X76.381 Y60.859 E3.67815
G1 X77.278 Y60.658 E3.78822
G1 X78.313 Y60.501 E3.91356
G1 X78.482 Y60.483 E3.93391
G1 X79.555 Y60.408 E4.0627
G1 X80.06 Y60.4 E4.12318
G1 X92.503 Y60.401 E5.61306
G1 X93.627 Y60.446 E5.74775
G1 X94.719 Y60.573 E5.87938
G1 X95.731 Y60.765 E6.00272
G1 X96.783 Y61.046 E6.1331
G1 X97.012 Y61.125 E6.1621
G1 X97.659 Y61.3 E6.24235
G1 X98.335 Y61.395 E6.32409
G1 X99.018 Y61.402 E6.40588
G1 X99.695 Y61.325 E6.48746
G1 X100.289 Y61.182 E6.56062
G1 X101.232 Y60.898 E6.67854
G1 X101.381 Y60.859 E6.69698
G1 X102.278 Y60.658 E6.80705
G1 X103.313 Y60.501 E6.93239
G1 X103.482 Y60.483 E6.95274
G1 X104.555 Y60.408 E7.08153
G1 X105.06 Y60.4 E7.14201
G1 X117.503 Y60.401 E8.63189
G1 X118.627 Y60.446 E8.76658
G1 X119.719 Y60.573 E8.89821
G1 X120.731 Y60.765 E9.02155
G1 X121.783 Y61.046 E9.15193
G1 X122.012 Y61.125 E9.18093
G1 X122.659 Y61.3 E9.26118
G1 X123.335 Y61.395 E9.34292
G1 X124.018 Y61.402 E9.42471
G1 X124.695 Y61.325 E9.50629
G1 X125.289 Y61.182 E9.57945
G1 X126.232 Y60.898 E9.69737
G1 X126.381 Y60.859 E9.71581
G1 X127.278 Y60.658 E9.82588
G1 X128.313 Y60.501 E9.95122
G1 X128.482 Y60.483 E9.97157
G1 X129.555 Y60.408 E10.10036
G1 X130.06 Y60.4 E10.16084
G1 X142.503 Y60.401 E11.65072
G1 X143.627 Y60.446 E11.78541
G1 X144.719 Y60.573 E11.91704
G1 X145.731 Y60.765 E12.04038
G1 X146.625 Y60.999 E12.15103
G1 X147.63 Y61.335 E12.27791
G1 X147.796 Y61.398 E12.29917
G1 X148.599 Y61.739 E12.40363
G1 X148.788 Y61.827 E12.42859
G1 X149.582 Y62.236 E12.53553
G1 X149.699 Y62.301 E12.55156
G1 X150.478 Y62.776 E12.66081
G1 X150.629 Y62.876 E12.68249
G1 X151.491 Y63.5 E12.80991
G1 X152.182 Y64.076 E12.91762
G1 X152.295 Y64.177 E12.93577
G1 X152.944 Y64.802 E13.04365
G1 X153.064 Y64.927 E13.0644
G1 X153.667 Y65.598 E13.17242
G1 X154.322 Y66.438 E13.29996
G1 X154.416 Y66.569 E13.31927
G1 X154.916 Y67.323 E13.4276
G1 X155.438 Y68.243 E13.55425
G1 X155.516 Y68.393 E13.57449
G1 X155.899 Y69.208 E13.68232
G1 X156.288 Y70.21 E13.81102
G1 X156.34 Y70.36 E13.83003
G1 X156.595 Y71.21 E13.93628
G1 X156.642 Y71.383 E13.95775
G1 X156.84 Y72.269 E14.06645
G1 X156.998 Y73.307 E14.19217
G1 X157.016 Y73.469 E14.21169
G1 X157.092 Y74.555 E14.34204
G1 X157.1 Y75.056 E14.40203
G1 X157.1 Y106.48 E18.16463
G1 X157.142 Y107.148 E18.24478
G1 X157.271 Y107.819 E18.32659
G1 X157.484 Y108.468 E18.40838
G1 X157.776 Y109.085 E18.49011
G1 X158.144 Y109.66 E18.57185
G1 X158.582 Y110.184 E18.65363
G1 X159.082 Y110.648 E18.7353
G1 X159.64 Y111.049 E18.81758
G1 X160.374 Y111.431 E18.91665
G1 X161.108 Y111.742 E19.0121
G1 X161.274 Y111.82 E19.03407
G1 X162.082 Y112.236 E19.14288
G1 X162.199 Y112.301 E19.15891
G1 X162.978 Y112.776 E19.26815
G1 X163.129 Y112.876 E19.28984
G1 X163.991 Y113.5 E19.41726
G1 X164.682 Y114.076 E19.52497
G1 X164.795 Y114.177 E19.54312
G1 X165.444 Y114.802 E19.651
G1 X165.564 Y114.927 E19.67175
G1 X166.167 Y115.598 E19.77977
G1 X166.813 Y116.426 E19.90552
G1 X166.926 Y116.585 E19.92887
G1 X167.416 Y117.323 E20.03494
G1 X167.938 Y118.243 E20.1616
G1 X168.016 Y118.393 E20.18184
G1 X168.399 Y119.208 E20.28966
G1 X168.788 Y120.21 E20.41836
G1 X168.84 Y120.36 E20.43737
G1 X169.095 Y121.21 E20.54363
G1 X169.142 Y121.383 E20.56509
G1 X169.34 Y122.269 E20.6738
G1 X169.498 Y123.307 E20.79952
G1 X169.516 Y123.469 E20.81903
G1 X169.592 Y124.555 E20.94938
G1 X169.6 Y125.056 E21.00938
G1 X169.6 Y134.986 E22.19836
G1 X169.554 Y136.127 E22.33509
G1 X169.427 Y137.219 E22.46673
G1 X169.235 Y138.231 E22.59006
G1 X169.004 Y139.116 E22.69958
G1 X168.952 Y139.288 E22.72109
G1 X168.676 Y140.1 E22.82378
G1 X168.596 Y140.309 E22.85058
G1 X168.18 Y141.274 E22.9764
G1 X167.764 Y142.082 E23.08522
G1 X167.699 Y142.199 E23.10125
G1 X167.224 Y142.978 E23.21049
G1 X167.124 Y143.129 E23.23218
G1 X166.5 Y143.991 E23.3596
G1 X165.924 Y144.682 E23.46731
G1 X165.823 Y144.795 E23.48546
G1 X165.198 Y145.444 E23.59334
G1 X165.073 Y145.564 E23.61409
G1 X164.403 Y146.166 E23.72194
G1 X163.574 Y146.813 E23.84785
G1 X163.415 Y146.926 E23.87121
G1 X162.677 Y147.416 E23.97728
G1 X161.757 Y147.938 E24.10393
G1 X161.606 Y148.016 E24.12428
G1 X160.792 Y148.399 E24.232
G1 X159.79 Y148.788 E24.3607
G1 X159.64 Y148.84 E24.37971
G1 X158.79 Y149.095 E24.48596
G1 X158.617 Y149.142 E24.50743
G1 X157.722 Y149.342 E24.61724
G1 X156.687 Y149.499 E24.74258
G1 X156.519 Y149.517 E24.76281
G1 X155.445 Y149.592 E24.89172
G1 X154.94 Y149.6 E24.9522
G1 X54.997 Y149.599 E36.91902
G1 X53.873 Y149.554 E37.05371
G1 X52.781 Y149.427 E37.18535
G1 X51.769 Y149.235 E37.30868
G1 X50.875 Y149.001 E37.41933
G1 X49.87 Y148.665 E37.54621
G1 X49.704 Y148.602 E37.56747
G1 X48.901 Y148.261 E37.67193
G1 X48.712 Y148.173 E37.69689
G1 X47.918 Y147.764 E37.80384
G1 X47.801 Y147.699 E37.81986
G1 X47.022 Y147.224 E37.92911
G1 X46.871 Y147.124 E37.9508
G1 X46.009 Y146.5 E38.07821
G1 X45.318 Y145.924 E38.18593
G1 X45.205 Y145.823 E38.20407
G1 X44.556 Y145.198 E38.31196
G1 X44.436 Y145.073 E38.33271
G1 X43.833 Y144.402 E38.44072
G1 X43.178 Y143.562 E38.56827
G1 X42.581 Y142.672 E38.69659
G1 X42.056 Y141.746 E38.82404
G1 X41.984 Y141.607 E38.84279
G1 X41.587 Y140.761 E38.95468
G1 X41.212 Y139.79 E39.07932
G1 X41.155 Y139.625 E39.10022
G1 X40.905 Y138.79 E39.20458
G1 X40.858 Y138.617 E39.22605
G1 X40.657 Y137.716 E39.33658
G1 X40.5 Y136.678 E39.46228
G1 X40.483 Y136.518 E39.48155
G1 X40.408 Y135.445 E39.61034
G1 X40.4 Y134.944 E39.67033
G1 X40.4 Y75.014 E46.84614
G1 X40.446 Y73.873 E46.98287
G1 X40.573 Y72.781 E47.11451
G1 X40.765 Y71.769 E47.23784
G1 X40.996 Y70.884 E47.34736
G1 X41.048 Y70.712 E47.36887
G1 X41.334 Y69.87 E47.47535
G1 X41.398 Y69.704 E47.49665
G1 X41.739 Y68.901 E47.60111
G1 X41.82 Y68.726 E47.6242
G1 X42.236 Y67.918 E47.73302
G1 X42.301 Y67.801 E47.74904
G1 X42.776 Y67.022 E47.85829
G1 X42.876 Y66.871 E47.87997
G1 X43.5 Y66.009 E48.00739
G1 X44.076 Y65.318 E48.11511
G1 X44.177 Y65.205 E48.13325
G1 X44.802 Y64.556 E48.24114
G1 X44.927 Y64.436 E48.26188
G1 X45.598 Y63.833 E48.3699
G1 X46.426 Y63.187 E48.49565
M204 S3000
M205 X10 Y10
G0 F6000 X46.4 Y63.207
M204 S1800
M205 X8 Y8
G1 F1125 X46.4 Y146.783 E58.50275
M204 S3000
M205 X10 Y10
G0 F6000 X48 Y147.806
M204 S1800
M205 X8 Y8
G1 F1125 X48 Y62.199 E68.75303
M204 S3000
M205 X10 Y10
G0 F6000 X49.6 Y61.448
M204 S1800
M205 X8 Y8
G1 F1125 X49.6 Y148.557 E79.18315
M204 S3000
M205 X10 Y10
G0 F6000 X51.2 Y149.086
M204 S1800
M205 X8 Y8
G1 F1125 X51.2 Y60.908 E89.74128
M204 S3000
M205 X10 Y10
G0 F6000 X52.8 Y60.578
M204 S1800
M205 X8 Y8
G1 F1125 X52.8 Y149.429 E100.37998
M204 S3000
M205 X10 Y10
G0 F6000 X54.4 Y149.575
M204 S1800
M205 X8 Y8
G1 F1125 X54.4 Y60.418 E111.05533
M204 S3000
M205 X10 Y10
G0 F6000 X56 Y60.401
M204 S1800
M205 X8 Y8
G1 F1125 X56 Y149.599 E121.73558
M204 S3000
M205 X10 Y10
G0 F6000 X57.6 Y149.599
M204 S1800
M205 X8 Y8
G1 F1125 X57.6 Y60.401 E132.41584
M204 S3000
M205 X10 Y10
G0 F6000 X59.2 Y60.401
M204 S1800
M205 X8 Y8
G1 F1125 X59.2 Y149.599 E143.09609
M204 S3000
M205 X10 Y10
G0 F6000 X60.8 Y149.599
M204 S1800
M205 X8 Y8
G1 F1125 X60.8 Y60.401 E153.77635
M204 S3000
M205 X10 Y10
G0 F6000 X62.4 Y60.401
M204 S1800
M205 X8 Y8
G1 F1125 X62.4 Y149.599 E164.4566
M204 S3000
M205 X10 Y10
G0 F6000 X64 Y149.599
M204 S1800
M205 X8 Y8
G1 F1125 X64 Y60.401 E175.13686
M204 S3000
M205 X10 Y10
G0 F6000 X65.6 Y60.401
M204 S1800
M205 X8 Y8
G1 F1125 X65.6 Y149.599 E185.81711
M204 S3000
M205 X10 Y10
G0 F6000 X67.2 Y149.599
M204 S1800
M205 X8 Y8
G1 F1125 X67.2 Y60.401 E196.49737
M204 S3000
M205 X10 Y10
G0 F6000 X68.8 Y60.467
M204 S1800
M205 X8 Y8
G1 F1125 X68.8 Y149.599 E207.16972
M204 S3000
M205 X10 Y10
G0 F6000 X70.4 Y149.599
M204 S1800
M205 X8 Y8
G1 F1125 X70.4 Y60.703 E217.81382
M204 S3000
M205 X10 Y10
G0 F6000 X72 Y61.121
M204 S1800
M205 X8 Y8
G1 F1125 X72 Y149.599 E228.40786
M204 S3000
M205 X10 Y10
G0 F6000 X73.6 Y149.599
M204 S1800
M205 X8 Y8
G1 F1125 X73.6 Y61.398 E238.96874
M204 S3000
M205 X10 Y10
G0 F6000 X75.2 Y61.203
M204 S1800
M205 X8 Y8
G1 F1125 X75.2 Y149.599 E249.55297
M204 S3000
M205 X10 Y10
G0 F6000 X76.8 Y149.599
M204 S1800
M205 X8 Y8
G1 F1125 X76.8 Y60.765 E260.18964
M204 S3000
M205 X10 Y10
G0 F6000 X78.4 Y60.491
M204 S1800
M205 X8 Y8
G1 F1125 X78.4 Y149.599 E270.85912
M204 S3000
M205 X10 Y10
G0 F6000 X80 Y149.599
M204 S1800
M205 X8 Y8
G1 F1125 X80 Y60.4 E281.53949
M204 S3000
M205 X10 Y10
G0 F6000 X81.6 Y60.401
M204 S1800
M205 X8 Y8
G1 F1125 X81.6 Y149.599 E292.21975
M204 S3000
M205 X10 Y10
G0 F6000 X83.2 Y149.599
M204 S1800
M205 X8 Y8
G1 F1125 X83.2 Y60.401 E302.9
M204 S3000
M205 X10 Y10
G0 F6000 X84.8 Y60.401
M204 S1800
M205 X8 Y8
G1 F1125 X84.8 Y149.599 E313.58026
M204 S3000
M205 X10 Y10
G0 F6000 X86.4 Y149.599
M204 S1800
M205 X8 Y8
G1 F1125 X86.4 Y60.401 E324.26051
M204 S3000
M205 X10 Y10
G0 F6000 X88 Y60.401
M204 S1800
M205 X8 Y8
G1 F1125 X88 Y149.599 E334.94077
M204 S3000
M205 X10 Y10
G0 F6000 X89.6 Y149.599
M204 S1800
M205 X8 Y8
G1 F1125 X89.6 Y60.401 E345.62102
M204 S3000
M205 X10 Y10
G0 F6000 X91.2 Y60.401
M204 S1800
M205 X8 Y8
G1 F1125 X91.2 Y149.599 E356.30128
M204 S3000
M205 X10 Y10
G0 F6000 X92.8 Y149.599
M204 S1800
M205 X8 Y8
G1 F1125 X92.8 Y60.413 E366.98009
M204 S3000
M205 X10 Y10
G0 F6000 X94.4 Y60.536
M204 S1800
M205 X8 Y8
G1 F1125 X94.4 Y149.599 E377.64418
M204 S3000
M205 X10 Y10
G0 F6000 X96 Y149.599
M204 S1800
M205 X8 Y8
G1 F1125 X96 Y60.837 E388.27223
M204 S3000
M205 X10 Y10
G0 F6000 X97.6 Y61.285
M204 S1800
M205 X8 Y8
G1 F1125 X97.6 Y149.599 E398.84664
M204 S3000
M205 X10 Y10
G0 F6000 X99.2 Y149.599
M204 S1800
M205 X8 Y8
G1 F1125 X99.2 Y61.381 E409.40956
M204 S3000
M205 X10 Y10
G0 F6000 X100.8 Y61.028
M204 S1800
M205 X8 Y8
G1 F1125 X100.8 Y149.599 E420.01474
M204 S3000
M205 X10 Y10
G0 F6000 X102.4 Y149.599
M204 S1800
M205 X8 Y8
G1 F1125 X102.4 Y60.639 E430.66649
M204 S3000
M205 X10 Y10
G0 F6000 X104 Y60.446
M204 S1800
M205 X8 Y8
G1 F1125 X104 Y149.599 E441.34136
M204 S3000
M205 X10 Y10
G0 F6000 X105.6 Y149.599
M204 S1800
M205 X8 Y8
G1 F1125 X105.6 Y60.401 E452.02162
M204 S3000
M205 X10 Y10
G0 F6000 X107.2 Y60.401
M204 S1800
M205 X8 Y8
G1 F1125 X107.2 Y149.599 E462.70187
M204 S3000
M205 X10 Y10
G0 F6000 X108.8 Y149.599
M204 S1800
M205 X8 Y8
G1 F1125 X108.8 Y60.401 E473.38213
M204 S3000
M205 X10 Y10
G0 F6000 X110.4 Y60.401
M204 S1800
M205 X8 Y8
G1 F1125 X110.4 Y149.599 E484.06238
M204 S3000
M205 X10 Y10
G0 F6000 X112 Y149.599
M204 S1800
M205 X8 Y8
G1 F1125 X112 Y60.401 E494.74264
M204 S3000
M205 X10 Y10
G0 F6000 X113.6 Y60.401
M204 S1800
M205 X8 Y8
G1 F1125 X113.6 Y149.599 E505.42289
M204 S3000
M205 X10 Y10
G0 F6000 X115.2 Y149.599
M204 S1800
M205 X8 Y8
G1 F1125 X115.2 Y60.401 E516.10315
M204 S3000
M205 X10 Y10
G0 F6000 X116.8 Y60.401
M204 S1800
M205 X8 Y8
G1 F1125 X116.8 Y149.599 E526.7834
M204 S3000
M205 X10 Y10
G0 F6000 X118.4 Y149.599
M204 S1800
M205 X8 Y8
G1 F1125 X118.4 Y60.437 E537.45935
M204 S3000
M205 X10 Y10
G0 F6000 X120 Y60.627
M204 S1800
M205 X8 Y8
G1 F1125 X120 Y149.599 E548.11254
M204 S3000
M205 X10 Y10
G0 F6000 X121.6 Y149.599
M204 S1800
M205 X8 Y8
G1 F1125 X121.6 Y60.998 E558.72131
M204 S3000
M205 X10 Y10
G0 F6000 X123.2 Y61.377
M204 S1800
M205 X8 Y8
G1 F1125 X123.2 Y149.599 E569.28471
M204 S3000
M205 X10 Y10
G0 F6000 X124.8 Y149.599
M204 S1800
M205 X8 Y8
G1 F1125 X124.8 Y61.299 E579.85744
M204 S3000
M205 X10 Y10
G0 F6000 X126.4 Y60.854
M204 S1800
M205 X8 Y8
G1 F1125 X126.4 Y149.599 E590.48345
M204 S3000
M205 X10 Y10
G0 F6000 X128 Y149.599
M204 S1800
M205 X8 Y8
G1 F1125 X128 Y60.548 E601.14611
M204 S3000
M205 X10 Y10
G0 F6000 X129.6 Y60.407
M204 S1800
M205 X8 Y8
G1 F1125 X129.6 Y149.599 E611.82564
M204 S3000
M205 X10 Y10
G0 F6000 X131.2 Y149.599
M204 S1800
M205 X8 Y8
G1 F1125 X131.2 Y60.401 E622.5059
M204 S3000
M205 X10 Y10
G0 F6000 X132.8 Y60.401
M204 S1800
M205 X8 Y8
G1 F1125 X132.8 Y149.599 E633.18615
M204 S3000
M205 X10 Y10
G0 F6000 X134.4 Y149.599
M204 S1800
M205 X8 Y8
G1 F1125 X134.4 Y60.401 E643.86641
M204 S3000
M205 X10 Y10
G0 F6000 X136 Y60.401
M204 S1800
M205 X8 Y8
G1 F1125 X136 Y149.599 E654.54666
M204 S3000
M205 X10 Y10
G0 F6000 X137.6 Y149.599
M204 S1800
M205 X8 Y8
G1 F1125 X137.6 Y60.401 E665.22692
M204 S3000
M205 X10 Y10
G0 F6000 X139.2 Y60.401
M204 S1800
M205 X8 Y8
G1 F1125 X139.2 Y149.599 E675.90717
M204 S3000
M205 X10 Y10
G0 F6000 X140.8 Y149.599
M204 S1800
M205 X8 Y8
G1 F1125 X140.8 Y60.401 E686.58743
M204 S3000
M205 X10 Y10
G0 F6000 X142.4 Y60.401
M204 S1800
M205 X8 Y8
G1 F1125 X142.4 Y149.599 E697.26768
M204 S3000
M205 X10 Y10
G0 F6000 X144 Y149.599
M204 S1800
M205 X8 Y8
G1 F1125 X144 Y60.49 E707.93728
M204 S3000
M205 X10 Y10
G0 F6000 X145.6 Y60.741
M204 S1800
M205 X8 Y8
G1 F1125 X145.6 Y149.599 E718.57683
M204 S3000
M205 X10 Y10
G0 F6000 X147.2 Y149.599
M204 S1800
M205 X8 Y8
G1 F1125 X147.2 Y61.192 E729.16237
M204 S3000
M205 X10 Y10
G0 F6000 X148.8 Y61.834
M204 S1800
M205 X8 Y8
G1 F1125 X148.8 Y149.599 E739.67104
M204 S3000
M205 X10 Y10
G0 F6000 X150.4 Y149.599
M204 S1800
M205 X8 Y8
G1 F1125 X150.4 Y62.729 E750.07255
M204 S3000
M205 X10 Y10
G0 F6000 X152 Y63.925
M204 S1800
M205 X8 Y8
G1 F1125 X152 Y149.599 E760.33086
M204 S3000
M205 X10 Y10
G0 F6000 X153.6 Y149.599
M204 S1800
M205 X8 Y8
G1 F1125 X153.6 Y65.524 E770.3977
M204 S3000
M205 X10 Y10
G0 F6000 X155.2 Y67.824
M204 S1800
M205 X8 Y8
G1 F1125 X155.2 Y149.596 E780.18879
M204 S3000
M205 X10 Y10
G0 F6000 X156.8 Y149.482
M204 S1800
M205 X8 Y8
G1 F1125 X156.8 Y72.091 E789.45532
M204 S3000
M205 X10 Y10
G0 F6000 X157.601 Y107.093
G0 X157.633 Y107.265
G0 X158.4 Y109.967
M204 S1800
M205 X8 Y8
G1 F1125 X158.4 Y149.191 E794.15186
M204 S3000
M205 X10 Y10
G0 F6000 X160 Y148.707
M204 S1800
M205 X8 Y8
G1 F1125 X160 Y111.237 E798.63839
M204 S3000
M205 X10 Y10
G0 F6000 X161.6 Y111.988
M204 S1800
M205 X8 Y8
G1 F1125 X161.6 Y148.019 E802.95261
M204 S3000
M205 X10 Y10
G0 F6000 X163.2 Y147.069
M204 S1800
M205 X8 Y8
G1 F1125 X163.2 Y112.928 E807.04054
M204 S3000
M205 X10 Y10
G0 F6000 X164.8 Y114.182
M204 S1800
M205 X8 Y8
G1 F1125 X164.8 Y145.81 E810.82756
M204 S3000
M205 X10 Y10
G0 F6000 X166.4 Y144.111
M204 S1800
M205 X8 Y8
G1 F1125 X166.4 Y115.897 E814.20581
M204 S3000
M205 X10 Y10
G0 F6000 X168 Y118.363
M204 S1800
M205 X8 Y8
G1 F1125 X168 Y141.624 E816.991
M204 S3000
M205 X10 Y10
G0 F6000 X44.8 Y145.432
M204 S1800
M205 X8 Y8
G1 F1125 X44.8 Y64.558 E826.67457
M204 S3000
M205 X10 Y10
G0 F6000 X43.2 Y66.423
M204 S1800
M205 X8 Y8
G1 F1125 X43.2 Y143.59 E835.91427
M204 S3000
M205 X10 Y10
G0 F6000 X41.6 Y140.788
M204 S1800
M205 X8 Y8
G1 F1125 X41.6 Y69.228 E844.48262
M204 S3000
M205 X10 Y10
G0 F6000 X43.267 Y143.677
;TIME_ELAPSED:390.760002
;LAYER:-5
M140 S85
G0 X43.267 Y143.677 Z0.66
M204 S1800
M205 X8 Y8
;TYPE:SUPPORT
G1 F1125 X46.301 Y146.71 E844.91068
G1 X46.009 Y146.499 E844.94662
G1 X45.317 Y145.923 E845.03646
