;FLAVOR:Marlin
;TIME:4170
;Filament used: 5.12765m
;Layer height: 0.2
;Generated with Cura_SteamEngine 3.6.0
M140 S85
M105
M190 S85
M104 S215
M105
M109 S215
M82 ;absolute extrusion mode
G21 ;metric values
G90 ;absolute positioning
M82 ;set extruder to absolute mode
M107 ;start with the fan off
G28 X0 Y0 ;move X/Y to min endstops
G28 Z0 ;move Z to min endstops
G1 Z15.0 F100 ;move the platform down 15mm
G92 E0 ;zero the extruded length
G1 F200 E3 ;extrude 3mm of feed stock
G92 E0 ;zero the extruded length again
G1 F100
M117 Printing...
G5
G92 E0
G1 F2400 E-6
;LAYER_COUNT:433
;LAYER:0
M106 S255
M204 S3000
M205 X10 Y10
G0 F3000 X53.204 Y98.833 Z0.3
M204 S1800
M205 X8 Y8
;TYPE:SKIRT
G1 F2400 E0
G1 X53.728 Y98.586 E0.04046
G1 X54.281 Y98.414 E0.08091
G1 X54.853 Y98.319 E0.12141
G1 X55.252 Y98.3 E0.14931
G1 X154.749 Y98.3 E7.09881
G1 X155.327 Y98.34 E7.13927
G1 X155.894 Y98.459 E7.17974
G1 X156.439 Y98.655 E7.22019
G1 X156.952 Y98.924 E7.26065
G1 X157.423 Y99.261 E7.3011
G1 X157.719 Y99.53 E7.32904
G1 X157.883 Y99.694 E7.34524
G1 X158.263 Y100.131 E7.38569
G1 X158.58 Y100.616 E7.42616
G1 X158.827 Y101.14 E7.46662
G1 X158.999 Y101.693 E7.50707
G1 X159.094 Y102.265 E7.54757
G1 X159.113 Y102.665 E7.57554
G1 X159.112 Y107.337 E7.90186
G1 X159.072 Y107.915 E7.94233
G1 X158.953 Y108.482 E7.98279
G1 X158.757 Y109.027 E8.02325
G1 X158.487 Y109.54 E8.06374
G1 X158.15 Y110.011 E8.10419
G1 X157.882 Y110.306 E8.13203
G1 X157.718 Y110.47 E8.14823
G1 X157.281 Y110.85 E8.18868
G1 X156.796 Y111.167 E8.22914
G1 X156.272 Y111.414 E8.26961
G1 X155.719 Y111.586 E8.31006
G1 X155.147 Y111.681 E8.35056
G1 X154.748 Y111.7 E8.37846
G1 X55.251 Y111.7 E15.32795
G1 X54.673 Y111.66 E15.36842
G1 X54.106 Y111.541 E15.40889
G1 X53.561 Y111.345 E15.44934
G1 X53.048 Y111.076 E15.4898
G1 X52.577 Y110.739 E15.53025
G1 X52.281 Y110.47 E15.55818
G1 X52.117 Y110.306 E15.57438
G1 X51.737 Y109.869 E15.61483
G1 X51.42 Y109.384 E15.6553
G1 X51.173 Y108.86 E15.69576
G1 X51.001 Y108.307 E15.73621
G1 X50.906 Y107.735 E15.77671
G1 X50.887 Y107.335 E15.80468
G1 X50.888 Y102.663 E16.13101
G1 X50.928 Y102.085 E16.17147
G1 X51.047 Y101.518 E16.21194
G1 X51.243 Y100.973 E16.25239
G1 X51.513 Y100.46 E16.29288
G1 X51.85 Y99.989 E16.33333
G1 X52.118 Y99.694 E16.36117
G1 X52.282 Y99.53 E16.37737
G1 X52.719 Y99.15 E16.41782
G1 X53.204 Y98.833 E16.45829
M204 S3000
M205 X10 Y10
G0 F3000 X53.543 Y99.286
M204 S1800
M205 X8 Y8
G1 F2400 X54.036 Y99.069 E16.49591
G1 X54.556 Y98.927 E16.53356
G1 X55.252 Y98.86 E16.5824
G1 X154.749 Y98.86 E23.5319
G1 X155.287 Y98.9 E23.56958
G1 X155.813 Y99.019 E23.60724
G1 X156.315 Y99.214 E23.64486
G1 X156.784 Y99.482 E23.68259
G1 X157.323 Y99.926 E23.73136
G1 X157.487 Y100.09 E23.74756
G1 X157.839 Y100.499 E23.78525
G1 X158.127 Y100.955 E23.82292
G1 X158.344 Y101.448 E23.86055
G1 X158.486 Y101.968 E23.8982
G1 X158.553 Y102.665 E23.9471
G1 X158.552 Y107.337 E24.27342
G1 X158.512 Y107.875 E24.31111
G1 X158.393 Y108.4 E24.34871
G1 X158.197 Y108.903 E24.38641
G1 X157.93 Y109.371 E24.42404
G1 X157.486 Y109.91 E24.47282
G1 X157.322 Y110.074 E24.48902
G1 X156.913 Y110.426 E24.52671
G1 X156.457 Y110.714 E24.56438
G1 X155.964 Y110.931 E24.602
G1 X155.444 Y111.073 E24.63965
G1 X154.748 Y111.14 E24.68849
G1 X55.251 Y111.14 E31.63799
G1 X54.713 Y111.1 E31.67567
G1 X54.187 Y110.981 E31.71333
G1 X53.685 Y110.786 E31.75095
G1 X53.216 Y110.518 E31.78868
G1 X52.677 Y110.074 E31.83745
G1 X52.513 Y109.91 E31.85365
G1 X52.161 Y109.501 E31.89134
G1 X51.873 Y109.045 E31.92901
G1 X51.656 Y108.552 E31.96664
G1 X51.514 Y108.032 E32.00429
G1 X51.447 Y107.335 E32.05319
G1 X51.448 Y102.663 E32.37952
G1 X51.488 Y102.125 E32.4172
G1 X51.607 Y101.6 E32.4548
G1 X51.803 Y101.097 E32.4925
G1 X52.07 Y100.629 E32.53014
G1 X52.514 Y100.09 E32.57891
G1 X52.678 Y99.926 E32.59511
G1 X53.087 Y99.574 E32.6328
G1 X53.543 Y99.286 E32.67047
M204 S3000
M205 X10 Y10
G0 F3000 X53.876 Y99.744
M204 S1800
M205 X8 Y8
G1 F2400 X54.337 Y99.559 E32.70517
G1 X54.82 Y99.45 E32.73975
G1 X55.252 Y99.42 E32.77
G1 X154.749 Y99.42 E39.71949
G1 X155.243 Y99.46 E39.75411
G1 X155.725 Y99.579 E39.78879
G1 X156.181 Y99.773 E39.8234
G1 X156.6 Y100.038 E39.85803
G1 X156.927 Y100.322 E39.88828
G1 X157.091 Y100.486 E39.90448
G1 X157.412 Y100.864 E39.93911
G1 X157.669 Y101.288 E39.97374
G1 X157.854 Y101.749 E40.00844
G1 X157.963 Y102.232 E40.04302
G1 X157.993 Y102.665 E40.07334
G1 X157.992 Y107.337 E40.39966
G1 X157.952 Y107.831 E40.43428
G1 X157.833 Y108.313 E40.46895
G1 X157.638 Y108.769 E40.50359
G1 X157.373 Y109.188 E40.53822
G1 X157.09 Y109.514 E40.56837
G1 X156.926 Y109.678 E40.58457
G1 X156.548 Y109.999 E40.61921
G1 X156.124 Y110.256 E40.65384
G1 X155.663 Y110.441 E40.68854
G1 X155.18 Y110.55 E40.72312
G1 X154.748 Y110.58 E40.75337
G1 X55.251 Y110.58 E47.70286
G1 X54.757 Y110.54 E47.73748
G1 X54.275 Y110.421 E47.77216
G1 X53.819 Y110.227 E47.80677
G1 X53.4 Y109.962 E47.8414
G1 X53.073 Y109.678 E47.87165
G1 X52.909 Y109.514 E47.88785
G1 X52.588 Y109.136 E47.92249
G1 X52.331 Y108.712 E47.95712
G1 X52.146 Y108.251 E47.99181
G1 X52.037 Y107.768 E48.02639
G1 X52.007 Y107.335 E48.05671
G1 X52.008 Y102.663 E48.38303
G1 X52.048 Y102.169 E48.41765
G1 X52.167 Y101.687 E48.45233
G1 X52.362 Y101.231 E48.48697
G1 X52.627 Y100.812 E48.52159
G1 X52.91 Y100.486 E48.55175
G1 X53.074 Y100.322 E48.56795
G1 X53.452 Y100.001 E48.60258
G1 X53.876 Y99.744 E48.63721
M204 S3000
M205 X10 Y10
G0 F3000 X54.204 Y100.208
M204 S1800
M205 X8 Y8
G1 F2400 X54.627 Y100.059 E48.66854
G1 X55.252 Y99.98 E48.71254
G1 X154.749 Y99.98 E55.66203
G1 X155.196 Y100.02 E55.69338
G1 X155.628 Y100.138 E55.72466
G1 X156.033 Y100.332 E55.75603
G1 X156.531 Y100.718 E55.80003
G1 X156.695 Y100.882 E55.81623
G1 X156.983 Y101.226 E55.84757
G1 X157.205 Y101.616 E55.87891
G1 X157.354 Y102.039 E55.91024
G1 X157.433 Y102.665 E55.95431
G1 X157.432 Y107.337 E56.28063
G1 X157.392 Y107.783 E56.31191
G1 X157.273 Y108.216 E56.34327
G1 X157.08 Y108.621 E56.37461
G1 X156.694 Y109.118 E56.41856
G1 X156.53 Y109.282 E56.43476
G1 X156.186 Y109.57 E56.4661
G1 X155.796 Y109.792 E56.49744
G1 X155.373 Y109.941 E56.52876
G1 X154.748 Y110.02 E56.57277
G1 X55.251 Y110.02 E63.52226
G1 X54.804 Y109.98 E63.55361
G1 X54.372 Y109.862 E63.58489
G1 X53.967 Y109.668 E63.61625
G1 X53.469 Y109.282 E63.66026
G1 X53.305 Y109.118 E63.67646
G1 X53.017 Y108.774 E63.7078
G1 X52.795 Y108.384 E63.73914
G1 X52.646 Y107.961 E63.77046
G1 X52.567 Y107.335 E63.81454
G1 X52.568 Y102.663 E64.14086
G1 X52.608 Y102.217 E64.17213
G1 X52.727 Y101.784 E64.2035
G1 X52.92 Y101.379 E64.23483
G1 X53.306 Y100.882 E64.27879
G1 X53.47 Y100.718 E64.29499
G1 X53.814 Y100.43 E64.32632
G1 X54.204 Y100.208 E64.35767
M204 S3000
M205 X10 Y10
G0 F3000 X54.172 Y100.864
M204 S1800
M205 X8 Y8
G1 F2400 X54.523 Y100.681 E64.38532
G1 X54.903 Y100.571 E64.41295
G1 X55.252 Y100.54 E64.43742
G1 X154.749 Y100.54 E71.38691
G1 X155.142 Y100.58 E71.41451
G1 X155.52 Y100.698 E71.44216
G1 X155.866 Y100.889 E71.46977
G1 X156.135 Y101.114 E71.49426
G1 X156.299 Y101.278 E71.51046
G1 X156.549 Y101.584 E71.53806
G1 X156.732 Y101.935 E71.56571
G1 X156.842 Y102.315 E71.59334
G1 X156.873 Y102.664 E71.61781
G1 X156.872 Y107.336 E71.94414
G1 X156.832 Y107.73 E71.9718
G1 X156.714 Y108.107 E71.99939
G1 X156.522 Y108.453 E72.02703
G1 X156.298 Y108.722 E72.05148
G1 X156.134 Y108.886 E72.06768
G1 X155.828 Y109.136 E72.09528
G1 X155.477 Y109.319 E72.12292
G1 X155.097 Y109.429 E72.15055
G1 X154.748 Y109.46 E72.17503
G1 X55.251 Y109.46 E79.12452
G1 X54.858 Y109.42 E79.15211
G1 X54.48 Y109.302 E79.17977
G1 X54.134 Y109.111 E79.20738
G1 X53.865 Y108.886 E79.23187
G1 X53.701 Y108.722 E79.24807
G1 X53.451 Y108.416 E79.27567
G1 X53.268 Y108.065 E79.30332
G1 X53.158 Y107.685 E79.33095
G1 X53.127 Y107.336 E79.35542
G1 X53.128 Y102.664 E79.68174
G1 X53.168 Y102.27 E79.7094
G1 X53.286 Y101.893 E79.737
G1 X53.478 Y101.547 E79.76463
G1 X53.702 Y101.278 E79.78908
G1 X53.866 Y101.114 E79.80528
G1 X54.172 Y100.864 E79.83288
M204 S3000
M205 X10 Y10
G0 F3000 X54.525 Y101.304
M204 S1800
M205 X8 Y8
G1 F2400 X54.829 Y101.165 E79.85623
G1 X55.252 Y101.1 E79.88612
G1 X154.749 Y101.1 E86.83562
G1 X155.081 Y101.14 E86.85897
G1 X155.393 Y101.257 E86.88225
G1 X155.739 Y101.51 E86.91219
G1 X155.903 Y101.674 E86.92839
G1 X156.109 Y101.937 E86.95172
G1 X156.248 Y102.241 E86.97507
G1 X156.313 Y102.664 E87.00496
G1 X156.312 Y107.336 E87.33128
G1 X156.272 Y107.668 E87.35464
G1 X156.155 Y107.981 E87.37798
G1 X155.902 Y108.326 E87.40786
G1 X155.738 Y108.49 E87.42406
G1 X155.475 Y108.696 E87.44739
G1 X155.171 Y108.835 E87.47074
G1 X154.748 Y108.9 E87.50063
G1 X55.251 Y108.9 E94.45013
G1 X54.919 Y108.86 E94.47348
G1 X54.607 Y108.743 E94.49676
G1 X54.261 Y108.49 E94.5267
G1 X54.097 Y108.326 E94.5429
G1 X53.891 Y108.063 E94.56623
G1 X53.752 Y107.759 E94.58958
G1 X53.687 Y107.336 E94.61947
G1 X53.688 Y102.664 E94.94579
G1 X53.728 Y102.332 E94.96915
G1 X53.845 Y102.019 E94.99249
G1 X54.098 Y101.674 E95.02237
G1 X54.262 Y101.51 E95.03857
G1 X54.525 Y101.304 E95.0619
M204 S3000
M205 X10 Y10
G0 F3000 X54.867 Y101.754
M204 S1800
M205 X8 Y8
G1 F2400 X55.112 Y101.672 E95.07995
G1 X55.252 Y101.66 E95.08976
G1 X154.749 Y101.66 E102.03926
G1 X155.004 Y101.7 E102.05729
G1 X155.236 Y101.815 E102.07537
G1 X155.343 Y101.906 E102.08518
G1 X155.507 Y102.07 E102.10138
G1 X155.659 Y102.279 E102.11943
G1 X155.741 Y102.524 E102.13748
G1 X155.753 Y102.664 E102.14729
G1 X155.752 Y107.336 E102.47361
G1 X155.712 Y107.592 E102.49171
G1 X155.597 Y107.823 E102.50974
G1 X155.506 Y107.93 E102.51955
G1 X155.342 Y108.094 E102.53575
G1 X155.133 Y108.246 E102.5538
G1 X154.888 Y108.328 E102.57184
G1 X154.748 Y108.34 E102.58166
G1 X55.251 Y108.34 E109.53115
G1 X54.996 Y108.3 E109.54918
G1 X54.764 Y108.185 E109.56727
G1 X54.657 Y108.094 E109.57708
G1 X54.493 Y107.93 E109.59328
G1 X54.341 Y107.721 E109.61133
G1 X54.259 Y107.476 E109.62937
G1 X54.247 Y107.336 E109.63919
G1 X54.248 Y102.664 E109.96551
G1 X54.288 Y102.408 E109.98361
G1 X54.403 Y102.177 E110.00163
G1 X54.494 Y102.07 E110.01144
G1 X54.658 Y101.906 E110.02764
G1 X54.867 Y101.754 E110.04569
M204 S3000
M205 X10 Y10
G0 F3000 X55.054 Y102.302
M204 S1800
M205 X8 Y8
G1 F2400 X55.252 Y102.22 E110.06066
G1 X154.749 Y102.22 E117.01015
G1 X154.947 Y102.302 E117.02512
G1 X155.111 Y102.466 E117.04132
G1 X155.193 Y102.664 E117.05629
G1 X155.192 Y107.336 E117.38261
G1 X155.11 Y107.534 E117.39758
G1 X154.946 Y107.698 E117.41378
G1 X154.748 Y107.78 E117.42875
G1 X55.251 Y107.78 E124.37824
G1 X55.053 Y107.698 E124.39321
G1 X54.889 Y107.534 E124.40941
G1 X54.807 Y107.336 E124.42438
G1 X54.808 Y102.664 E124.7507
G1 X54.89 Y102.466 E124.76567
G1 X55.054 Y102.302 E124.78187
M204 S3000
M205 X10 Y10
G1 F2400 E118.78187
;MESH:c1c59fbc-61dc-44c0-aa1c-3a34b6571a92.stl
G0 F3000 X55.942 Y103.354
G0 X154.003 Y103.41
G0 X154.633 Y103.06
M204 S1800
M205 X8 Y8
;TYPE:WALL-OUTER
G1 F2400 E124.78187
G1 F1500 X154.632 Y107.22 E125.07243
G1 X55.647 Y107.22 E131.98617
G1 X55.367 Y107.22 E132.00572
G1 X55.367 Y106.94 E132.01838
G1 X55.368 Y102.78 E132.30894
G1 X154.353 Y102.78 E139.22268
G1 X154.633 Y102.78 E139.24223
G1 X154.633 Y103.06 E139.25489
M204 S3000
M205 X10 Y10
G0 F3000 X154.633 Y103.26
G0 X154.073 Y103.62
M204 S1800
M205 X8 Y8
;TYPE:WALL-INNER
G1 F1500 X154.072 Y106.66 E139.46723
G1 X56.207 Y106.66 E146.30273
G1 X55.927 Y106.66 E146.32229
G1 X55.927 Y106.38 E146.33495
G1 X55.928 Y103.34 E146.54728
G1 X153.793 Y103.34 E153.38279
G1 X154.073 Y103.34 E153.40235
G1 X154.073 Y103.62 E153.41501
M204 S3000
M205 X10 Y10
G0 F3000 X153.513 Y104.18
M204 S1800
M205 X8 Y8
G1 F1500 X153.512 Y106.1 E153.54911
G1 X56.767 Y106.1 E160.30639
G1 X56.487 Y106.1 E160.32595
G1 X56.487 Y105.82 E160.33861
G1 X56.488 Y103.9 E160.47271
G1 X153.233 Y103.9 E167.22999
G1 X153.513 Y103.9 E167.24955
G1 X153.513 Y104.18 E167.26221
M204 S3000
M205 X10 Y10
G0 F3000 X152.963 Y104.45
M204 S1800
M205 X8 Y8
;TYPE:SKIN
G1 F1500 X152.962 Y105.55 E167.33904
G1 X57.037 Y105.55 E174.03904
G1 X57.038 Y104.45 E174.11587
G1 X152.963 Y104.45 E180.81588
M204 S3000
M205 X10 Y10
G0 F3000 X152.701 Y105.184
M204 S1800
M205 X8 Y8
G1 F1500 X152.227 Y104.709 E180.86275
M204 S3000
M205 X10 Y10
G0 F3000 X152.015 Y105.289
M204 S1800
M205 X8 Y8
G1 F1500 X151.435 Y104.709 E180.92004
M204 S3000
M205 X10 Y10
G0 F3000 X151.223 Y105.289
M204 S1800
M205 X8 Y8
G1 F1500 X150.643 Y104.709 E180.97733
M204 S3000
M205 X10 Y10
G0 F3000 X150.431 Y105.289
M204 S1800
M205 X8 Y8
G1 F1500 X149.851 Y104.709 E181.03462
M204 S3000
M205 X10 Y10
G0 F3000 X149.639 Y105.289
M204 S1800
M205 X8 Y8
G1 F1500 X149.059 Y104.709 E181.09191
M204 S3000
M205 X10 Y10
G0 F3000 X148.847 Y105.289
M204 S1800
M205 X8 Y8
G1 F1500 X148.267 Y104.709 E181.1492
M204 S3000
M205 X10 Y10
G0 F3000 X148.055 Y105.289
M204 S1800
M205 X8 Y8
G1 F1500 X147.475 Y104.709 E181.20649
M204 S3000
M205 X10 Y10
G0 F3000 X147.263 Y105.289
M204 S1800
M205 X8 Y8
G1 F1500 X146.683 Y104.709 E181.26378
M204 S3000
M205 X10 Y10
G0 F3000 X146.471 Y105.289
M204 S1800
M205 X8 Y8
G1 F1500 X145.891 Y104.709 E181.32108
M204 S3000
M205 X10 Y10
G0 F3000 X145.679 Y105.289
M204 S1800
M205 X8 Y8
G1 F1500 X145.099 Y104.709 E181.37837
M204 S3000
M205 X10 Y10
G0 F3000 X144.887 Y105.289
M204 S1800
M205 X8 Y8
G1 F1500 X144.307 Y104.709 E181.43566
M204 S3000
M205 X10 Y10
G0 F3000 X144.095 Y105.289
M204 S1800
M205 X8 Y8
G1 F1500 X143.515 Y104.709 E181.49295
M204 S3000
M205 X10 Y10
G0 F3000 X143.303 Y105.289
M204 S1800
M205 X8 Y8
G1 F1500 X142.723 Y104.709 E181.55024
M204 S3000
M205 X10 Y10
G0 F3000 X142.511 Y105.289
M204 S1800
M205 X8 Y8
G1 F1500 X141.931 Y104.709 E181.60753
M204 S3000
M205 X10 Y10
G0 F3000 X141.719 Y105.289
M204 S1800
M205 X8 Y8
G1 F1500 X141.139 Y104.709 E181.66482
M204 S3000
M205 X10 Y10
G0 F3000 X140.927 Y105.289
M204 S1800
M205 X8 Y8
G1 F1500 X140.347 Y104.709 E181.72211
M204 S3000
M205 X10 Y10
G0 F3000 X140.135 Y105.289
M204 S1800
M205 X8 Y8
G1 F1500 X139.556 Y104.709 E181.77935
M204 S3000
M205 X10 Y10
G0 F3000 X139.343 Y105.289
M204 S1800
M205 X8 Y8
G1 F1500 X138.764 Y104.709 E181.8366
M204 S3000
M205 X10 Y10
G0 F3000 X138.551 Y105.289
M204 S1800
M205 X8 Y8
G1 F1500 X137.972 Y104.709 E181.89384
M204 S3000
M205 X10 Y10
G0 F3000 X137.759 Y105.289
M204 S1800
M205 X8 Y8
G1 F1500 X137.18 Y104.709 E181.95108
M204 S3000
M205 X10 Y10
G0 F3000 X136.967 Y105.289
M204 S1800
M205 X8 Y8
G1 F1500 X136.388 Y104.709 E182.00832
M204 S3000
M205 X10 Y10
G0 F3000 X136.176 Y105.289
M204 S1800
M205 X8 Y8
G1 F1500 X135.596 Y104.709 E182.06561
M204 S3000
M205 X10 Y10
G0 F3000 X135.384 Y105.289
M204 S1800
M205 X8 Y8
G1 F1500 X134.804 Y104.709 E182.1229
M204 S3000
M205 X10 Y10
G0 F3000 X134.592 Y105.289
M204 S1800
M205 X8 Y8
G1 F1500 X134.012 Y104.709 E182.18019
M204 S3000
M205 X10 Y10
G0 F3000 X133.8 Y105.289
M204 S1800
M205 X8 Y8
G1 F1500 X133.22 Y104.709 E182.23748
M204 S3000
M205 X10 Y10
G0 F3000 X133.008 Y105.289
M204 S1800
M205 X8 Y8
G1 F1500 X132.428 Y104.709 E182.29478
M204 S3000
M205 X10 Y10
G0 F3000 X132.216 Y105.289
M204 S1800
M205 X8 Y8
G1 F1500 X131.636 Y104.709 E182.35207
M204 S3000
M205 X10 Y10
G0 F3000 X131.424 Y105.289
M204 S1800
M205 X8 Y8
G1 F1500 X130.844 Y104.709 E182.40936
M204 S3000
M205 X10 Y10
G0 F3000 X130.632 Y105.289
M204 S1800
M205 X8 Y8
G1 F1500 X130.052 Y104.709 E182.46665
M204 S3000
M205 X10 Y10
G0 F3000 X129.84 Y105.289
M204 S1800
M205 X8 Y8
G1 F1500 X129.26 Y104.709 E182.52394
M204 S3000
M205 X10 Y10
G0 F3000 X129.048 Y105.289
M204 S1800
M205 X8 Y8
G1 F1500 X128.468 Y104.709 E182.58123
M204 S3000
M205 X10 Y10
G0 F3000 X128.256 Y105.289
M204 S1800
M205 X8 Y8
G1 F1500 X127.676 Y104.709 E182.63852
M204 S3000
M205 X10 Y10
G0 F3000 X127.464 Y105.289
M204 S1800
M205 X8 Y8
G1 F1500 X126.884 Y104.709 E182.69581
M204 S3000
M205 X10 Y10
G0 F3000 X126.672 Y105.289
M204 S1800
M205 X8 Y8
G1 F1500 X126.092 Y104.709 E182.7531
M204 S3000
M205 X10 Y10
G0 F3000 X125.88 Y105.289
M204 S1800
M205 X8 Y8
G1 F1500 X125.3 Y104.709 E182.81039
M204 S3000
M205 X10 Y10
G0 F3000 X125.088 Y105.289
M204 S1800
M205 X8 Y8
G1 F1500 X124.508 Y104.709 E182.86769
M204 S3000
M205 X10 Y10
G0 F3000 X124.296 Y105.289
M204 S1800
M205 X8 Y8
