;FLAVOR:Marlin
;TIME:4123
;Filament used: 5.00286m
;Layer height: 0.2
;Generated with Cura_SteamEngine 3.6.0
M140 S70
M105
M190 S70
M104 S200
M105
M109 S200
M82 ;absolute extrusion mode
G21 ;metric values
G90 ;absolute positioning
M82 ;set extruder to absolute mode
M107 ;start with the fan off
G28 X0 Y0 ;move X/Y to min endstops
G28 Z0 ;move Z to min endstops
G1 Z15.0 F100 ;move the platform down 15mm
G92 E0 ;zero the extruded length
G1 F200 E3 ;extrude 3mm of feed stock
G92 E0 ;zero the extruded length again
G1 F100
M117 Printing...
G5
G92 E0
G1 F2400 E-6
;LAYER_COUNT:433
;LAYER:0
M106 S255
M204 S3000
M205 X10 Y10
;MESH:e8e1c8df-af76-44b0-9f64-bd7affd16ab9.stl
G0 F3000 X153.513 Y104.18 Z0.3
M204 S1800
M205 X8 Y8
;TYPE:WALL-INNER
G1 F2400 E0
G1 F1500 X153.512 Y106.1 E0.1341
G1 X56.767 Y106.1 E6.89138
G1 X56.487 Y106.1 E6.91094
G1 X56.487 Y105.82 E6.9236
G1 X56.488 Y103.9 E7.05771
G1 X153.233 Y103.9 E13.81498
G1 X153.513 Y103.9 E13.83454
G1 X153.513 Y104.18 E13.8472
M204 S3000
M205 X10 Y10
G0 F3000 X154.073 Y103.62
M204 S1800
M205 X8 Y8
G1 F1500 X154.072 Y106.66 E14.05953
G1 X56.207 Y106.66 E20.89504
G1 X55.927 Y106.66 E20.9146
G1 X55.927 Y106.38 E20.92726
G1 X55.928 Y103.34 E21.13959
G1 X153.793 Y103.34 E27.9751
G1 X154.073 Y103.34 E27.99465
G1 X154.073 Y103.62 E28.00731
M204 S3000
M205 X10 Y10
G0 F3000 X154.633 Y103.06
M204 S1800
M205 X8 Y8
;TYPE:WALL-OUTER
G1 F1500 X154.632 Y107.22 E28.29787
G1 X55.647 Y107.22 E35.21161
G1 X55.367 Y107.22 E35.23116
G1 X55.367 Y106.94 E35.24382
G1 X55.368 Y102.78 E35.53438
G1 X154.353 Y102.78 E42.44812
G1 X154.633 Y102.78 E42.46768
G1 X154.633 Y103.06 E42.48034
M204 S3000
M205 X10 Y10
G0 F3000 X154.633 Y103.26
G0 X154.003 Y103.41
G0 X152.963 Y104.45
M204 S1800
M205 X8 Y8
;TYPE:SKIN
G1 F1500 X152.962 Y105.55 E42.55717
G1 X57.037 Y105.55 E49.25717
G1 X57.038 Y104.45 E49.334
G1 X152.963 Y104.45 E56.03401
M204 S3000
M205 X10 Y10
G0 F3000 X152.701 Y105.184
M204 S1800
M205 X8 Y8
G1 F1500 X152.227 Y104.709 E56.08088
M204 S3000
M205 X10 Y10
G0 F3000 X152.015 Y105.289
M204 S1800
M205 X8 Y8
G1 F1500 X151.435 Y104.709 E56.13817
M204 S3000
M205 X10 Y10
G0 F3000 X151.223 Y105.289
M204 S1800
M205 X8 Y8
G1 F1500 X150.643 Y104.709 E56.19546
M204 S3000
M205 X10 Y10
G0 F3000 X150.431 Y105.289
M204 S1800
M205 X8 Y8
G1 F1500 X149.851 Y104.709 E56.25275
M204 S3000
M205 X10 Y10
G0 F3000 X149.639 Y105.289
M204 S1800
M205 X8 Y8
G1 F1500 X149.059 Y104.709 E56.31004
M204 S3000
M205 X10 Y10
G0 F3000 X148.847 Y105.289
M204 S1800
M205 X8 Y8
G1 F1500 X148.267 Y104.709 E56.36733
M204 S3000
M205 X10 Y10
G0 F3000 X148.055 Y105.289
M204 S1800
M205 X8 Y8
G1 F1500 X147.475 Y104.709 E56.42462
M204 S3000
M205 X10 Y10
G0 F3000 X147.263 Y105.289
M204 S1800
M205 X8 Y8
G1 F1500 X146.683 Y104.709 E56.48191
M204 S3000
M205 X10 Y10
G0 F3000 X146.471 Y105.289
M204 S1800
M205 X8 Y8
G1 F1500 X145.891 Y104.709 E56.5392
M204 S3000
M205 X10 Y10
G0 F3000 X145.679 Y105.289
M204 S1800
M205 X8 Y8
G1 F1500 X145.099 Y104.709 E56.5965
M204 S3000
M205 X10 Y10
G0 F3000 X144.887 Y105.289
M204 S1800
M205 X8 Y8
G1 F1500 X144.307 Y104.709 E56.65379
M204 S3000
M205 X10 Y10
G0 F3000 X144.095 Y105.289
M204 S1800
M205 X8 Y8
G1 F1500 X143.515 Y104.709 E56.71108
M204 S3000
M205 X10 Y10
G0 F3000 X143.303 Y105.289
M204 S1800
M205 X8 Y8
G1 F1500 X142.723 Y104.709 E56.76837
M204 S3000
M205 X10 Y10
G0 F3000 X142.511 Y105.289
M204 S1800
M205 X8 Y8
G1 F1500 X141.931 Y104.709 E56.82566
M204 S3000
M205 X10 Y10
G0 F3000 X141.719 Y105.289
M204 S1800
M205 X8 Y8
G1 F1500 X141.139 Y104.709 E56.88295
M204 S3000
M205 X10 Y10
G0 F3000 X140.927 Y105.289
M204 S1800
M205 X8 Y8
G1 F1500 X140.347 Y104.709 E56.94024
M204 S3000
M205 X10 Y10
G0 F3000 X140.135 Y105.289
M204 S1800
M205 X8 Y8
G1 F1500 X139.556 Y104.709 E56.99748
M204 S3000
M205 X10 Y10
G0 F3000 X139.343 Y105.289
M204 S1800
M205 X8 Y8
G1 F1500 X138.764 Y104.709 E57.05472
M204 S3000
M205 X10 Y10
G0 F3000 X138.551 Y105.289
M204 S1800
M205 X8 Y8
G1 F1500 X137.972 Y104.709 E57.11197
M204 S3000
M205 X10 Y10
G0 F3000 X137.759 Y105.289
M204 S1800
M205 X8 Y8
G1 F1500 X137.18 Y104.709 E57.16921
M204 S3000
M205 X10 Y10
G0 F3000 X136.967 Y105.289
M204 S1800
M205 X8 Y8
G1 F1500 X136.388 Y104.709 E57.22645
M204 S3000
M205 X10 Y10
G0 F3000 X136.176 Y105.289
M204 S1800
M205 X8 Y8
G1 F1500 X135.596 Y104.709 E57.28374
M204 S3000
M205 X10 Y10
G0 F3000 X135.384 Y105.289
M204 S1800
M205 X8 Y8
G1 F1500 X134.804 Y104.709 E57.34103
M204 S3000
M205 X10 Y10
G0 F3000 X134.592 Y105.289
M204 S1800
M205 X8 Y8
G1 F1500 X134.012 Y104.709 E57.39832
M204 S3000
M205 X10 Y10
G0 F3000 X133.8 Y105.289
M204 S1800
M205 X8 Y8
G1 F1500 X133.22 Y104.709 E57.45561
M204 S3000
M205 X10 Y10
G0 F3000 X133.008 Y105.289
M204 S1800
M205 X8 Y8
G1 F1500 X132.428 Y104.709 E57.5129
M204 S3000
M205 X10 Y10
G0 F3000 X132.216 Y105.289
M204 S1800
M205 X8 Y8
G1 F1500 X131.636 Y104.709 E57.5702
M204 S3000
M205 X10 Y10
G0 F3000 X131.424 Y105.289
M204 S1800
M205 X8 Y8
G1 F1500 X130.844 Y104.709 E57.62749
M204 S3000
M205 X10 Y10
G0 F3000 X130.632 Y105.289
M204 S1800
M205 X8 Y8
G1 F1500 X130.052 Y104.709 E57.68478
M204 S3000
M205 X10 Y10
G0 F3000 X129.84 Y105.289
M204 S1800
M205 X8 Y8
G1 F1500 X129.26 Y104.709 E57.74207
M204 S3000
M205 X10 Y10
G0 F3000 X129.048 Y105.289
M204 S1800
M205 X8 Y8
G1 F1500 X128.468 Y104.709 E57.79936
M204 S3000
M205 X10 Y10
G0 F3000 X128.256 Y105.289
M204 S1800
M205 X8 Y8
G1 F1500 X127.676 Y104.709 E57.85665
M204 S3000
M205 X10 Y10
G0 F3000 X127.464 Y105.289
M204 S1800
M205 X8 Y8
G1 F1500 X126.884 Y104.709 E57.91394
M204 S3000
M205 X10 Y10
G0 F3000 X126.672 Y105.289
M204 S1800
M205 X8 Y8
G1 F1500 X126.092 Y104.709 E57.97123
M204 S3000
M205 X10 Y10
G0 F3000 X125.88 Y105.289
M204 S1800
M205 X8 Y8
G1 F1500 X125.3 Y104.709 E58.02852
M204 S3000
M205 X10 Y10
G0 F3000 X125.088 Y105.289
M204 S1800
M205 X8 Y8
G1 F1500 X124.508 Y104.709 E58.08581
M204 S3000
M205 X10 Y10
G0 F3000 X124.296 Y105.289
M204 S1800
M205 X8 Y8
G1 F1500 X123.716 Y104.709 E58.14311
M204 S3000
M205 X10 Y10
G0 F3000 X123.504 Y105.289
M204 S1800
M205 X8 Y8
G1 F1500 X122.924 Y104.709 E58.2004
M204 S3000
M205 X10 Y10
G0 F3000 X122.712 Y105.289
M204 S1800
M205 X8 Y8
G1 F1500 X122.132 Y104.709 E58.25769
M204 S3000
M205 X10 Y10
G0 F3000 X121.92 Y105.289
M204 S1800
M205 X8 Y8
G1 F1500 X121.34 Y104.709 E58.31498
M204 S3000
M205 X10 Y10
G0 F3000 X121.128 Y105.289
M204 S1800
M205 X8 Y8
G1 F1500 X120.548 Y104.709 E58.37227
M204 S3000
M205 X10 Y10
G0 F3000 X120.336 Y105.289
M204 S1800
M205 X8 Y8
G1 F1500 X119.757 Y104.709 E58.42951
M204 S3000
M205 X10 Y10
G0 F3000 X119.544 Y105.289
M204 S1800
M205 X8 Y8
G1 F1500 X118.965 Y104.709 E58.48675
M204 S3000
M205 X10 Y10
G0 F3000 X118.752 Y105.289
M204 S1800
M205 X8 Y8
G1 F1500 X118.173 Y104.709 E58.54399
M204 S3000
M205 X10 Y10
G0 F3000 X117.96 Y105.289
M204 S1800
M205 X8 Y8
G1 F1500 X117.381 Y104.709 E58.60124
M204 S3000
M205 X10 Y10
G0 F3000 X117.169 Y105.289
M204 S1800
M205 X8 Y8
G1 F1500 X116.589 Y104.709 E58.65853
M204 S3000
M205 X10 Y10
G0 F3000 X116.377 Y105.289
M204 S1800
M205 X8 Y8
G1 F1500 X115.797 Y104.709 E58.71582
M204 S3000
M205 X10 Y10
G0 F3000 X115.585 Y105.289
M204 S1800
M205 X8 Y8
G1 F1500 X115.005 Y104.709 E58.77311
M204 S3000
M205 X10 Y10
G0 F3000 X114.793 Y105.289
M204 S1800
M205 X8 Y8
G1 F1500 X114.213 Y104.709 E58.8304
M204 S3000
M205 X10 Y10
G0 F3000 X114.001 Y105.289
M204 S1800
M205 X8 Y8
G1 F1500 X113.421 Y104.709 E58.88769
M204 S3000
M205 X10 Y10
G0 F3000 X113.209 Y105.289
M204 S1800
M205 X8 Y8
G1 F1500 X112.629 Y104.709 E58.94498
M204 S3000
M205 X10 Y10
G0 F3000 X112.417 Y105.289
M204 S1800
M205 X8 Y8
G1 F1500 X111.837 Y104.709 E59.00227
M204 S3000
M205 X10 Y10
G0 F3000 X111.625 Y105.289
M204 S1800
M205 X8 Y8
G1 F1500 X111.045 Y104.709 E59.05956
M204 S3000
M205 X10 Y10
G0 F3000 X110.833 Y105.289
M204 S1800
M205 X8 Y8
G1 F1500 X110.253 Y104.709 E59.11685
M204 S3000
M205 X10 Y10
G0 F3000 X110.041 Y105.289
M204 S1800
M205 X8 Y8
G1 F1500 X109.461 Y104.709 E59.17415
M204 S3000
M205 X10 Y10
G0 F3000 X109.249 Y105.289
M204 S1800
M205 X8 Y8
G1 F1500 X108.669 Y104.709 E59.23144
M204 S3000
M205 X10 Y10
G0 F3000 X108.457 Y105.289
M204 S1800
M205 X8 Y8
G1 F1500 X107.877 Y104.709 E59.28873
M204 S3000
M205 X10 Y10
G0 F3000 X107.665 Y105.289
M204 S1800
M205 X8 Y8
G1 F1500 X107.085 Y104.709 E59.34602
M204 S3000
M205 X10 Y10
G0 F3000 X106.873 Y105.289
M204 S1800
M205 X8 Y8
G1 F1500 X106.293 Y104.709 E59.40331
M204 S3000
M205 X10 Y10
G0 F3000 X106.081 Y105.289
M204 S1800
M205 X8 Y8
G1 F1500 X105.501 Y104.709 E59.4606
M204 S3000
M205 X10 Y10
G0 F3000 X105.289 Y105.289
M204 S1800
M205 X8 Y8
G1 F1500 X104.709 Y104.709 E59.51789
M204 S3000
M205 X10 Y10
G0 F3000 X104.497 Y105.289
M204 S1800
M205 X8 Y8
G1 F1500 X103.917 Y104.709 E59.57518
M204 S3000
M205 X10 Y10
G0 F3000 X103.705 Y105.289
M204 S1800
M205 X8 Y8
G1 F1500 X103.125 Y104.709 E59.63247
M204 S3000
M205 X10 Y10
G0 F3000 X102.913 Y105.289
M204 S1800
M205 X8 Y8
G1 F1500 X102.333 Y104.709 E59.68976
M204 S3000
M205 X10 Y10
G0 F3000 X102.121 Y105.289
M204 S1800
M205 X8 Y8
G1 F1500 X101.541 Y104.709 E59.74706
M204 S3000
M205 X10 Y10
G0 F3000 X101.329 Y105.289
M204 S1800
M205 X8 Y8
G1 F1500 X100.749 Y104.709 E59.80435
M204 S3000
M205 X10 Y10
G0 F3000 X100.537 Y105.289
M204 S1800
M205 X8 Y8
G1 F1500 X99.958 Y104.709 E59.86159
M204 S3000
M205 X10 Y10
G0 F3000 X99.745 Y105.289
M204 S1800
M205 X8 Y8
G1 F1500 X99.166 Y104.709 E59.91883
M204 S3000
M205 X10 Y10
G0 F3000 X98.953 Y105.289
M204 S1800
M205 X8 Y8
G1 F1500 X98.374 Y104.709 E59.97607
M204 S3000
M205 X10 Y10
G0 F3000 X98.161 Y105.289
M204 S1800
M205 X8 Y8
G1 F1500 X97.582 Y104.709 E60.03331
M204 S3000
M205 X10 Y10
G0 F3000 X97.37 Y105.289
M204 S1800
M205 X8 Y8
G1 F1500 X96.79 Y104.709 E60.0906
M204 S3000
M205 X10 Y10
G0 F3000 X96.578 Y105.289
M204 S1800
M205 X8 Y8
G1 F1500 X95.998 Y104.709 E60.14789
M204 S3000
M205 X10 Y10
G0 F3000 X95.786 Y105.289
M204 S1800
M205 X8 Y8
G1 F1500 X95.206 Y104.709 E60.20519
M204 S3000
M205 X10 Y10
G0 F3000 X94.994 Y105.289
M204 S1800
M205 X8 Y8
G1 F1500 X94.414 Y104.709 E60.26248
M204 S3000
M205 X10 Y10
G0 F3000 X94.202 Y105.289
M204 S1800
M205 X8 Y8
G1 F1500 X93.622 Y104.709 E60.31977
M204 S3000
M205 X10 Y10
G0 F3000 X93.41 Y105.289
M204 S1800
M205 X8 Y8
G1 F1500 X92.83 Y104.709 E60.37706
M204 S3000
M205 X10 Y10
G0 F3000 X92.618 Y105.289
M204 S1800
M205 X8 Y8
G1 F1500 X92.038 Y104.709 E60.43435
M204 S3000
M205 X10 Y10
G0 F3000 X91.826 Y105.289
M204 S1800
M205 X8 Y8
G1 F1500 X91.246 Y104.709 E60.49164
M204 S3000
M205 X10 Y10
G0 F3000 X91.034 Y105.289
M204 S1800
M205 X8 Y8
G1 F1500 X90.454 Y104.709 E60.54893
M204 S3000
M205 X10 Y10
G0 F3000 X90.242 Y105.289
M204 S1800
M205 X8 Y8
G1 F1500 X89.662 Y104.709 E60.60622
M204 S3000
M205 X10 Y10
G0 F3000 X89.45 Y105.289
M204 S1800
M205 X8 Y8
G1 F1500 X88.87 Y104.709 E60.66351
M204 S3000
M205 X10 Y10
G0 F3000 X88.658 Y105.289
M204 S1800
M205 X8 Y8
G1 F1500 X88.078 Y104.709 E60.7208
M204 S3000
M205 X10 Y10
G0 F3000 X87.866 Y105.289
M204 S1800
M205 X8 Y8
G1 F1500 X87.286 Y104.709 E60.7781
M204 S3000
M205 X10 Y10
G0 F3000 X87.074 Y105.289
M204 S1800
M205 X8 Y8
G1 F1500 X86.494 Y104.709 E60.83539
M204 S3000
M205 X10 Y10
G0 F3000 X86.282 Y105.289
M204 S1800
M205 X8 Y8
G1 F1500 X85.702 Y104.709 E60.89268
M204 S3000
M205 X10 Y10
G0 F3000 X85.49 Y105.289
M204 S1800
M205 X8 Y8
G1 F1500 X84.91 Y104.709 E60.94997
M204 S3000
M205 X10 Y10
G0 F3000 X84.698 Y105.289
M204 S1800
M205 X8 Y8
G1 F1500 X84.118 Y104.709 E61.00726
M204 S3000
M205 X10 Y10
G0 F3000 X83.906 Y105.289
M204 S1800
M205 X8 Y8
G1 F1500 X83.326 Y104.709 E61.06455
M204 S3000
M205 X10 Y10
G0 F3000 X83.114 Y105.289
M204 S1800
M205 X8 Y8
G1 F1500 X82.534 Y104.709 E61.12184
M204 S3000
M205 X10 Y10
G0 F3000 X82.322 Y105.289
M204 S1800
M205 X8 Y8
G1 F1500 X81.742 Y104.709 E61.17913
M204 S3000
M205 X10 Y10
G0 F3000 X81.53 Y105.289
M204 S1800
M205 X8 Y8
G1 F1500 X80.95 Y104.709 E61.23642
M204 S3000
M205 X10 Y10
G0 F3000 X80.738 Y105.289
M204 S1800
M205 X8 Y8
G1 F1500 X80.159 Y104.709 E61.29367
M204 S3000
M205 X10 Y10
G0 F3000 X79.946 Y105.289
M204 S1800
M205 X8 Y8
G1 F1500 X79.367 Y104.709 E61.35091
M204 S3000
M205 X10 Y10
G0 F3000 X79.154 Y105.289
M204 S1800
M205 X8 Y8
G1 F1500 X78.575 Y104.709 E61.40815
M204 S3000
M205 X10 Y10
G0 F3000 X78.362 Y105.289
M204 S1800
M205 X8 Y8
G1 F1500 X77.783 Y104.709 E61.46539
M204 S3000
M205 X10 Y10
G0 F3000 X77.571 Y105.289
M204 S1800
M205 X8 Y8
G1 F1500 X76.991 Y104.709 E61.52268
M204 S3000
M205 X10 Y10
G0 F3000 X76.779 Y105.289
M204 S1800
M205 X8 Y8
G1 F1500 X76.199 Y104.709 E61.57997
M204 S3000
M205 X10 Y10
G0 F3000 X75.987 Y105.289
M204 S1800
M205 X8 Y8
G1 F1500 X75.407 Y104.709 E61.63726
M204 S3000
M205 X10 Y10
G0 F3000 X75.195 Y105.289
M204 S1800
M205 X8 Y8
G1 F1500 X74.615 Y104.709 E61.69455
M204 S3000
M205 X10 Y10
G0 F3000 X74.403 Y105.289
M204 S1800
M205 X8 Y8
G1 F1500 X73.823 Y104.709 E61.75184
M204 S3000
M205 X10 Y10
G0 F3000 X73.611 Y105.289
M204 S1800
M205 X8 Y8
G1 F1500 X73.031 Y104.709 E61.80914
M204 S3000
M205 X10 Y10
G0 F3000 X72.819 Y105.289
M204 S1800
M205 X8 Y8
G1 F1500 X72.239 Y104.709 E61.86643
M204 S3000
M205 X10 Y10
G0 F3000 X72.027 Y105.289
M204 S1800
M205 X8 Y8
G1 F1500 X71.447 Y104.709 E61.92372
M204 S3000
M205 X10 Y10
G0 F3000 X71.235 Y105.289
M204 S1800
M205 X8 Y8
G1 F1500 X70.655 Y104.709 E61.98101
M204 S3000
M205 X10 Y10
G0 F3000 X70.443 Y105.289
M204 S1800
M205 X8 Y8
G1 F1500 X69.863 Y104.709 E62.0383
M204 S3000
M205 X10 Y10
G0 F3000 X69.651 Y105.289
M204 S1800
M205 X8 Y8
G1 F1500 X69.071 Y104.709 E62.09559
M204 S3000
M205 X10 Y10
G0 F3000 X68.859 Y105.289
M204 S1800
M205 X8 Y8
G1 F1500 X68.279 Y104.709 E62.15288
M204 S3000
M205 X10 Y10
G0 F3000 X68.067 Y105.289
M204 S1800
M205 X8 Y8
G1 F1500 X67.487 Y104.709 E62.21017
M204 S3000
M205 X10 Y10
G0 F3000 X67.275 Y105.289
M204 S1800
M205 X8 Y8
G1 F1500 X66.695 Y104.709 E62.26746
M204 S3000
M205 X10 Y10
G0 F3000 X66.483 Y105.289
M204 S1800
M205 X8 Y8
G1 F1500 X65.903 Y104.709 E62.32475
M204 S3000
M205 X10 Y10
G0 F3000 X65.691 Y105.289
M204 S1800
M205 X8 Y8
G1 F1500 X65.111 Y104.709 E62.38205
M204 S3000
M205 X10 Y10
G0 F3000 X64.899 Y105.289
M204 S1800
M205 X8 Y8
G1 F1500 X64.319 Y104.709 E62.43934
M204 S3000
M205 X10 Y10
G0 F3000 X64.107 Y105.289
M204 S1800
M205 X8 Y8
G1 F1500 X63.527 Y104.709 E62.49663
M204 S3000
M205 X10 Y10
G0 F3000 X63.315 Y105.289
M204 S1800
M205 X8 Y8
G1 F1500 X62.735 Y104.709 E62.55392
M204 S3000
M205 X10 Y10
G0 F3000 X62.523 Y105.289
M204 S1800
M205 X8 Y8
G1 F1500 X61.943 Y104.709 E62.61121
M204 S3000
M205 X10 Y10
G0 F3000 X61.731 Y105.289
M204 S1800
M205 X8 Y8
G1 F1500 X61.152 Y104.709 E62.66845
M204 S3000
M205 X10 Y10
G0 F3000 X60.939 Y105.289
M204 S1800
M205 X8 Y8
G1 F1500 X60.36 Y104.709 E62.72569
M204 S3000
M205 X10 Y10
G0 F3000 X60.147 Y105.289
M204 S1800
M205 X8 Y8
G1 F1500 X59.568 Y104.709 E62.78293
M204 S3000
M205 X10 Y10
G0 F3000 X59.355 Y105.289
M204 S1800
M205 X8 Y8
G1 F1500 X58.776 Y104.709 E62.84018
M204 S3000
M205 X10 Y10
G0 F3000 X58.563 Y105.289
M204 S1800
M205 X8 Y8
G1 F1500 X57.984 Y104.709 E62.89742
M204 S3000
M205 X10 Y10
G0 F3000 X57.772 Y105.289
M204 S1800
M205 X8 Y8
G1 F1500 X57.296 Y104.814 E62.94439
M204 S3000
M205 X10 Y10
;MESH:NONMESH
G0 F3000 X153.769 Y103.7
;TIME_ELAPSED:50.983571
;LAYER:1
M140 S70
;MESH:e8e1c8df-af76-44b0-9f64-bd7affd16ab9.stl
G0 F4500 X153.769 Y103.7 Z0.5
M204 S1800
M205 X8 Y8
;TYPE:WALL-INNER
G1 F2250 X153.768 Y106.5 E63.03751
G1 X56.431 Y106.5 E66.27496
G1 X56.231 Y106.5 E66.28161
G1 X56.231 Y106.3 E66.28592
G1 X56.232 Y103.5 E66.37904
G1 X153.569 Y103.5 E69.61649
G1 X153.769 Y103.5 E69.62314
G1 X153.769 Y103.7 E69.62745
M204 S3000
M205 X10 Y10
G0 F4500 X154.169 Y103.3
M204 S1800
M205 X8 Y8
G1 F2250 X154.168 Y106.9 E69.74718
G1 X56.031 Y106.9 E73.01123
G1 X55.831 Y106.9 E73.01788
G1 X55.831 Y106.7 E73.02219
G1 X55.832 Y103.1 E73.14193
G1 X153.969 Y103.1 E76.40598
G1 X154.169 Y103.1 E76.41263
G1 X154.169 Y103.3 E76.41694
M204 S3000
M205 X10 Y10
G0 F4500 X154.569 Y102.9
M204 S1800
M205 X8 Y8
;TYPE:WALL-OUTER
G1 F2250 X154.568 Y107.3 E76.56328
G1 X55.631 Y107.3 E79.85394
G1 X55.431 Y107.3 E79.86059
