;FLAVOR:Marlin
;TIME:9485
;Filament used: 13.6098m
;Layer height: 0.2
;Generated with Cura_SteamEngine 3.6.0
M140 S85
M105
M190 S85
M104 S215
M105
M109 S215
M82 ;absolute extrusion mode
G21 ;metric values
G90 ;absolute positioning
M82 ;set extruder to absolute mode
M107 ;start with the fan off
G28 X0 Y0 ;move X/Y to min endstops
G28 Z0 ;move Z to min endstops
G1 Z15.0 F100 ;move the platform down 15mm
G92 E0 ;zero the extruded length
G1 F200 E3 ;extrude 3mm of feed stock
G92 E0 ;zero the extruded length again
G1 F100
M117 Printing...
G5
G92 E0
G1 F2400 E-6
;LAYER_COUNT:500
;LAYER:0
M106 S255
M204 S3000
M205 X10 Y10
G0 F3000 X53.111 Y98.249 Z0.3
M204 S1800
M205 X8 Y8
;TYPE:SKIRT
G1 F2400 E0
G1 X53.645 Y98.024 E0.04047
G1 X54.205 Y97.876 E0.08093
G1 X55 Y97.8 E0.13671
G1 X155 Y97.8 E7.12134
G1 X155.578 Y97.84 E7.16181
G1 X156.145 Y97.959 E7.20227
G1 X156.69 Y98.155 E7.24273
G1 X157.203 Y98.424 E7.28318
G1 X157.674 Y98.761 E7.32364
G1 X158.094 Y99.16 E7.3641
G1 X158.456 Y99.613 E7.4046
G1 X158.751 Y100.111 E7.44503
G1 X158.976 Y100.645 E7.4855
G1 X159.124 Y101.205 E7.52596
G1 X159.2 Y102 E7.58174
G1 X159.2 Y108 E8.00082
G1 X159.16 Y108.578 E8.04129
G1 X159.041 Y109.145 E8.08175
G1 X158.845 Y109.69 E8.1222
G1 X158.576 Y110.203 E8.16266
G1 X158.239 Y110.674 E8.20311
G1 X157.84 Y111.094 E8.24358
G1 X157.387 Y111.456 E8.28408
G1 X156.889 Y111.751 E8.32451
G1 X156.355 Y111.976 E8.36498
G1 X155.795 Y112.124 E8.40544
G1 X155 Y112.2 E8.46122
G1 X55 Y112.2 E15.44585
G1 X54.422 Y112.16 E15.48631
G1 X53.855 Y112.041 E15.52678
G1 X53.31 Y111.845 E15.56723
G1 X52.797 Y111.576 E15.60769
G1 X52.326 Y111.239 E15.64814
G1 X51.906 Y110.84 E15.68861
G1 X51.544 Y110.387 E15.72911
G1 X51.249 Y109.889 E15.76954
G1 X51.024 Y109.355 E15.81001
G1 X50.876 Y108.795 E15.85047
G1 X50.8 Y108 E15.90625
G1 X50.8 Y102 E16.32532
G1 X50.84 Y101.422 E16.36579
G1 X50.959 Y100.855 E16.40626
G1 X51.155 Y100.31 E16.44671
G1 X51.424 Y99.797 E16.48717
G1 X51.761 Y99.326 E16.52762
G1 X52.16 Y98.906 E16.56808
G1 X52.613 Y98.544 E16.60859
G1 X53.111 Y98.249 E16.64901
M204 S3000
M205 X10 Y10
G0 F3000 X53.151 Y98.865
M204 S1800
M205 X8 Y8
G1 F2400 X53.635 Y98.626 E16.68672
G1 X54.148 Y98.461 E16.72435
G1 X54.68 Y98.374 E16.76201
G1 X55 Y98.36 E16.78438
G1 X155 Y98.36 E23.76901
G1 X155.538 Y98.4 E23.80669
G1 X156.064 Y98.519 E23.84436
G1 X156.566 Y98.714 E23.88197
G1 X157.035 Y98.982 E23.9197
G1 X157.458 Y99.315 E23.9573
G1 X157.828 Y99.708 E23.995
G1 X158.135 Y100.151 E24.03265
G1 X158.374 Y100.635 E24.07035
G1 X158.539 Y101.148 E24.10799
G1 X158.626 Y101.68 E24.14564
G1 X158.64 Y102 E24.16801
G1 X158.64 Y108 E24.58709
G1 X158.6 Y108.538 E24.62477
G1 X158.481 Y109.064 E24.66244
G1 X158.286 Y109.566 E24.70006
G1 X158.018 Y110.035 E24.73778
G1 X157.685 Y110.458 E24.77539
G1 X157.292 Y110.828 E24.81309
G1 X156.849 Y111.135 E24.85073
G1 X156.365 Y111.374 E24.88843
G1 X155.852 Y111.539 E24.92607
G1 X155.32 Y111.626 E24.96373
G1 X155 Y111.64 E24.9861
G1 X55 Y111.64 E31.97073
G1 X54.462 Y111.6 E32.00841
G1 X53.936 Y111.481 E32.04607
G1 X53.434 Y111.286 E32.08369
G1 X52.965 Y111.018 E32.12142
G1 X52.542 Y110.685 E32.15902
G1 X52.172 Y110.292 E32.19672
G1 X51.865 Y109.849 E32.23437
G1 X51.626 Y109.365 E32.27207
G1 X51.461 Y108.852 E32.30971
G1 X51.374 Y108.32 E32.34736
G1 X51.36 Y108 E32.36973
G1 X51.36 Y102 E32.78881
G1 X51.4 Y101.462 E32.82649
G1 X51.519 Y100.936 E32.86416
G1 X51.714 Y100.434 E32.90177
G1 X51.982 Y99.965 E32.9395
G1 X52.315 Y99.542 E32.9771
G1 X52.708 Y99.172 E33.01481
G1 X53.151 Y98.865 E33.05245
M204 S3000
M205 X10 Y10
G0 F3000 X53.682 Y99.216
M204 S1800
M205 X8 Y8
G1 F2400 X54.145 Y99.041 E33.08702
G1 X54.632 Y98.942 E33.12173
G1 X55 Y98.92 E33.14748
G1 X155 Y98.92 E40.13211
G1 X155.494 Y98.96 E40.16673
G1 X155.976 Y99.079 E40.2014
G1 X156.432 Y99.273 E40.23602
G1 X156.851 Y99.538 E40.27064
G1 X157.222 Y99.868 E40.30533
G1 X157.536 Y100.252 E40.33997
G1 X157.784 Y100.682 E40.37464
G1 X157.959 Y101.145 E40.40921
G1 X158.058 Y101.632 E40.44393
G1 X158.08 Y102 E40.46967
G1 X158.08 Y108 E40.88875
G1 X158.04 Y108.494 E40.92337
G1 X157.921 Y108.976 E40.95805
G1 X157.727 Y109.432 E40.99266
G1 X157.462 Y109.851 E41.02729
G1 X157.132 Y110.222 E41.06197
G1 X156.748 Y110.536 E41.09661
G1 X156.318 Y110.784 E41.13128
G1 X155.855 Y110.959 E41.16586
G1 X155.368 Y111.058 E41.20057
G1 X155 Y111.08 E41.22632
G1 X55 Y111.08 E48.21094
G1 X54.506 Y111.04 E48.24556
G1 X54.024 Y110.921 E48.28024
G1 X53.568 Y110.727 E48.31485
G1 X53.149 Y110.462 E48.34948
G1 X52.778 Y110.132 E48.38416
G1 X52.464 Y109.748 E48.41881
G1 X52.216 Y109.318 E48.45348
G1 X52.041 Y108.855 E48.48805
G1 X51.942 Y108.368 E48.52276
G1 X51.92 Y108 E48.54851
G1 X51.92 Y102 E48.96759
G1 X51.96 Y101.506 E49.0022
G1 X52.079 Y101.024 E49.03688
G1 X52.273 Y100.568 E49.07149
G1 X52.538 Y100.149 E49.10612
G1 X52.868 Y99.778 E49.1408
G1 X53.252 Y99.464 E49.17545
G1 X53.682 Y99.216 E49.21012
M204 S3000
M205 X10 Y10
G0 F3000 X53.789 Y99.79
M204 S1800
M205 X8 Y8
G1 F2400 X54.2 Y99.61 E49.24146
G1 X54.636 Y99.506 E49.27276
G1 X55 Y99.48 E49.29825
G1 X155 Y99.48 E56.28288
G1 X155.447 Y99.52 E56.31423
G1 X155.879 Y99.638 E56.34551
G1 X156.284 Y99.832 E56.37687
G1 X156.648 Y100.094 E56.4082
G1 X156.96 Y100.416 E56.43951
G1 X157.21 Y100.789 E56.47088
G1 X157.39 Y101.2 E56.50222
G1 X157.494 Y101.636 E56.53352
G1 X157.52 Y102 E56.55901
G1 X157.52 Y108 E56.97809
G1 X157.48 Y108.447 E57.00944
G1 X157.362 Y108.879 E57.04072
G1 X157.168 Y109.284 E57.07208
G1 X156.906 Y109.648 E57.10341
G1 X156.584 Y109.96 E57.13472
G1 X156.211 Y110.21 E57.16609
G1 X155.8 Y110.39 E57.19742
G1 X155.364 Y110.494 E57.22873
G1 X155 Y110.52 E57.25422
G1 X55 Y110.52 E64.23885
G1 X54.553 Y110.48 E64.2702
G1 X54.121 Y110.362 E64.30147
G1 X53.716 Y110.168 E64.33284
G1 X53.352 Y109.906 E64.36416
G1 X53.04 Y109.584 E64.39548
G1 X52.79 Y109.211 E64.42684
G1 X52.61 Y108.8 E64.45818
G1 X52.506 Y108.364 E64.48949
G1 X52.48 Y108 E64.51498
G1 X52.48 Y102 E64.93406
G1 X52.52 Y101.553 E64.9654
G1 X52.638 Y101.121 E64.99668
G1 X52.832 Y100.716 E65.02805
G1 X53.094 Y100.352 E65.05937
G1 X53.416 Y100.04 E65.09069
G1 X53.789 Y99.79 E65.12205
M204 S3000
M205 X10 Y10
G0 F3000 X53.959 Y100.34
M204 S1800
M205 X8 Y8
G1 F2400 X54.313 Y100.164 E65.14967
G1 X54.696 Y100.064 E65.17731
G1 X55 Y100.04 E65.19861
G1 X155 Y100.04 E72.18324
G1 X155.393 Y100.08 E72.21083
G1 X155.771 Y100.198 E72.23849
G1 X156.117 Y100.389 E72.2661
G1 X156.418 Y100.646 E72.29374
G1 X156.66 Y100.959 E72.32137
G1 X156.836 Y101.313 E72.34899
G1 X156.936 Y101.696 E72.37664
G1 X156.96 Y102 E72.39793
G1 X156.96 Y108 E72.81701
G1 X156.92 Y108.393 E72.8446
G1 X156.802 Y108.771 E72.87226
G1 X156.611 Y109.117 E72.89987
G1 X156.354 Y109.418 E72.92751
G1 X156.041 Y109.66 E72.95515
G1 X155.687 Y109.836 E72.98276
G1 X155.304 Y109.936 E73.01041
G1 X155 Y109.96 E73.03171
G1 X55 Y109.96 E80.01633
G1 X54.607 Y109.92 E80.04392
G1 X54.229 Y109.802 E80.07158
G1 X53.883 Y109.611 E80.09919
G1 X53.582 Y109.354 E80.12683
G1 X53.34 Y109.041 E80.15447
G1 X53.164 Y108.687 E80.18208
G1 X53.064 Y108.304 E80.20973
G1 X53.04 Y108 E80.23103
G1 X53.04 Y102 E80.6501
G1 X53.08 Y101.607 E80.6777
G1 X53.198 Y101.229 E80.70535
G1 X53.389 Y100.883 E80.73296
G1 X53.646 Y100.582 E80.7606
G1 X53.959 Y100.34 E80.78824
M204 S3000
M205 X10 Y10
G0 F3000 X54.487 Y100.697
M204 S1800
M205 X8 Y8
G1 F2400 X54.811 Y100.613 E80.81162
G1 X55 Y100.6 E80.82485
G1 X155 Y100.6 E87.80948
G1 X155.332 Y100.64 E87.83283
G1 X155.644 Y100.757 E87.85611
G1 X155.921 Y100.945 E87.87949
G1 X156.144 Y101.193 E87.90278
G1 X156.303 Y101.487 E87.92613
G1 X156.387 Y101.811 E87.94951
G1 X156.4 Y102 E87.96274
G1 X156.4 Y108 E88.38182
G1 X156.36 Y108.332 E88.40517
G1 X156.243 Y108.644 E88.42845
G1 X156.055 Y108.921 E88.45183
G1 X155.807 Y109.144 E88.47513
G1 X155.513 Y109.303 E88.49847
G1 X155.189 Y109.387 E88.52185
G1 X155 Y109.4 E88.53508
G1 X55 Y109.4 E95.51971
G1 X54.668 Y109.36 E95.54307
G1 X54.356 Y109.243 E95.56634
G1 X54.079 Y109.055 E95.58972
G1 X53.856 Y108.807 E95.61302
G1 X53.697 Y108.513 E95.63636
G1 X53.613 Y108.189 E95.65974
G1 X53.6 Y108 E95.67297
G1 X53.6 Y102 E96.09205
G1 X53.64 Y101.668 E96.11541
G1 X53.757 Y101.356 E96.13868
G1 X53.945 Y101.079 E96.16207
G1 X54.193 Y100.856 E96.18536
G1 X54.487 Y100.697 E96.20871
M204 S3000
M205 X10 Y10
G0 F3000 X54.724 Y101.207
M204 S1800
M205 X8 Y8
G1 F2400 X55 Y101.16 E96.22826
G1 X155 Y101.16 E103.21289
G1 X155.255 Y101.2 E103.23092
G1 X155.487 Y101.315 E103.249
G1 X155.672 Y101.496 E103.26708
G1 X155.793 Y101.724 E103.28511
G1 X155.84 Y102 E103.30466
G1 X155.84 Y108 E103.72374
G1 X155.8 Y108.255 E103.74177
G1 X155.685 Y108.487 E103.75986
G1 X155.504 Y108.672 E103.77793
G1 X155.276 Y108.793 E103.79596
G1 X155 Y108.84 E103.81552
G1 X55 Y108.84 E110.80015
G1 X54.745 Y108.8 E110.81817
G1 X54.513 Y108.685 E110.83626
G1 X54.328 Y108.504 E110.85434
G1 X54.207 Y108.276 E110.87237
G1 X54.16 Y108 E110.89192
G1 X54.16 Y102 E111.311
G1 X54.2 Y101.745 E111.32903
G1 X54.315 Y101.513 E111.34711
G1 X54.496 Y101.328 E111.36519
G1 X54.724 Y101.207 E111.38322
M204 S3000
M205 X10 Y10
G0 F3000 X54.866 Y101.754
M204 S1800
M205 X8 Y8
G1 F2400 X55 Y101.72 E111.39288
G1 X155 Y101.72 E118.3775
G1 X155.143 Y101.759 E118.38786
G1 X155.246 Y101.866 E118.39823
G1 X155.28 Y102 E118.40789
G1 X155.28 Y108 E118.82696
G1 X155.241 Y108.143 E118.83732
G1 X155.134 Y108.246 E118.84769
G1 X155 Y108.28 E118.85735
G1 X55 Y108.28 E125.84198
G1 X54.857 Y108.241 E125.85233
G1 X54.754 Y108.134 E125.8627
G1 X54.72 Y108 E125.87236
G1 X54.72 Y102 E126.29144
G1 X54.759 Y101.857 E126.30179
G1 X54.866 Y101.754 E126.31216
M204 S3000
M205 X10 Y10
G1 F2400 E120.31216
;MESH:6965999f-e2fc-4914-9453-baacd5f12e0f.stl
G0 F3000 X55.854 Y102.854
G0 X154.09 Y107.09
G0 X154.72 Y107.72
M204 S1800
M205 X8 Y8
;TYPE:WALL-OUTER
G1 F2400 E126.31216
G1 F1500 X55.28 Y107.72 E133.25768
G1 X55.28 Y102.28 E133.63764
G1 X154.72 Y102.28 E140.58315
G1 X154.72 Y107.72 E140.96312
M204 S3000
M205 X10 Y10
G0 F3000 X154.52 Y107.72
G0 X154.16 Y107.16
M204 S1800
M205 X8 Y8
;TYPE:WALL-INNER
G1 F1500 X55.84 Y107.16 E147.8304
G1 X55.84 Y102.84 E148.13214
G1 X154.16 Y102.84 E154.99943
G1 X154.16 Y107.16 E155.30116
M204 S3000
M205 X10 Y10
G0 F3000 X153.6 Y106.6
M204 S1800
M205 X8 Y8
G1 F1500 X56.4 Y106.6 E162.09022
G1 X56.4 Y103.4 E162.31373
G1 X153.6 Y103.4 E169.10279
G1 X153.6 Y106.6 E169.3263
M204 S3000
M205 X10 Y10
G0 F3000 X153.05 Y106.05
M204 S1800
M205 X8 Y8
;TYPE:SKIN
G1 F1500 X56.95 Y106.05 E176.03852
G1 X56.95 Y103.95 E176.1852
G1 X153.05 Y103.95 E182.89743
G1 X153.05 Y106.05 E183.04411
M204 S3000
M205 X10 Y10
G0 F3000 X152.789 Y104.479
M204 S1800
M205 X8 Y8
G1 F1500 X152.519 Y104.209 E183.07078
M204 S3000
M205 X10 Y10
G0 F3000 X151.727 Y104.209
M204 S1800
M205 X8 Y8
G1 F1500 X152.789 Y105.271 E183.17568
M204 S3000
M205 X10 Y10
G0 F3000 X152.515 Y105.789
M204 S1800
M205 X8 Y8
G1 F1500 X150.935 Y104.209 E183.33175
M204 S3000
M205 X10 Y10
G0 F3000 X150.143 Y104.209
M204 S1800
M205 X8 Y8
G1 F1500 X151.723 Y105.789 E183.48782
M204 S3000
M205 X10 Y10
G0 F3000 X150.931 Y105.789
M204 S1800
M205 X8 Y8
G1 F1500 X149.351 Y104.209 E183.64388
M204 S3000
M205 X10 Y10
G0 F3000 X148.559 Y104.209
M204 S1800
M205 X8 Y8
G1 F1500 X150.139 Y105.789 E183.79995
M204 S3000
M205 X10 Y10
G0 F3000 X149.347 Y105.789
M204 S1800
M205 X8 Y8
G1 F1500 X147.767 Y104.209 E183.95602
M204 S3000
M205 X10 Y10
G0 F3000 X146.975 Y104.209
M204 S1800
M205 X8 Y8
G1 F1500 X148.555 Y105.789 E184.11209
M204 S3000
M205 X10 Y10
G0 F3000 X147.763 Y105.789
M204 S1800
M205 X8 Y8
G1 F1500 X146.183 Y104.209 E184.26816
M204 S3000
M205 X10 Y10
G0 F3000 X145.391 Y104.209
M204 S1800
M205 X8 Y8
G1 F1500 X146.971 Y105.789 E184.42423
M204 S3000
M205 X10 Y10
G0 F3000 X146.179 Y105.789
M204 S1800
M205 X8 Y8
G1 F1500 X144.599 Y104.209 E184.5803
M204 S3000
M205 X10 Y10
G0 F3000 X143.807 Y104.209
M204 S1800
M205 X8 Y8
G1 F1500 X145.387 Y105.789 E184.73636
M204 S3000
M205 X10 Y10
G0 F3000 X144.595 Y105.789
M204 S1800
M205 X8 Y8
G1 F1500 X143.015 Y104.209 E184.89243
M204 S3000
M205 X10 Y10
G0 F3000 X142.223 Y104.209
M204 S1800
M205 X8 Y8
G1 F1500 X143.803 Y105.789 E185.0485
M204 S3000
M205 X10 Y10
G0 F3000 X143.011 Y105.789
M204 S1800
M205 X8 Y8
G1 F1500 X141.431 Y104.209 E185.20457
M204 S3000
M205 X10 Y10
G0 F3000 X140.64 Y104.209
M204 S1800
M205 X8 Y8
G1 F1500 X142.219 Y105.789 E185.36059
M204 S3000
M205 X10 Y10
G0 F3000 X141.427 Y105.789
M204 S1800
M205 X8 Y8
G1 F1500 X139.848 Y104.209 E185.51661
M204 S3000
M205 X10 Y10
G0 F3000 X139.056 Y104.209
M204 S1800
M205 X8 Y8
G1 F1500 X140.635 Y105.789 E185.67263
M204 S3000
M205 X10 Y10
G0 F3000 X139.843 Y105.789
M204 S1800
M205 X8 Y8
G1 F1500 X138.264 Y104.209 E185.82865
M204 S3000
M205 X10 Y10
G0 F3000 X137.472 Y104.209
M204 S1800
M205 X8 Y8
G1 F1500 X139.051 Y105.789 E185.98467
M204 S3000
M205 X10 Y10
G0 F3000 X138.259 Y105.789
M204 S1800
M205 X8 Y8
G1 F1500 X136.68 Y104.209 E186.14068
M204 S3000
M205 X10 Y10
G0 F3000 X135.888 Y104.209
M204 S1800
M205 X8 Y8
G1 F1500 X137.467 Y105.789 E186.2967
M204 S3000
M205 X10 Y10
G0 F3000 X136.675 Y105.789
M204 S1800
M205 X8 Y8
G1 F1500 X135.096 Y104.209 E186.45272
M204 S3000
M205 X10 Y10
G0 F3000 X134.304 Y104.209
M204 S1800
M205 X8 Y8
G1 F1500 X135.884 Y105.789 E186.60879
M204 S3000
M205 X10 Y10
G0 F3000 X135.092 Y105.789
M204 S1800
M205 X8 Y8
G1 F1500 X133.512 Y104.209 E186.76486
M204 S3000
M205 X10 Y10
G0 F3000 X132.72 Y104.209
M204 S1800
M205 X8 Y8
G1 F1500 X134.3 Y105.789 E186.92093
M204 S3000
M205 X10 Y10
G0 F3000 X133.508 Y105.789
M204 S1800
M205 X8 Y8
G1 F1500 X131.928 Y104.209 E187.077
M204 S3000
M205 X10 Y10
G0 F3000 X131.136 Y104.209
M204 S1800
M205 X8 Y8
G1 F1500 X132.716 Y105.789 E187.23307
M204 S3000
M205 X10 Y10
G0 F3000 X131.924 Y105.789
M204 S1800
M205 X8 Y8
G1 F1500 X130.344 Y104.209 E187.38913
M204 S3000
M205 X10 Y10
G0 F3000 X129.552 Y104.209
M204 S1800
M205 X8 Y8
G1 F1500 X131.132 Y105.789 E187.5452
M204 S3000
M205 X10 Y10
G0 F3000 X130.34 Y105.789
M204 S1800
M205 X8 Y8
G1 F1500 X128.76 Y104.209 E187.70127
M204 S3000
M205 X10 Y10
G0 F3000 X127.968 Y104.209
M204 S1800
M205 X8 Y8
G1 F1500 X129.548 Y105.789 E187.85734
M204 S3000
M205 X10 Y10
G0 F3000 X128.756 Y105.789
M204 S1800
M205 X8 Y8
G1 F1500 X127.176 Y104.209 E188.01341
M204 S3000
M205 X10 Y10
G0 F3000 X126.384 Y104.209
M204 S1800
M205 X8 Y8
G1 F1500 X127.964 Y105.789 E188.16948
M204 S3000
M205 X10 Y10
G0 F3000 X127.172 Y105.789
M204 S1800
M205 X8 Y8
G1 F1500 X125.592 Y104.209 E188.32555
M204 S3000
M205 X10 Y10
G0 F3000 X124.8 Y104.209
M204 S1800
M205 X8 Y8
G1 F1500 X126.38 Y105.789 E188.48161
M204 S3000
M205 X10 Y10
G0 F3000 X125.588 Y105.789
M204 S1800
M205 X8 Y8
G1 F1500 X124.008 Y104.209 E188.63768
M204 S3000
M205 X10 Y10
G0 F3000 X123.216 Y104.209
M204 S1800
M205 X8 Y8
G1 F1500 X124.796 Y105.789 E188.79375
M204 S3000
M205 X10 Y10
G0 F3000 X124.004 Y105.789
M204 S1800
M205 X8 Y8
G1 F1500 X122.424 Y104.209 E188.94982
M204 S3000
M205 X10 Y10
G0 F3000 X121.632 Y104.209
M204 S1800
M205 X8 Y8
G1 F1500 X123.212 Y105.789 E189.10589
M204 S3000
M205 X10 Y10
G0 F3000 X122.42 Y105.789
M204 S1800
M205 X8 Y8
G1 F1500 X120.841 Y104.209 E189.26191
M204 S3000
M205 X10 Y10
G0 F3000 X120.049 Y104.209
M204 S1800
M205 X8 Y8
G1 F1500 X121.628 Y105.789 E189.41793
M204 S3000
M205 X10 Y10
G0 F3000 X120.836 Y105.789
M204 S1800
M205 X8 Y8
G1 F1500 X119.257 Y104.209 E189.57395
M204 S3000
M205 X10 Y10
G0 F3000 X118.465 Y104.209
M204 S1800
M205 X8 Y8
G1 F1500 X120.044 Y105.789 E189.72996
M204 S3000
M205 X10 Y10
G0 F3000 X119.252 Y105.789
M204 S1800
M205 X8 Y8
G1 F1500 X117.673 Y104.209 E189.88598
M204 S3000
M205 X10 Y10
G0 F3000 X116.881 Y104.209
M204 S1800
M205 X8 Y8
G1 F1500 X118.46 Y105.789 E190.042
M204 S3000
M205 X10 Y10
G0 F3000 X117.668 Y105.789
M204 S1800
M205 X8 Y8
G1 F1500 X116.089 Y104.209 E190.19802
M204 S3000
M205 X10 Y10
G0 F3000 X115.297 Y104.209
M204 S1800
M205 X8 Y8
G1 F1500 X116.876 Y105.789 E190.35404
M204 S3000
M205 X10 Y10
G0 F3000 X116.085 Y105.789
M204 S1800
M205 X8 Y8
G1 F1500 X114.505 Y104.209 E190.51011
M204 S3000
M205 X10 Y10
G0 F3000 X113.713 Y104.209
M204 S1800
M205 X8 Y8
