;FLAVOR:Marlin
;TIME:4306
;Filament used: 4.8237m
;Layer height: 0.2
;Generated with Cura_SteamEngine 3.6.0
M140 S85
M105
M190 S85
M104 S215
M105
M109 S215
M82 ;absolute extrusion mode
G21 ;metric values
G90 ;absolute positioning
M82 ;set extruder to absolute mode
M107 ;start with the fan off
G28 X0 Y0 ;move X/Y to min endstops
G28 Z0 ;move Z to min endstops
G1 Z15.0 F100 ;move the platform down 15mm
G92 E0 ;zero the extruded length
G1 F200 E3 ;extrude 3mm of feed stock
G92 E0 ;zero the extruded length again
G1 F100
M117 Printing...
G5
G92 E0
G1 F2400 E-6
;LAYER_COUNT:500
;LAYER:0
M106 S255
M204 S3000
M205 X10 Y10
;MESH:ae1480e1-be94-497b-99ab-69cedcd7b95d.stl
G0 F3000 X128.598 Y128.6 Z0.3
M204 S1800
M205 X8 Y8
;TYPE:WALL-INNER
G1 F2400 E0
G1 F1500 X81.398 Y128.6 E3.29674
G1 X81.398 Y116.4 E4.14887
G1 X128.598 Y116.4 E7.44561
G1 X128.598 Y128.6 E8.29774
M204 S3000
M205 X10 Y10
G0 F3000 X129.158 Y129.16
M204 S1800
M205 X8 Y8
G1 F1500 X80.838 Y129.16 E11.67271
G1 X80.838 Y115.84 E12.60306
G1 X129.158 Y115.84 E15.97804
G1 X129.158 Y129.16 E16.90839
M204 S3000
M205 X10 Y10
G0 F3000 X129.718 Y129.72
M204 S1800
M205 X8 Y8
;TYPE:WALL-OUTER
G1 F1500 X80.278 Y129.72 E20.36159
G1 X80.278 Y115.28 E21.37017
G1 X129.718 Y115.28 E24.82337
G1 X129.718 Y129.72 E25.83195
M204 S3000
M205 X10 Y10
G0 F3000 X129.518 Y129.72
G0 X129.088 Y129.09
G0 X128.048 Y128.05
M204 S1800
M205 X8 Y8
;TYPE:SKIN
G1 F1500 X81.948 Y128.05 E29.05186
G1 X81.948 Y116.95 E29.82716
G1 X128.048 Y116.95 E33.04707
G1 X128.048 Y128.05 E33.82236
M204 S3000
M205 X10 Y10
G0 F3000 X127.787 Y117.492
M204 S1800
M205 X8 Y8
G1 F1500 X127.505 Y117.21 E33.85022
M204 S3000
M205 X10 Y10
G0 F3000 X126.713 Y117.21
M204 S1800
M205 X8 Y8
G1 F1500 X127.787 Y118.284 E33.95631
M204 S3000
M205 X10 Y10
G0 F3000 X127.787 Y119.076
M204 S1800
M205 X8 Y8
G1 F1500 X125.921 Y117.21 E34.14063
M204 S3000
M205 X10 Y10
G0 F3000 X125.129 Y117.21
M204 S1800
M205 X8 Y8
G1 F1500 X127.787 Y119.868 E34.40318
M204 S3000
M205 X10 Y10
G0 F3000 X127.787 Y120.659
M204 S1800
M205 X8 Y8
G1 F1500 X124.337 Y117.21 E34.74391
M204 S3000
M205 X10 Y10
G0 F3000 X123.545 Y117.21
M204 S1800
M205 X8 Y8
G1 F1500 X127.787 Y121.451 E35.16287
M204 S3000
M205 X10 Y10
G0 F3000 X127.787 Y122.243
M204 S1800
M205 X8 Y8
G1 F1500 X122.753 Y117.21 E35.66007
M204 S3000
M205 X10 Y10
G0 F3000 X121.961 Y117.21
M204 S1800
M205 X8 Y8
G1 F1500 X127.787 Y123.035 E36.2355
M204 S3000
M205 X10 Y10
G0 F3000 X127.787 Y123.827
M204 S1800
M205 X8 Y8
G1 F1500 X121.169 Y117.21 E36.88916
M204 S3000
M205 X10 Y10
G0 F3000 X120.377 Y117.21
M204 S1800
M205 X8 Y8
G1 F1500 X127.787 Y124.619 E37.62105
M204 S3000
M205 X10 Y10
G0 F3000 X127.787 Y125.411
M204 S1800
M205 X8 Y8
G1 F1500 X119.585 Y117.21 E38.43118
M204 S3000
M205 X10 Y10
G0 F3000 X118.793 Y117.21
M204 S1800
M205 X8 Y8
G1 F1500 X127.787 Y126.203 E39.31953
M204 S3000
M205 X10 Y10
G0 F3000 X127.787 Y126.995
M204 S1800
M205 X8 Y8
G1 F1500 X118.001 Y117.21 E40.28612
M204 S3000
M205 X10 Y10
G0 F3000 X117.21 Y117.21
M204 S1800
M205 X8 Y8
G1 F1500 X127.787 Y127.787 E41.33089
M204 S3000
M205 X10 Y10
G0 F3000 X126.997 Y127.789
M204 S1800
M205 X8 Y8
G1 F1500 X116.418 Y117.21 E42.37586
M204 S3000
M205 X10 Y10
G0 F3000 X115.626 Y117.21
M204 S1800
M205 X8 Y8
G1 F1500 X126.205 Y127.789 E43.42083
M204 S3000
M205 X10 Y10
G0 F3000 X125.413 Y127.789
M204 S1800
M205 X8 Y8
G1 F1500 X114.834 Y117.21 E44.46579
M204 S3000
M205 X10 Y10
G0 F3000 X114.042 Y117.21
M204 S1800
M205 X8 Y8
G1 F1500 X124.621 Y127.789 E45.51076
M204 S3000
M205 X10 Y10
G0 F3000 X123.829 Y127.789
M204 S1800
M205 X8 Y8
G1 F1500 X113.25 Y117.21 E46.55573
M204 S3000
M205 X10 Y10
G0 F3000 X112.458 Y117.21
M204 S1800
M205 X8 Y8
G1 F1500 X123.037 Y127.789 E47.6007
M204 S3000
M205 X10 Y10
G0 F3000 X122.245 Y127.789
M204 S1800
M205 X8 Y8
G1 F1500 X111.666 Y117.21 E48.64567
M204 S3000
M205 X10 Y10
G0 F3000 X110.874 Y117.21
M204 S1800
M205 X8 Y8
G1 F1500 X121.453 Y127.789 E49.69063
M204 S3000
M205 X10 Y10
G0 F3000 X120.661 Y127.789
M204 S1800
M205 X8 Y8
G1 F1500 X110.082 Y117.21 E50.7356
M204 S3000
M205 X10 Y10
G0 F3000 X109.29 Y117.21
M204 S1800
M205 X8 Y8
G1 F1500 X119.869 Y127.789 E51.78057
M204 S3000
M205 X10 Y10
G0 F3000 X119.077 Y127.789
M204 S1800
M205 X8 Y8
G1 F1500 X108.498 Y117.21 E52.82554
M204 S3000
M205 X10 Y10
G0 F3000 X107.706 Y117.21
M204 S1800
M205 X8 Y8
G1 F1500 X118.285 Y127.789 E53.87051
M204 S3000
M205 X10 Y10
G0 F3000 X117.493 Y127.789
M204 S1800
M205 X8 Y8
G1 F1500 X106.914 Y117.21 E54.91547
M204 S3000
M205 X10 Y10
G0 F3000 X106.122 Y117.21
M204 S1800
M205 X8 Y8
G1 F1500 X116.701 Y127.789 E55.96044
M204 S3000
M205 X10 Y10
G0 F3000 X115.909 Y127.789
M204 S1800
M205 X8 Y8
G1 F1500 X105.33 Y117.21 E57.00541
M204 S3000
M205 X10 Y10
G0 F3000 X104.538 Y117.21
M204 S1800
M205 X8 Y8
G1 F1500 X115.117 Y127.789 E58.05038
M204 S3000
M205 X10 Y10
G0 F3000 X114.325 Y127.789
M204 S1800
M205 X8 Y8
G1 F1500 X103.746 Y117.21 E59.09534
M204 S3000
M205 X10 Y10
G0 F3000 X102.954 Y117.21
M204 S1800
M205 X8 Y8
G1 F1500 X113.533 Y127.789 E60.14031
M204 S3000
M205 X10 Y10
G0 F3000 X112.741 Y127.789
M204 S1800
M205 X8 Y8
G1 F1500 X102.162 Y117.21 E61.18528
M204 S3000
M205 X10 Y10
G0 F3000 X101.37 Y117.21
M204 S1800
M205 X8 Y8
G1 F1500 X111.949 Y127.789 E62.23025
M204 S3000
M205 X10 Y10
G0 F3000 X111.157 Y127.789
M204 S1800
M205 X8 Y8
G1 F1500 X100.578 Y117.21 E63.27522
M204 S3000
M205 X10 Y10
G0 F3000 X99.786 Y117.21
M204 S1800
M205 X8 Y8
G1 F1500 X110.365 Y127.789 E64.32018
M204 S3000
M205 X10 Y10
G0 F3000 X109.573 Y127.789
M204 S1800
M205 X8 Y8
G1 F1500 X98.994 Y117.21 E65.36515
M204 S3000
M205 X10 Y10
G0 F3000 X98.202 Y117.21
M204 S1800
M205 X8 Y8
G1 F1500 X108.782 Y127.789 E66.41017
M204 S3000
M205 X10 Y10
G0 F3000 X107.99 Y127.789
M204 S1800
M205 X8 Y8
G1 F1500 X97.411 Y117.21 E67.45514
M204 S3000
M205 X10 Y10
G0 F3000 X96.619 Y117.21
M204 S1800
M205 X8 Y8
G1 F1500 X107.198 Y127.789 E68.5001
M204 S3000
M205 X10 Y10
G0 F3000 X106.406 Y127.789
M204 S1800
M205 X8 Y8
G1 F1500 X95.827 Y117.21 E69.54507
M204 S3000
M205 X10 Y10
G0 F3000 X95.035 Y117.21
M204 S1800
M205 X8 Y8
G1 F1500 X105.614 Y127.789 E70.59004
M204 S3000
M205 X10 Y10
G0 F3000 X104.822 Y127.789
M204 S1800
M205 X8 Y8
G1 F1500 X94.243 Y117.21 E71.63501
M204 S3000
M205 X10 Y10
G0 F3000 X93.451 Y117.21
M204 S1800
M205 X8 Y8
G1 F1500 X104.03 Y127.789 E72.67998
M204 S3000
M205 X10 Y10
G0 F3000 X103.238 Y127.789
M204 S1800
M205 X8 Y8
G1 F1500 X92.659 Y117.21 E73.72494
M204 S3000
M205 X10 Y10
G0 F3000 X91.867 Y117.21
M204 S1800
M205 X8 Y8
G1 F1500 X102.446 Y127.789 E74.76991
M204 S3000
M205 X10 Y10
G0 F3000 X101.654 Y127.789
M204 S1800
M205 X8 Y8
G1 F1500 X91.075 Y117.21 E75.81488
M204 S3000
M205 X10 Y10
G0 F3000 X90.283 Y117.21
M204 S1800
M205 X8 Y8
G1 F1500 X100.862 Y127.789 E76.85985
M204 S3000
M205 X10 Y10
G0 F3000 X100.07 Y127.789
M204 S1800
M205 X8 Y8
G1 F1500 X89.491 Y117.21 E77.90481
M204 S3000
M205 X10 Y10
G0 F3000 X88.699 Y117.21
M204 S1800
M205 X8 Y8
G1 F1500 X99.278 Y127.789 E78.94978
M204 S3000
M205 X10 Y10
G0 F3000 X98.486 Y127.789
M204 S1800
M205 X8 Y8
G1 F1500 X87.907 Y117.21 E79.99475
M204 S3000
M205 X10 Y10
G0 F3000 X87.115 Y117.21
M204 S1800
M205 X8 Y8
G1 F1500 X97.694 Y127.789 E81.03972
M204 S3000
M205 X10 Y10
G0 F3000 X96.902 Y127.789
M204 S1800
M205 X8 Y8
G1 F1500 X86.323 Y117.21 E82.08469
M204 S3000
M205 X10 Y10
G0 F3000 X85.531 Y117.21
M204 S1800
M205 X8 Y8
G1 F1500 X96.11 Y127.789 E83.12965
M204 S3000
M205 X10 Y10
G0 F3000 X95.318 Y127.789
M204 S1800
M205 X8 Y8
G1 F1500 X84.739 Y117.21 E84.17462
M204 S3000
M205 X10 Y10
G0 F3000 X83.947 Y117.21
M204 S1800
M205 X8 Y8
G1 F1500 X94.526 Y127.789 E85.21959
M204 S3000
M205 X10 Y10
G0 F3000 X93.734 Y127.789
M204 S1800
M205 X8 Y8
G1 F1500 X83.155 Y117.21 E86.26456
M204 S3000
M205 X10 Y10
G0 F3000 X82.363 Y117.21
M204 S1800
M205 X8 Y8
G1 F1500 X92.942 Y127.789 E87.30952
M204 S3000
M205 X10 Y10
G0 F3000 X92.15 Y127.789
M204 S1800
M205 X8 Y8
G1 F1500 X82.207 Y117.845 E88.29172
M204 S3000
M205 X10 Y10
G0 F3000 X82.207 Y118.637
M204 S1800
M205 X8 Y8
G1 F1500 X91.358 Y127.789 E89.19568
M204 S3000
M205 X10 Y10
G0 F3000 X90.566 Y127.789
M204 S1800
M205 X8 Y8
G1 F1500 X82.207 Y119.429 E90.02141
M204 S3000
M205 X10 Y10
G0 F3000 X82.207 Y120.221
M204 S1800
M205 X8 Y8
G1 F1500 X89.774 Y127.789 E90.76891
M204 S3000
M205 X10 Y10
G0 F3000 X88.983 Y127.789
M204 S1800
M205 X8 Y8
G1 F1500 X82.207 Y121.013 E91.43823
M204 S3000
M205 X10 Y10
G0 F3000 X82.207 Y121.805
M204 S1800
M205 X8 Y8
G1 F1500 X88.191 Y127.789 E92.02931
M204 S3000
M205 X10 Y10
G0 F3000 X87.399 Y127.789
M204 S1800
M205 X8 Y8
G1 F1500 X82.207 Y122.597 E92.54217
M204 S3000
M205 X10 Y10
G0 F3000 X82.207 Y123.389
M204 S1800
M205 X8 Y8
G1 F1500 X86.607 Y127.789 E92.97679
M204 S3000
M205 X10 Y10
G0 F3000 X85.815 Y127.789
M204 S1800
M205 X8 Y8
G1 F1500 X82.207 Y124.181 E93.33318
M204 S3000
M205 X10 Y10
G0 F3000 X82.207 Y124.973
M204 S1800
M205 X8 Y8
G1 F1500 X85.023 Y127.789 E93.61134
M204 S3000
M205 X10 Y10
G0 F3000 X84.231 Y127.789
M204 S1800
M205 X8 Y8
G1 F1500 X82.207 Y125.765 E93.81126
M204 S3000
M205 X10 Y10
G0 F3000 X82.207 Y126.557
M204 S1800
M205 X8 Y8
G1 F1500 X83.439 Y127.789 E93.93296
M204 S3000
M205 X10 Y10
G0 F3000 X82.647 Y127.789
M204 S1800
M205 X8 Y8
G1 F1500 X82.207 Y127.349 E93.97642
M204 S3000
M205 X10 Y10
;MESH:NONMESH
G0 F3000 X128.998 Y129
;TIME_ELAPSED:66.294011
;LAYER:1
M140 S85
;MESH:ae1480e1-be94-497b-99ab-69cedcd7b95d.stl
G0 F4500 X128.998 Y129 Z0.5
M204 S1800
M205 X8 Y8
;TYPE:WALL-INNER
G1 F2250 X80.998 Y129 E95.5729
G1 X80.998 Y116 E96.00529
G1 X128.998 Y116 E97.60177
G1 X128.998 Y129 E98.03415
M204 S3000
M205 X10 Y10
G0 F4500 X129.398 Y129.4
M204 S1800
M205 X8 Y8
G1 F2250 X80.598 Y129.4 E99.65725
G1 X80.598 Y115.6 E100.11624
G1 X129.398 Y115.6 E101.73933
G1 X129.398 Y129.4 E102.19832
M204 S3000
M205 X10 Y10
G0 F4500 X129.798 Y129.8
M204 S1800
M205 X8 Y8
;TYPE:WALL-OUTER
G1 F2250 X80.198 Y129.8 E103.84803
G1 X80.198 Y115.2 E104.33362
G1 X129.798 Y115.2 E105.98333
G1 X129.798 Y129.8 E106.46892
M204 S3000
M205 X10 Y10
G0 F4500 X129.598 Y129.8
G0 X129.328 Y129.33
G0 X128.608 Y128.61
M204 S1800
M205 X8 Y8
;TYPE:SKIN
G1 F1500 X81.388 Y128.61 E108.03947
G1 X81.388 Y116.39 E108.44591
G1 X128.608 Y116.39 E110.01645
G1 X128.608 Y128.61 E110.42289
M204 S3000
M205 X10 Y10
G0 F4500 X127.825 Y128.429
M204 S1800
M205 X8 Y8
G1 F1500 X128.427 Y127.827 E110.45121
M204 S3000
M205 X10 Y10
G0 F4500 X128.427 Y127.262
M204 S1800
M205 X8 Y8
G1 F1500 X127.26 Y128.429 E110.5061
M204 S3000
M205 X10 Y10
G0 F4500 X126.694 Y128.429
M204 S1800
M205 X8 Y8
G1 F1500 X128.427 Y126.696 E110.58761
M204 S3000
M205 X10 Y10
G0 F4500 X128.427 Y126.13
M204 S1800
M205 X8 Y8
G1 F1500 X126.128 Y128.429 E110.69575
M204 S3000
M205 X10 Y10
G0 F4500 X125.563 Y128.429
M204 S1800
M205 X8 Y8
G1 F1500 X128.427 Y125.565 E110.83046
M204 S3000
M205 X10 Y10
G0 F4500 X128.427 Y124.999
M204 S1800
M205 X8 Y8
G1 F1500 X124.997 Y128.429 E110.9918
M204 S3000
M205 X10 Y10
G0 F4500 X124.431 Y128.429
M204 S1800
M205 X8 Y8
G1 F1500 X128.427 Y124.433 E111.17976
M204 S3000
M205 X10 Y10
G0 F4500 X128.427 Y123.868
M204 S1800
M205 X8 Y8
G1 F1500 X123.866 Y128.429 E111.3943
M204 S3000
M205 X10 Y10
G0 F4500 X123.3 Y128.429
M204 S1800
M205 X8 Y8
G1 F1500 X128.427 Y123.302 E111.63545
M204 S3000
M205 X10 Y10
G0 F4500 X128.427 Y122.736
M204 S1800
M205 X8 Y8
G1 F1500 X122.734 Y128.429 E111.90324
M204 S3000
M205 X10 Y10
G0 F4500 X122.168 Y128.429
M204 S1800
M205 X8 Y8
G1 F1500 X128.426 Y122.171 E112.19759
M204 S3000
M205 X10 Y10
G0 F4500 X128.426 Y121.606
M204 S1800
M205 X8 Y8
G1 F1500 X121.603 Y128.429 E112.51853
M204 S3000
M205 X10 Y10
G0 F4500 X121.037 Y128.429
M204 S1800
M205 X8 Y8
G1 F1500 X128.426 Y121.04 E112.86608
M204 S3000
M205 X10 Y10
G0 F4500 X128.426 Y120.474
M204 S1800
M205 X8 Y8
G1 F1500 X120.471 Y128.429 E113.24026
M204 S3000
M205 X10 Y10
G0 F4500 X119.906 Y128.429
M204 S1800
M205 X8 Y8
G1 F1500 X128.426 Y119.909 E113.64102
M204 S3000
M205 X10 Y10
G0 F4500 X128.426 Y119.343
M204 S1800
M205 X8 Y8
G1 F1500 X119.34 Y128.429 E114.06839
M204 S3000
M205 X10 Y10
G0 F4500 X118.774 Y128.429
M204 S1800
M205 X8 Y8
G1 F1500 X128.426 Y118.777 E114.52239
M204 S3000
M205 X10 Y10
G0 F4500 X128.426 Y118.211
M204 S1800
M205 X8 Y8
G1 F1500 X118.209 Y128.429 E115.00299
M204 S3000
M205 X10 Y10
G0 F4500 X117.643 Y128.429
M204 S1800
M205 X8 Y8
G1 F1500 X128.426 Y117.646 E115.51019
M204 S3000
M205 X10 Y10
G0 F4500 X128.426 Y117.08
M204 S1800
M205 X8 Y8
G1 F1500 X117.077 Y128.429 E116.04401
M204 S3000
M205 X10 Y10
G0 F4500 X116.512 Y128.429
M204 S1800
M205 X8 Y8
G1 F1500 X128.372 Y116.569 E116.60187
M204 S3000
M205 X10 Y10
G0 F4500 X127.806 Y116.569
M204 S1800
M205 X8 Y8
G1 F1500 X115.946 Y128.429 E117.15973
M204 S3000
M205 X10 Y10
G0 F4500 X115.38 Y128.429
M204 S1800
M205 X8 Y8
G1 F1500 X127.241 Y116.569 E117.71761
M204 S3000
M205 X10 Y10
G0 F4500 X126.675 Y116.569
M204 S1800
M205 X8 Y8
G1 F1500 X114.815 Y128.429 E118.27547
M204 S3000
M205 X10 Y10
G0 F4500 X114.249 Y128.429
M204 S1800
M205 X8 Y8
G1 F1500 X126.109 Y116.569 E118.83333
M204 S3000
M205 X10 Y10
G0 F4500 X125.543 Y116.569
M204 S1800
M205 X8 Y8
G1 F1500 X113.683 Y128.429 E119.39119
M204 S3000
M205 X10 Y10
G0 F4500 X113.117 Y128.429
M204 S1800
M205 X8 Y8
G1 F1500 X124.978 Y116.569 E119.94907
M204 S3000
M205 X10 Y10
G0 F4500 X124.412 Y116.569
M204 S1800
M205 X8 Y8
G1 F1500 X112.552 Y128.429 E120.50693
M204 S3000
M205 X10 Y10
G0 F4500 X111.986 Y128.429
M204 S1800
M205 X8 Y8
G1 F1500 X123.846 Y116.569 E121.06478
M204 S3000
M205 X10 Y10
G0 F4500 X123.281 Y116.569
M204 S1800
M205 X8 Y8
G1 F1500 X111.42 Y128.429 E121.62267
M204 S3000
M205 X10 Y10
G0 F4500 X110.855 Y128.429
M204 S1800
M205 X8 Y8
G1 F1500 X122.715 Y116.569 E122.18052
M204 S3000
M205 X10 Y10
G0 F4500 X122.149 Y116.569
M204 S1800
M205 X8 Y8
G1 F1500 X110.289 Y128.429 E122.73838
M204 S3000
M205 X10 Y10
G0 F4500 X109.723 Y128.429
M204 S1800
M205 X8 Y8
G1 F1500 X121.584 Y116.569 E123.29626
M204 S3000
M205 X10 Y10
G0 F4500 X121.018 Y116.569
M204 S1800
M205 X8 Y8
G1 F1500 X109.158 Y128.429 E123.85412
M204 S3000
M205 X10 Y10
G0 F4500 X108.592 Y128.429
M204 S1800
M205 X8 Y8
G1 F1500 X120.452 Y116.569 E124.41198
M204 S3000
M205 X10 Y10
G0 F4500 X119.887 Y116.569
M204 S1800
M205 X8 Y8
G1 F1500 X108.026 Y128.429 E124.96986
M204 S3000
M205 X10 Y10
G0 F4500 X107.461 Y128.429
M204 S1800
M205 X8 Y8
G1 F1500 X119.321 Y116.569 E125.52772
M204 S3000
M205 X10 Y10
G0 F4500 X118.755 Y116.569
M204 S1800
M205 X8 Y8
G1 F1500 X106.895 Y128.429 E126.08558
M204 S3000
M205 X10 Y10
G0 F4500 X106.329 Y128.429
M204 S1800
M205 X8 Y8
G1 F1500 X118.19 Y116.569 E126.64346
M204 S3000
M205 X10 Y10
G0 F4500 X117.624 Y116.569
M204 S1800
M205 X8 Y8
G1 F1500 X105.764 Y128.429 E127.20132
M204 S3000
M205 X10 Y10
G0 F4500 X105.198 Y128.429
M204 S1800
M205 X8 Y8
G1 F1500 X117.058 Y116.569 E127.75917
M204 S3000
M205 X10 Y10
G0 F4500 X116.493 Y116.569
M204 S1800
M205 X8 Y8
G1 F1500 X104.632 Y128.429 E128.31706
M204 S3000
M205 X10 Y10
G0 F4500 X104.067 Y128.429
M204 S1800
M205 X8 Y8
G1 F1500 X115.927 Y116.569 E128.87491
M204 S3000
M205 X10 Y10
G0 F4500 X115.361 Y116.569
M204 S1800
M205 X8 Y8
G1 F1500 X103.501 Y128.429 E129.43277
M204 S3000
M205 X10 Y10
G0 F4500 X102.935 Y128.429
M204 S1800
M205 X8 Y8
G1 F1500 X114.795 Y116.569 E129.99063
M204 S3000
M205 X10 Y10
G0 F4500 X114.23 Y116.569
M204 S1800
M205 X8 Y8
G1 F1500 X102.369 Y128.429 E130.54851
M204 S3000
M205 X10 Y10
G0 F4500 X101.804 Y128.429
M204 S1800
M205 X8 Y8
G1 F1500 X113.664 Y116.569 E131.10637
M204 S3000
M205 X10 Y10
G0 F4500 X113.098 Y116.569
M204 S1800
M205 X8 Y8
G1 F1500 X101.238 Y128.429 E131.66423
M204 S3000
M205 X10 Y10
G0 F4500 X100.672 Y128.429
M204 S1800
M205 X8 Y8
G1 F1500 X112.533 Y116.569 E132.22211
M204 S3000
M205 X10 Y10
G0 F4500 X111.967 Y116.569
M204 S1800
M205 X8 Y8
G1 F1500 X100.107 Y128.429 E132.77997
M204 S3000
M205 X10 Y10
G0 F4500 X99.541 Y128.429
M204 S1800
M205 X8 Y8
G1 F1500 X111.401 Y116.569 E133.33783
M204 S3000
M205 X10 Y10
G0 F4500 X110.836 Y116.569
M204 S1800
M205 X8 Y8
G1 F1500 X98.975 Y128.429 E133.89571
M204 S3000
M205 X10 Y10
G0 F4500 X98.41 Y128.429
