;FLAVOR:Marlin
;TIME:5782
;Filament used: 7.23988m
;Layer height: 0.2
;Generated with Cura_SteamEngine 3.6.0
M140 S85
M105
M190 S85
M104 S215
M105
M109 S215
M82 ;absolute extrusion mode
G21 ;metric values
G90 ;absolute positioning
M82 ;set extruder to absolute mode
M107 ;start with the fan off
G28 X0 Y0 ;move X/Y to min endstops
G28 Z0 ;move Z to min endstops
G1 Z15.0 F100 ;move the platform down 15mm
G92 E0 ;zero the extruded length
G1 F200 E3 ;extrude 3mm of feed stock
G92 E0 ;zero the extruded length again
G1 F100
M117 Printing...
G5
G92 E0
G1 F2400 E-6
;LAYER_COUNT:250
;LAYER:0
M106 S255
M204 S3000
M205 X10 Y10
;MESH:a66c7011-9edd-4f5c-98b9-c7d8d1b087bd.stl
G0 F3000 X128.6 Y128.6 Z0.3
M204 S1800
M205 X8 Y8
;TYPE:WALL-INNER
G1 F2400 E0
G1 F1500 X81.4 Y128.6 E3.29674
G1 X81.4 Y81.4 E6.59349
G1 X128.6 Y81.4 E9.89023
G1 X128.6 Y128.6 E13.18698
M204 S3000
M205 X10 Y10
G0 F3000 X129.16 Y129.16
M204 S1800
M205 X8 Y8
G1 F1500 X80.84 Y129.16 E16.56195
G1 X80.84 Y80.84 E19.93692
G1 X129.16 Y80.84 E23.3119
G1 X129.16 Y129.16 E26.68687
M204 S3000
M205 X10 Y10
G0 F3000 X129.72 Y129.72
M204 S1800
M205 X8 Y8
;TYPE:WALL-OUTER
G1 F1500 X80.28 Y129.72 E30.14007
G1 X80.28 Y80.28 E33.59327
G1 X129.72 Y80.28 E37.04647
G1 X129.72 Y129.72 E40.49967
M204 S3000
M205 X10 Y10
G0 F3000 X129.52 Y129.72
G0 X129.09 Y129.09
G0 X128.05 Y128.05
M204 S1800
M205 X8 Y8
;TYPE:SKIN
G1 F1500 X81.95 Y128.05 E43.71958
G1 X81.95 Y81.95 E46.9395
G1 X128.05 Y81.95 E50.15941
G1 X128.05 Y128.05 E53.37932
M204 S3000
M205 X10 Y10
G0 F3000 X127.789 Y82.648
M204 S1800
M205 X8 Y8
G1 F1500 X127.352 Y82.21 E53.42254
M204 S3000
M205 X10 Y10
G0 F3000 X126.56 Y82.21
M204 S1800
M205 X8 Y8
G1 F1500 X127.789 Y83.44 E53.54399
M204 S3000
M205 X10 Y10
G0 F3000 X127.789 Y84.231
M204 S1800
M205 X8 Y8
G1 F1500 X125.768 Y82.21 E53.74362
M204 S3000
M205 X10 Y10
G0 F3000 X124.976 Y82.21
M204 S1800
M205 X8 Y8
G1 F1500 X127.789 Y85.023 E54.02148
M204 S3000
M205 X10 Y10
G0 F3000 X127.789 Y85.815
M204 S1800
M205 X8 Y8
G1 F1500 X124.184 Y82.21 E54.37757
M204 S3000
M205 X10 Y10
G0 F3000 X123.392 Y82.21
M204 S1800
M205 X8 Y8
G1 F1500 X127.789 Y86.607 E54.81189
M204 S3000
M205 X10 Y10
G0 F3000 X127.789 Y87.399
M204 S1800
M205 X8 Y8
G1 F1500 X122.6 Y82.21 E55.32445
M204 S3000
M205 X10 Y10
G0 F3000 X121.808 Y82.21
M204 S1800
M205 X8 Y8
G1 F1500 X127.789 Y88.191 E55.91524
M204 S3000
M205 X10 Y10
G0 F3000 X127.789 Y88.983
M204 S1800
M205 X8 Y8
G1 F1500 X121.016 Y82.21 E56.58426
M204 S3000
M205 X10 Y10
G0 F3000 X120.224 Y82.21
M204 S1800
M205 X8 Y8
G1 F1500 X127.789 Y89.775 E57.33151
M204 S3000
M205 X10 Y10
G0 F3000 X127.789 Y90.567
M204 S1800
M205 X8 Y8
G1 F1500 X119.432 Y82.21 E58.157
M204 S3000
M205 X10 Y10
G0 F3000 X118.64 Y82.21
M204 S1800
M205 X8 Y8
G1 F1500 X127.789 Y91.359 E59.06071
M204 S3000
M205 X10 Y10
G0 F3000 X127.789 Y92.151
M204 S1800
M205 X8 Y8
G1 F1500 X117.848 Y82.21 E60.04266
M204 S3000
M205 X10 Y10
G0 F3000 X117.056 Y82.21
M204 S1800
M205 X8 Y8
G1 F1500 X127.789 Y92.943 E61.10284
M204 S3000
M205 X10 Y10
G0 F3000 X127.789 Y93.735
M204 S1800
M205 X8 Y8
G1 F1500 X116.264 Y82.21 E62.24125
M204 S3000
M205 X10 Y10
G0 F3000 X115.472 Y82.21
M204 S1800
M205 X8 Y8
G1 F1500 X127.789 Y94.527 E63.45789
M204 S3000
M205 X10 Y10
G0 F3000 X127.789 Y95.319
M204 S1800
M205 X8 Y8
G1 F1500 X114.68 Y82.21 E64.75277
M204 S3000
M205 X10 Y10
G0 F3000 X113.888 Y82.21
M204 S1800
M205 X8 Y8
G1 F1500 X127.789 Y96.111 E66.12588
M204 S3000
M205 X10 Y10
G0 F3000 X127.789 Y96.903
M204 S1800
M205 X8 Y8
G1 F1500 X113.096 Y82.21 E67.57722
M204 S3000
M205 X10 Y10
G0 F3000 X112.304 Y82.21
M204 S1800
M205 X8 Y8
G1 F1500 X127.789 Y97.695 E69.10679
M204 S3000
M205 X10 Y10
G0 F3000 X127.789 Y98.487
M204 S1800
M205 X8 Y8
G1 F1500 X111.512 Y82.21 E70.71459
M204 S3000
M205 X10 Y10
G0 F3000 X110.72 Y82.21
M204 S1800
M205 X8 Y8
G1 F1500 X127.789 Y99.279 E72.40062
M204 S3000
M205 X10 Y10
G0 F3000 X127.789 Y100.071
M204 S1800
M205 X8 Y8
G1 F1500 X109.928 Y82.21 E74.16489
M204 S3000
M205 X10 Y10
G0 F3000 X109.136 Y82.21
M204 S1800
M205 X8 Y8
G1 F1500 X127.789 Y100.863 E76.00739
M204 S3000
M205 X10 Y10
G0 F3000 X127.789 Y101.655
M204 S1800
M205 X8 Y8
G1 F1500 X108.345 Y82.21 E77.92807
M204 S3000
M205 X10 Y10
G0 F3000 X107.553 Y82.21
M204 S1800
M205 X8 Y8
G1 F1500 X127.789 Y102.447 E79.92698
M204 S3000
M205 X10 Y10
G0 F3000 X127.789 Y103.239
M204 S1800
M205 X8 Y8
G1 F1500 X106.761 Y82.21 E82.00412
M204 S3000
M205 X10 Y10
G0 F3000 X105.969 Y82.21
M204 S1800
M205 X8 Y8
G1 F1500 X127.789 Y104.03 E84.15945
M204 S3000
M205 X10 Y10
G0 F3000 X127.789 Y104.822
M204 S1800
M205 X8 Y8
G1 F1500 X105.177 Y82.21 E86.39301
M204 S3000
M205 X10 Y10
G0 F3000 X104.385 Y82.21
M204 S1800
M205 X8 Y8
G1 F1500 X127.789 Y105.614 E88.7048
M204 S3000
M205 X10 Y10
G0 F3000 X127.789 Y106.406
M204 S1800
M205 X8 Y8
G1 F1500 X103.593 Y82.21 E91.09482
M204 S3000
M205 X10 Y10
G0 F3000 X102.801 Y82.21
M204 S1800
M205 X8 Y8
G1 F1500 X127.789 Y107.198 E93.56307
M204 S3000
M205 X10 Y10
G0 F3000 X127.789 Y107.99
M204 S1800
M205 X8 Y8
G1 F1500 X102.009 Y82.21 E96.10956
M204 S3000
M205 X10 Y10
G0 F3000 X101.217 Y82.21
M204 S1800
M205 X8 Y8
G1 F1500 X127.789 Y108.782 E98.73428
M204 S3000
M205 X10 Y10
G0 F3000 X127.789 Y109.574
M204 S1800
M205 X8 Y8
G1 F1500 X100.425 Y82.21 E101.43723
M204 S3000
M205 X10 Y10
G0 F3000 X99.633 Y82.21
M204 S1800
M205 X8 Y8
G1 F1500 X127.789 Y110.366 E104.21841
M204 S3000
M205 X10 Y10
G0 F3000 X127.789 Y111.158
M204 S1800
M205 X8 Y8
G1 F1500 X98.841 Y82.21 E107.07782
M204 S3000
M205 X10 Y10
G0 F3000 X98.049 Y82.21
M204 S1800
M205 X8 Y8
G1 F1500 X127.789 Y111.95 E110.01546
M204 S3000
M205 X10 Y10
G0 F3000 X127.789 Y112.742
M204 S1800
M205 X8 Y8
G1 F1500 X97.257 Y82.21 E113.03134
M204 S3000
M205 X10 Y10
G0 F3000 X96.465 Y82.21
M204 S1800
M205 X8 Y8
G1 F1500 X127.789 Y113.534 E116.12545
M204 S3000
M205 X10 Y10
G0 F3000 X127.789 Y114.326
M204 S1800
M205 X8 Y8
G1 F1500 X95.673 Y82.21 E119.29779
M204 S3000
M205 X10 Y10
G0 F3000 X94.881 Y82.21
M204 S1800
M205 X8 Y8
G1 F1500 X127.789 Y115.118 E122.54836
M204 S3000
M205 X10 Y10
G0 F3000 X127.789 Y115.91
M204 S1800
M205 X8 Y8
G1 F1500 X94.089 Y82.21 E125.87716
M204 S3000
M205 X10 Y10
G0 F3000 X93.297 Y82.21
M204 S1800
M205 X8 Y8
G1 F1500 X127.789 Y116.702 E129.2842
M204 S3000
M205 X10 Y10
G0 F3000 X127.789 Y117.494
M204 S1800
M205 X8 Y8
G1 F1500 X92.505 Y82.21 E132.76947
M204 S3000
M205 X10 Y10
G0 F3000 X91.713 Y82.21
M204 S1800
M205 X8 Y8
G1 F1500 X127.789 Y118.286 E136.33297
M204 S3000
M205 X10 Y10
G0 F3000 X127.789 Y119.078
M204 S1800
M205 X8 Y8
G1 F1500 X90.921 Y82.21 E139.9747
M204 S3000
M205 X10 Y10
G0 F3000 X90.129 Y82.21
M204 S1800
M205 X8 Y8
G1 F1500 X127.789 Y119.87 E143.69466
M204 S3000
M205 X10 Y10
G0 F3000 X127.789 Y120.662
M204 S1800
M205 X8 Y8
G1 F1500 X89.337 Y82.21 E147.49286
M204 S3000
M205 X10 Y10
G0 F3000 X88.546 Y82.21
M204 S1800
M205 X8 Y8
G1 F1500 X127.789 Y121.454 E151.36923
M204 S3000
M205 X10 Y10
G0 F3000 X127.789 Y122.246
M204 S1800
M205 X8 Y8
G1 F1500 X87.754 Y82.21 E155.32384
M204 S3000
M205 X10 Y10
G0 F3000 X86.962 Y82.21
M204 S1800
M205 X8 Y8
G1 F1500 X127.789 Y123.037 E159.35663
M204 S3000
M205 X10 Y10
G0 F3000 X127.789 Y123.829
M204 S1800
M205 X8 Y8
G1 F1500 X86.17 Y82.21 E163.46766
M204 S3000
M205 X10 Y10
G0 F3000 X85.378 Y82.21
M204 S1800
M205 X8 Y8
G1 F1500 X127.789 Y124.621 E167.65691
M204 S3000
M205 X10 Y10
G0 F3000 X127.789 Y125.413
M204 S1800
M205 X8 Y8
G1 F1500 X84.586 Y82.21 E171.9244
M204 S3000
M205 X10 Y10
G0 F3000 X83.794 Y82.21
M204 S1800
M205 X8 Y8
G1 F1500 X127.789 Y126.205 E176.27012
M204 S3000
M205 X10 Y10
G0 F3000 X127.789 Y126.997
M204 S1800
M205 X8 Y8
G1 F1500 X83.002 Y82.21 E180.69407
M204 S3000
M205 X10 Y10
G0 F3000 X82.209 Y82.209
M204 S1800
M205 X8 Y8
G1 F1500 X127.789 Y127.789 E185.19635
M204 S3000
M205 X10 Y10
G0 F3000 X126.997 Y127.789
M204 S1800
M205 X8 Y8
G1 F1500 X82.209 Y83.001 E189.6204
M204 S3000
M205 X10 Y10
G0 F3000 X82.209 Y83.793
M204 S1800
M205 X8 Y8
G1 F1500 X126.205 Y127.789 E193.96622
M204 S3000
M205 X10 Y10
G0 F3000 X125.413 Y127.789
M204 S1800
M205 X8 Y8
G1 F1500 X82.209 Y84.585 E198.2338
M204 S3000
M205 X10 Y10
G0 F3000 X82.209 Y85.377
M204 S1800
M205 X8 Y8
G1 F1500 X124.621 Y127.789 E202.42316
M204 S3000
M205 X10 Y10
G0 F3000 X123.829 Y127.789
M204 S1800
M205 X8 Y8
G1 F1500 X82.209 Y86.169 E206.53428
M204 S3000
M205 X10 Y10
G0 F3000 X82.209 Y86.961
M204 S1800
M205 X8 Y8
G1 F1500 X123.037 Y127.789 E210.56717
M204 S3000
M205 X10 Y10
G0 F3000 X122.245 Y127.789
M204 S1800
M205 X8 Y8
G1 F1500 X82.209 Y87.753 E214.52183
M204 S3000
M205 X10 Y10
G0 F3000 X82.209 Y88.545
M204 S1800
M205 X8 Y8
G1 F1500 X121.453 Y127.789 E218.39825
M204 S3000
M205 X10 Y10
G0 F3000 X120.661 Y127.789
M204 S1800
M205 X8 Y8
G1 F1500 X82.209 Y89.337 E222.19645
M204 S3000
M205 X10 Y10
G0 F3000 X82.209 Y90.129
M204 S1800
M205 X8 Y8
G1 F1500 X119.869 Y127.789 E225.91641
M204 S3000
M205 X10 Y10
G0 F3000 X119.077 Y127.789
M204 S1800
M205 X8 Y8
G1 F1500 X82.209 Y90.921 E229.55814
M204 S3000
M205 X10 Y10
G0 F3000 X82.209 Y91.713
M204 S1800
M205 X8 Y8
G1 F1500 X118.285 Y127.789 E233.12164
M204 S3000
M205 X10 Y10
G0 F3000 X117.493 Y127.789
M204 S1800
M205 X8 Y8
G1 F1500 X82.209 Y92.505 E236.60691
M204 S3000
M205 X10 Y10
G0 F3000 X82.209 Y93.297
M204 S1800
M205 X8 Y8
G1 F1500 X116.701 Y127.789 E240.01395
M204 S3000
M205 X10 Y10
G0 F3000 X115.909 Y127.789
M204 S1800
M205 X8 Y8
G1 F1500 X82.209 Y94.089 E243.34275
M204 S3000
M205 X10 Y10
G0 F3000 X82.209 Y94.881
M204 S1800
M205 X8 Y8
G1 F1500 X115.117 Y127.789 E246.59332
M204 S3000
M205 X10 Y10
G0 F3000 X114.325 Y127.789
M204 S1800
M205 X8 Y8
G1 F1500 X82.209 Y95.672 E249.76571
M204 S3000
M205 X10 Y10
G0 F3000 X82.209 Y96.464
M204 S1800
M205 X8 Y8
G1 F1500 X113.533 Y127.789 E252.85987
M204 S3000
M205 X10 Y10
G0 F3000 X112.741 Y127.789
M204 S1800
M205 X8 Y8
G1 F1500 X82.209 Y97.256 E255.87579
M204 S3000
M205 X10 Y10
G0 F3000 X82.209 Y98.048
M204 S1800
M205 X8 Y8
G1 F1500 X111.949 Y127.789 E258.81349
M204 S3000
M205 X10 Y10
G0 F3000 X111.157 Y127.789
M204 S1800
M205 X8 Y8
G1 F1500 X82.209 Y98.84 E261.67295
M204 S3000
M205 X10 Y10
G0 F3000 X82.209 Y99.632
M204 S1800
M205 X8 Y8
G1 F1500 X110.365 Y127.789 E264.45418
M204 S3000
M205 X10 Y10
G0 F3000 X109.573 Y127.789
M204 S1800
M205 X8 Y8
G1 F1500 X82.209 Y100.424 E267.15718
M204 S3000
M205 X10 Y10
G0 F3000 X82.209 Y101.216
M204 S1800
M205 X8 Y8
G1 F1500 X108.782 Y127.789 E269.782
M204 S3000
M205 X10 Y10
G0 F3000 X107.99 Y127.789
M204 S1800
M205 X8 Y8
G1 F1500 X82.209 Y102.008 E272.32858
M204 S3000
M205 X10 Y10
G0 F3000 X82.209 Y102.8
M204 S1800
M205 X8 Y8
G1 F1500 X107.198 Y127.789 E274.79693
M204 S3000
M205 X10 Y10
G0 F3000 X106.406 Y127.789
M204 S1800
M205 X8 Y8
G1 F1500 X82.209 Y103.592 E277.18705
M204 S3000
M205 X10 Y10
G0 F3000 X82.209 Y104.384
M204 S1800
M205 X8 Y8
G1 F1500 X105.614 Y127.789 E279.49894
M204 S3000
M205 X10 Y10
G0 F3000 X104.822 Y127.789
M204 S1800
M205 X8 Y8
G1 F1500 X82.209 Y105.176 E281.7326
M204 S3000
M205 X10 Y10
G0 F3000 X82.209 Y105.968
M204 S1800
M205 X8 Y8
G1 F1500 X104.03 Y127.789 E283.88802
M204 S3000
M205 X10 Y10
G0 F3000 X103.238 Y127.789
M204 S1800
M205 X8 Y8
G1 F1500 X82.209 Y106.76 E285.96522
M204 S3000
M205 X10 Y10
G0 F3000 X82.209 Y107.552
M204 S1800
M205 X8 Y8
G1 F1500 X102.446 Y127.789 E287.96418
M204 S3000
M205 X10 Y10
G0 F3000 X101.654 Y127.789
M204 S1800
M205 X8 Y8
G1 F1500 X82.209 Y108.344 E289.88491
M204 S3000
M205 X10 Y10
G0 F3000 X82.209 Y109.136
M204 S1800
M205 X8 Y8
G1 F1500 X100.862 Y127.789 E291.72741
M204 S3000
M205 X10 Y10
G0 F3000 X100.07 Y127.789
M204 S1800
M205 X8 Y8
G1 F1500 X82.209 Y109.928 E293.49167
M204 S3000
M205 X10 Y10
G0 F3000 X82.209 Y110.72
M204 S1800
M205 X8 Y8
G1 F1500 X99.278 Y127.789 E295.17771
M204 S3000
M205 X10 Y10
G0 F3000 X98.486 Y127.789
M204 S1800
M205 X8 Y8
G1 F1500 X82.209 Y111.512 E296.78551
M204 S3000
M205 X10 Y10
G0 F3000 X82.209 Y112.304
M204 S1800
M205 X8 Y8
G1 F1500 X97.694 Y127.789 E298.31508
M204 S3000
M205 X10 Y10
G0 F3000 X96.902 Y127.789
M204 S1800
M205 X8 Y8
G1 F1500 X82.209 Y113.096 E299.76642
M204 S3000
M205 X10 Y10
G0 F3000 X82.209 Y113.888
M204 S1800
M205 X8 Y8
G1 F1500 X96.11 Y127.789 E301.13953
M204 S3000
M205 X10 Y10
G0 F3000 X95.318 Y127.789
M204 S1800
M205 X8 Y8
G1 F1500 X82.209 Y114.679 E302.43445
M204 S3000
M205 X10 Y10
G0 F3000 X82.209 Y115.471
M204 S1800
M205 X8 Y8
G1 F1500 X94.526 Y127.789 E303.65114
M204 S3000
M205 X10 Y10
G0 F3000 X93.734 Y127.789
M204 S1800
M205 X8 Y8
G1 F1500 X82.209 Y116.263 E304.7896
M204 S3000
M205 X10 Y10
G0 F3000 X82.209 Y117.055
M204 S1800
M205 X8 Y8
G1 F1500 X92.942 Y127.789 E305.84983
M204 S3000
M205 X10 Y10
G0 F3000 X92.15 Y127.789
M204 S1800
M205 X8 Y8
G1 F1500 X82.209 Y117.847 E306.83183
M204 S3000
M205 X10 Y10
G0 F3000 X82.209 Y118.639
M204 S1800
M205 X8 Y8
G1 F1500 X91.358 Y127.789 E307.73559
M204 S3000
M205 X10 Y10
G0 F3000 X90.566 Y127.789
M204 S1800
M205 X8 Y8
G1 F1500 X82.209 Y119.431 E308.56113
M204 S3000
M205 X10 Y10
G0 F3000 X82.209 Y120.223
M204 S1800
M205 X8 Y8
G1 F1500 X89.774 Y127.789 E309.30843
M204 S3000
M205 X10 Y10
G0 F3000 X88.983 Y127.789
M204 S1800
M205 X8 Y8
G1 F1500 X82.209 Y121.015 E309.97755
M204 S3000
M205 X10 Y10
G0 F3000 X82.209 Y121.807
M204 S1800
M205 X8 Y8
G1 F1500 X88.191 Y127.789 E310.56844
M204 S3000
M205 X10 Y10
G0 F3000 X87.399 Y127.789
M204 S1800
M205 X8 Y8
G1 F1500 X82.209 Y122.599 E311.08109
M204 S3000
M205 X10 Y10
G0 F3000 X82.209 Y123.391
M204 S1800
M205 X8 Y8
G1 F1500 X86.607 Y127.789 E311.51552
M204 S3000
M205 X10 Y10
G0 F3000 X85.815 Y127.789
M204 S1800
M205 X8 Y8
G1 F1500 X82.209 Y124.183 E311.87171
M204 S3000
M205 X10 Y10
G0 F3000 X82.209 Y124.975
M204 S1800
M205 X8 Y8
G1 F1500 X85.023 Y127.789 E312.14967
M204 S3000
M205 X10 Y10
G0 F3000 X84.231 Y127.789
M204 S1800
M205 X8 Y8
G1 F1500 X82.209 Y125.767 E312.3494
M204 S3000
M205 X10 Y10
G0 F3000 X82.209 Y126.559
M204 S1800
M205 X8 Y8
G1 F1500 X83.439 Y127.789 E312.47089
M204 S3000
M205 X10 Y10
G0 F3000 X82.647 Y127.789
M204 S1800
M205 X8 Y8
G1 F1500 X82.209 Y127.351 E312.51416
M204 S3000
M205 X10 Y10
;MESH:NONMESH
G0 F3000 X129 Y129
;TIME_ELAPSED:193.705238
;LAYER:1
M140 S85
;MESH:a66c7011-9edd-4f5c-98b9-c7d8d1b087bd.stl
G0 F4500 X129 Y129 Z0.5
M204 S1800
M205 X8 Y8
;TYPE:WALL-INNER
G1 F2250 X81 Y129 E314.11064
G1 X81 Y81 E315.70713
G1 X129 Y81 E317.30362
G1 X129 Y129 E318.9001
M204 S3000
M205 X10 Y10
G0 F4500 X129.4 Y129.4
M204 S1800
M205 X8 Y8
G1 F2250 X80.6 Y129.4 E320.5232
G1 X80.6 Y80.6 E322.14629
G1 X129.4 Y80.6 E323.76939
G1 X129.4 Y129.4 E325.39248
M204 S3000
M205 X10 Y10
G0 F4500 X129.8 Y129.8
M204 S1800
M205 X8 Y8
;TYPE:WALL-OUTER
G1 F2250 X80.2 Y129.8 E327.04218
G1 X80.2 Y80.2 E328.69189
G1 X129.8 Y80.2 E330.34159
G1 X129.8 Y129.8 E331.99129
M204 S3000
M205 X10 Y10
G0 F4500 X129.6 Y129.8
G0 X129.33 Y129.33
G0 X128.61 Y128.61
M204 S1800
M205 X8 Y8
;TYPE:SKIN
G1 F1500 X81.39 Y128.61 E333.56184
G1 X81.39 Y81.39 E335.13238
G1 X128.61 Y81.39 E336.70292
G1 X128.61 Y128.61 E338.27347
M204 S3000
M205 X10 Y10
G0 F4500 X127.825 Y128.429
M204 S1800
M205 X8 Y8
G1 F1500 X128.429 Y127.825 E338.30188
M204 S3000
M205 X10 Y10
G0 F4500 X128.429 Y127.26
M204 S1800
M205 X8 Y8
G1 F1500 X127.26 Y128.429 E338.35686
M204 S3000
M205 X10 Y10
G0 F4500 X126.694 Y128.429
M204 S1800
M205 X8 Y8
G1 F1500 X128.429 Y126.694 E338.43847
M204 S3000
M205 X10 Y10
G0 F4500 X128.429 Y126.128
M204 S1800
M205 X8 Y8
G1 F1500 X126.128 Y128.429 E338.5467
M204 S3000
M205 X10 Y10
G0 F4500 X125.563 Y128.429
M204 S1800
M205 X8 Y8
G1 F1500 X128.429 Y125.563 E338.68151
M204 S3000
M205 X10 Y10
G0 F4500 X128.429 Y124.997
M204 S1800
M205 X8 Y8
G1 F1500 X124.997 Y128.429 E338.84294
M204 S3000
M205 X10 Y10
G0 F4500 X124.431 Y128.429
M204 S1800
M205 X8 Y8
G1 F1500 X128.429 Y124.431 E339.031
M204 S3000
M205 X10 Y10
G0 F4500 X128.429 Y123.866
M204 S1800
M205 X8 Y8
G1 F1500 X123.866 Y128.429 E339.24563
M204 S3000
M205 X10 Y10
G0 F4500 X123.3 Y128.429
M204 S1800
M205 X8 Y8
G1 F1500 X128.429 Y123.3 E339.48688
M204 S3000
M205 X10 Y10
G0 F4500 X128.429 Y122.734
M204 S1800
M205 X8 Y8
G1 F1500 X122.734 Y128.429 E339.75475
M204 S3000
M205 X10 Y10
