;FLAVOR:Marlin
;TIME:9438
;Filament used: 13.4835m
;Layer height: 0.2
;Generated with Cura_SteamEngine 3.6.0
M140 S85
M105
M190 S85
M104 S215
M105
M109 S215
M82 ;absolute extrusion mode
G21 ;metric values
G90 ;absolute positioning
M82 ;set extruder to absolute mode
M107 ;start with the fan off
G28 X0 Y0 ;move X/Y to min endstops
G28 Z0 ;move Z to min endstops
G1 Z15.0 F100 ;move the platform down 15mm
G92 E0 ;zero the extruded length
G1 F200 E3 ;extrude 3mm of feed stock
G92 E0 ;zero the extruded length again
G1 F100
M117 Printing...
G5
G92 E0
G1 F2400 E-6
;LAYER_COUNT:500
;LAYER:0
M106 S255
M204 S3000
M205 X10 Y10
;MESH:28a5d4fa-bf31-459a-9786-158e71e6aa78.stl
G0 F3000 X153.6 Y106.6 Z0.3
M204 S1800
M205 X8 Y8
;TYPE:WALL-INNER
G1 F2400 E0
G1 F1500 X56.4 Y106.6 E6.78906
G1 X56.4 Y103.4 E7.01257
G1 X153.6 Y103.4 E13.80163
G1 X153.6 Y106.6 E14.02513
M204 S3000
M205 X10 Y10
G0 F3000 X154.16 Y107.16
M204 S1800
M205 X8 Y8
G1 F1500 X55.84 Y107.16 E20.89242
G1 X55.84 Y102.84 E21.19416
G1 X154.16 Y102.84 E28.06144
G1 X154.16 Y107.16 E28.36318
M204 S3000
M205 X10 Y10
G0 F3000 X154.72 Y107.72
M204 S1800
M205 X8 Y8
;TYPE:WALL-OUTER
G1 F1500 X55.28 Y107.72 E35.30869
G1 X55.28 Y102.28 E35.68866
G1 X154.72 Y102.28 E42.63417
G1 X154.72 Y107.72 E43.01414
M204 S3000
M205 X10 Y10
G0 F3000 X154.52 Y107.72
G0 X154.09 Y107.09
G0 X153.05 Y106.05
M204 S1800
M205 X8 Y8
;TYPE:SKIN
G1 F1500 X56.95 Y106.05 E49.72636
G1 X56.95 Y103.95 E49.87304
G1 X153.05 Y103.95 E56.58527
G1 X153.05 Y106.05 E56.73195
M204 S3000
M205 X10 Y10
G0 F3000 X152.789 Y104.479
M204 S1800
M205 X8 Y8
G1 F1500 X152.519 Y104.209 E56.75862
M204 S3000
M205 X10 Y10
G0 F3000 X151.727 Y104.209
M204 S1800
M205 X8 Y8
G1 F1500 X152.789 Y105.271 E56.86352
M204 S3000
M205 X10 Y10
G0 F3000 X152.515 Y105.789
M204 S1800
M205 X8 Y8
G1 F1500 X150.935 Y104.209 E57.01959
M204 S3000
M205 X10 Y10
G0 F3000 X150.143 Y104.209
M204 S1800
M205 X8 Y8
G1 F1500 X151.723 Y105.789 E57.17565
M204 S3000
M205 X10 Y10
G0 F3000 X150.931 Y105.789
M204 S1800
M205 X8 Y8
G1 F1500 X149.351 Y104.209 E57.33172
M204 S3000
M205 X10 Y10
G0 F3000 X148.559 Y104.209
M204 S1800
M205 X8 Y8
G1 F1500 X150.139 Y105.789 E57.48779
M204 S3000
M205 X10 Y10
G0 F3000 X149.347 Y105.789
M204 S1800
M205 X8 Y8
G1 F1500 X147.767 Y104.209 E57.64386
M204 S3000
M205 X10 Y10
G0 F3000 X146.975 Y104.209
M204 S1800
M205 X8 Y8
G1 F1500 X148.555 Y105.789 E57.79993
M204 S3000
M205 X10 Y10
G0 F3000 X147.763 Y105.789
M204 S1800
M205 X8 Y8
G1 F1500 X146.183 Y104.209 E57.956
M204 S3000
M205 X10 Y10
G0 F3000 X145.391 Y104.209
M204 S1800
M205 X8 Y8
G1 F1500 X146.971 Y105.789 E58.11207
M204 S3000
M205 X10 Y10
G0 F3000 X146.179 Y105.789
M204 S1800
M205 X8 Y8
G1 F1500 X144.599 Y104.209 E58.26813
M204 S3000
M205 X10 Y10
G0 F3000 X143.807 Y104.209
M204 S1800
M205 X8 Y8
G1 F1500 X145.387 Y105.789 E58.4242
M204 S3000
M205 X10 Y10
G0 F3000 X144.595 Y105.789
M204 S1800
M205 X8 Y8
G1 F1500 X143.015 Y104.209 E58.58027
M204 S3000
M205 X10 Y10
G0 F3000 X142.223 Y104.209
M204 S1800
M205 X8 Y8
G1 F1500 X143.803 Y105.789 E58.73634
M204 S3000
M205 X10 Y10
G0 F3000 X143.011 Y105.789
M204 S1800
M205 X8 Y8
G1 F1500 X141.431 Y104.209 E58.89241
M204 S3000
M205 X10 Y10
G0 F3000 X140.64 Y104.209
M204 S1800
M205 X8 Y8
G1 F1500 X142.219 Y105.789 E59.04843
M204 S3000
M205 X10 Y10
G0 F3000 X141.427 Y105.789
M204 S1800
M205 X8 Y8
G1 F1500 X139.848 Y104.209 E59.20445
M204 S3000
M205 X10 Y10
G0 F3000 X139.056 Y104.209
M204 S1800
M205 X8 Y8
G1 F1500 X140.635 Y105.789 E59.36047
M204 S3000
M205 X10 Y10
G0 F3000 X139.843 Y105.789
M204 S1800
M205 X8 Y8
G1 F1500 X138.264 Y104.209 E59.51648
M204 S3000
M205 X10 Y10
G0 F3000 X137.472 Y104.209
M204 S1800
M205 X8 Y8
G1 F1500 X139.051 Y105.789 E59.6725
M204 S3000
M205 X10 Y10
G0 F3000 X138.259 Y105.789
M204 S1800
M205 X8 Y8
G1 F1500 X136.68 Y104.209 E59.82852
M204 S3000
M205 X10 Y10
G0 F3000 X135.888 Y104.209
M204 S1800
M205 X8 Y8
G1 F1500 X137.467 Y105.789 E59.98454
M204 S3000
M205 X10 Y10
G0 F3000 X136.675 Y105.789
M204 S1800
M205 X8 Y8
G1 F1500 X135.096 Y104.209 E60.14056
M204 S3000
M205 X10 Y10
G0 F3000 X134.304 Y104.209
M204 S1800
M205 X8 Y8
G1 F1500 X135.884 Y105.789 E60.29663
M204 S3000
M205 X10 Y10
G0 F3000 X135.092 Y105.789
M204 S1800
M205 X8 Y8
G1 F1500 X133.512 Y104.209 E60.4527
M204 S3000
M205 X10 Y10
G0 F3000 X132.72 Y104.209
M204 S1800
M205 X8 Y8
G1 F1500 X134.3 Y105.789 E60.60877
M204 S3000
M205 X10 Y10
G0 F3000 X133.508 Y105.789
M204 S1800
M205 X8 Y8
G1 F1500 X131.928 Y104.209 E60.76484
M204 S3000
M205 X10 Y10
G0 F3000 X131.136 Y104.209
M204 S1800
M205 X8 Y8
G1 F1500 X132.716 Y105.789 E60.9209
M204 S3000
M205 X10 Y10
G0 F3000 X131.924 Y105.789
M204 S1800
M205 X8 Y8
G1 F1500 X130.344 Y104.209 E61.07697
M204 S3000
M205 X10 Y10
G0 F3000 X129.552 Y104.209
M204 S1800
M205 X8 Y8
G1 F1500 X131.132 Y105.789 E61.23304
M204 S3000
M205 X10 Y10
G0 F3000 X130.34 Y105.789
M204 S1800
M205 X8 Y8
G1 F1500 X128.76 Y104.209 E61.38911
M204 S3000
M205 X10 Y10
G0 F3000 X127.968 Y104.209
M204 S1800
M205 X8 Y8
G1 F1500 X129.548 Y105.789 E61.54518
M204 S3000
M205 X10 Y10
G0 F3000 X128.756 Y105.789
M204 S1800
M205 X8 Y8
G1 F1500 X127.176 Y104.209 E61.70125
M204 S3000
M205 X10 Y10
G0 F3000 X126.384 Y104.209
M204 S1800
M205 X8 Y8
G1 F1500 X127.964 Y105.789 E61.85732
M204 S3000
M205 X10 Y10
G0 F3000 X127.172 Y105.789
M204 S1800
M205 X8 Y8
G1 F1500 X125.592 Y104.209 E62.01338
M204 S3000
M205 X10 Y10
G0 F3000 X124.8 Y104.209
M204 S1800
M205 X8 Y8
G1 F1500 X126.38 Y105.789 E62.16945
M204 S3000
M205 X10 Y10
G0 F3000 X125.588 Y105.789
M204 S1800
M205 X8 Y8
G1 F1500 X124.008 Y104.209 E62.32552
M204 S3000
M205 X10 Y10
G0 F3000 X123.216 Y104.209
M204 S1800
M205 X8 Y8
G1 F1500 X124.796 Y105.789 E62.48159
M204 S3000
M205 X10 Y10
G0 F3000 X124.004 Y105.789
M204 S1800
M205 X8 Y8
G1 F1500 X122.424 Y104.209 E62.63766
M204 S3000
M205 X10 Y10
G0 F3000 X121.632 Y104.209
M204 S1800
M205 X8 Y8
G1 F1500 X123.212 Y105.789 E62.79373
M204 S3000
M205 X10 Y10
G0 F3000 X122.42 Y105.789
M204 S1800
M205 X8 Y8
G1 F1500 X120.841 Y104.209 E62.94975
M204 S3000
M205 X10 Y10
G0 F3000 X120.049 Y104.209
M204 S1800
M205 X8 Y8
G1 F1500 X121.628 Y105.789 E63.10577
M204 S3000
M205 X10 Y10
G0 F3000 X120.836 Y105.789
M204 S1800
M205 X8 Y8
G1 F1500 X119.257 Y104.209 E63.26178
M204 S3000
M205 X10 Y10
G0 F3000 X118.465 Y104.209
M204 S1800
M205 X8 Y8
G1 F1500 X120.044 Y105.789 E63.4178
M204 S3000
M205 X10 Y10
G0 F3000 X119.252 Y105.789
M204 S1800
M205 X8 Y8
G1 F1500 X117.673 Y104.209 E63.57382
M204 S3000
M205 X10 Y10
G0 F3000 X116.881 Y104.209
M204 S1800
M205 X8 Y8
G1 F1500 X118.46 Y105.789 E63.72984
M204 S3000
M205 X10 Y10
G0 F3000 X117.668 Y105.789
M204 S1800
M205 X8 Y8
G1 F1500 X116.089 Y104.209 E63.88586
M204 S3000
M205 X10 Y10
G0 F3000 X115.297 Y104.209
M204 S1800
M205 X8 Y8
G1 F1500 X116.876 Y105.789 E64.04188
M204 S3000
M205 X10 Y10
G0 F3000 X116.085 Y105.789
M204 S1800
M205 X8 Y8
G1 F1500 X114.505 Y104.209 E64.19795
M204 S3000
M205 X10 Y10
G0 F3000 X113.713 Y104.209
M204 S1800
M205 X8 Y8
G1 F1500 X115.293 Y105.789 E64.35402
M204 S3000
M205 X10 Y10
G0 F3000 X114.501 Y105.789
M204 S1800
M205 X8 Y8
G1 F1500 X112.921 Y104.209 E64.51009
M204 S3000
M205 X10 Y10
G0 F3000 X112.129 Y104.209
M204 S1800
M205 X8 Y8
G1 F1500 X113.709 Y105.789 E64.66615
M204 S3000
M205 X10 Y10
G0 F3000 X112.917 Y105.789
M204 S1800
M205 X8 Y8
G1 F1500 X111.337 Y104.209 E64.82222
M204 S3000
M205 X10 Y10
G0 F3000 X110.545 Y104.209
M204 S1800
M205 X8 Y8
G1 F1500 X112.125 Y105.789 E64.97829
M204 S3000
M205 X10 Y10
G0 F3000 X111.333 Y105.789
M204 S1800
M205 X8 Y8
G1 F1500 X109.753 Y104.209 E65.13436
M204 S3000
M205 X10 Y10
G0 F3000 X108.961 Y104.209
M204 S1800
M205 X8 Y8
G1 F1500 X110.541 Y105.789 E65.29043
M204 S3000
M205 X10 Y10
G0 F3000 X109.749 Y105.789
M204 S1800
M205 X8 Y8
G1 F1500 X108.169 Y104.209 E65.4465
M204 S3000
M205 X10 Y10
G0 F3000 X107.377 Y104.209
M204 S1800
M205 X8 Y8
G1 F1500 X108.957 Y105.789 E65.60257
M204 S3000
M205 X10 Y10
G0 F3000 X108.165 Y105.789
M204 S1800
M205 X8 Y8
G1 F1500 X106.585 Y104.209 E65.75863
M204 S3000
M205 X10 Y10
G0 F3000 X105.793 Y104.209
M204 S1800
M205 X8 Y8
G1 F1500 X107.373 Y105.789 E65.9147
M204 S3000
M205 X10 Y10
G0 F3000 X106.581 Y105.789
M204 S1800
M205 X8 Y8
G1 F1500 X105.001 Y104.209 E66.07077
M204 S3000
M205 X10 Y10
G0 F3000 X104.209 Y104.209
M204 S1800
M205 X8 Y8
G1 F1500 X105.789 Y105.789 E66.22684
M204 S3000
M205 X10 Y10
G0 F3000 X104.997 Y105.789
M204 S1800
M205 X8 Y8
G1 F1500 X103.417 Y104.209 E66.38291
M204 S3000
M205 X10 Y10
G0 F3000 X102.625 Y104.209
M204 S1800
M205 X8 Y8
G1 F1500 X104.205 Y105.789 E66.53898
M204 S3000
M205 X10 Y10
G0 F3000 X103.413 Y105.789
M204 S1800
M205 X8 Y8
G1 F1500 X101.833 Y104.209 E66.69505
M204 S3000
M205 X10 Y10
G0 F3000 X101.042 Y104.209
M204 S1800
M205 X8 Y8
G1 F1500 X102.621 Y105.789 E66.85106
M204 S3000
M205 X10 Y10
G0 F3000 X101.829 Y105.789
M204 S1800
M205 X8 Y8
G1 F1500 X100.25 Y104.209 E67.00708
M204 S3000
M205 X10 Y10
G0 F3000 X99.458 Y104.209
M204 S1800
M205 X8 Y8
G1 F1500 X101.037 Y105.789 E67.1631
M204 S3000
M205 X10 Y10
G0 F3000 X100.245 Y105.789
M204 S1800
M205 X8 Y8
G1 F1500 X98.666 Y104.209 E67.31912
M204 S3000
M205 X10 Y10
G0 F3000 X97.874 Y104.209
M204 S1800
M205 X8 Y8
G1 F1500 X99.453 Y105.789 E67.47514
M204 S3000
M205 X10 Y10
G0 F3000 X98.661 Y105.789
M204 S1800
M205 X8 Y8
G1 F1500 X97.082 Y104.209 E67.63116
M204 S3000
M205 X10 Y10
G0 F3000 X96.29 Y104.209
M204 S1800
M205 X8 Y8
G1 F1500 X97.869 Y105.789 E67.78718
M204 S3000
M205 X10 Y10
G0 F3000 X97.077 Y105.789
M204 S1800
M205 X8 Y8
G1 F1500 X95.498 Y104.209 E67.9432
M204 S3000
M205 X10 Y10
G0 F3000 X94.706 Y104.209
M204 S1800
M205 X8 Y8
G1 F1500 X96.286 Y105.789 E68.09927
M204 S3000
M205 X10 Y10
G0 F3000 X95.494 Y105.789
M204 S1800
M205 X8 Y8
G1 F1500 X93.914 Y104.209 E68.25534
M204 S3000
M205 X10 Y10
G0 F3000 X93.122 Y104.209
M204 S1800
M205 X8 Y8
G1 F1500 X94.702 Y105.789 E68.4114
M204 S3000
M205 X10 Y10
G0 F3000 X93.91 Y105.789
M204 S1800
M205 X8 Y8
G1 F1500 X92.33 Y104.209 E68.56747
M204 S3000
M205 X10 Y10
G0 F3000 X91.538 Y104.209
M204 S1800
M205 X8 Y8
G1 F1500 X93.118 Y105.789 E68.72354
M204 S3000
M205 X10 Y10
G0 F3000 X92.326 Y105.789
M204 S1800
M205 X8 Y8
G1 F1500 X90.746 Y104.209 E68.87961
M204 S3000
M205 X10 Y10
G0 F3000 X89.954 Y104.209
M204 S1800
M205 X8 Y8
G1 F1500 X91.534 Y105.789 E69.03568
M204 S3000
M205 X10 Y10
G0 F3000 X90.742 Y105.789
M204 S1800
M205 X8 Y8
G1 F1500 X89.162 Y104.209 E69.19175
M204 S3000
M205 X10 Y10
G0 F3000 X88.37 Y104.209
M204 S1800
M205 X8 Y8
G1 F1500 X89.95 Y105.789 E69.34782
M204 S3000
M205 X10 Y10
G0 F3000 X89.158 Y105.789
M204 S1800
M205 X8 Y8
G1 F1500 X87.578 Y104.209 E69.50388
M204 S3000
M205 X10 Y10
G0 F3000 X86.786 Y104.209
M204 S1800
M205 X8 Y8
G1 F1500 X88.366 Y105.789 E69.65995
M204 S3000
M205 X10 Y10
G0 F3000 X87.574 Y105.789
M204 S1800
M205 X8 Y8
G1 F1500 X85.994 Y104.209 E69.81602
M204 S3000
M205 X10 Y10
G0 F3000 X85.202 Y104.209
M204 S1800
M205 X8 Y8
G1 F1500 X86.782 Y105.789 E69.97209
M204 S3000
M205 X10 Y10
G0 F3000 X85.99 Y105.789
M204 S1800
M205 X8 Y8
G1 F1500 X84.41 Y104.209 E70.12816
M204 S3000
M205 X10 Y10
G0 F3000 X83.618 Y104.209
M204 S1800
M205 X8 Y8
G1 F1500 X85.198 Y105.789 E70.28423
M204 S3000
M205 X10 Y10
G0 F3000 X84.406 Y105.789
M204 S1800
M205 X8 Y8
G1 F1500 X82.826 Y104.209 E70.4403
M204 S3000
M205 X10 Y10
G0 F3000 X82.034 Y104.209
M204 S1800
M205 X8 Y8
G1 F1500 X83.614 Y105.789 E70.59636
M204 S3000
M205 X10 Y10
G0 F3000 X82.822 Y105.789
M204 S1800
M205 X8 Y8
G1 F1500 X81.243 Y104.209 E70.75238
M204 S3000
M205 X10 Y10
G0 F3000 X80.451 Y104.209
M204 S1800
M205 X8 Y8
G1 F1500 X82.03 Y105.789 E70.9084
M204 S3000
M205 X10 Y10
G0 F3000 X81.238 Y105.789
M204 S1800
M205 X8 Y8
G1 F1500 X79.659 Y104.209 E71.06442
M204 S3000
M205 X10 Y10
G0 F3000 X78.867 Y104.209
M204 S1800
M205 X8 Y8
G1 F1500 X80.446 Y105.789 E71.22044
M204 S3000
M205 X10 Y10
G0 F3000 X79.654 Y105.789
M204 S1800
M205 X8 Y8
G1 F1500 X78.075 Y104.209 E71.37646
M204 S3000
M205 X10 Y10
G0 F3000 X77.283 Y104.209
M204 S1800
M205 X8 Y8
G1 F1500 X78.862 Y105.789 E71.53248
M204 S3000
M205 X10 Y10
G0 F3000 X78.07 Y105.789
M204 S1800
M205 X8 Y8
G1 F1500 X76.491 Y104.209 E71.6885
M204 S3000
M205 X10 Y10
G0 F3000 X75.699 Y104.209
M204 S1800
M205 X8 Y8
G1 F1500 X77.278 Y105.789 E71.84452
M204 S3000
M205 X10 Y10
G0 F3000 X76.487 Y105.789
M204 S1800
M205 X8 Y8
G1 F1500 X74.907 Y104.209 E72.00059
M204 S3000
M205 X10 Y10
G0 F3000 X74.115 Y104.209
M204 S1800
M205 X8 Y8
G1 F1500 X75.695 Y105.789 E72.15665
M204 S3000
M205 X10 Y10
G0 F3000 X74.903 Y105.789
M204 S1800
M205 X8 Y8
G1 F1500 X73.323 Y104.209 E72.31272
M204 S3000
M205 X10 Y10
G0 F3000 X72.531 Y104.209
M204 S1800
M205 X8 Y8
G1 F1500 X74.111 Y105.789 E72.46879
M204 S3000
M205 X10 Y10
G0 F3000 X73.319 Y105.789
M204 S1800
M205 X8 Y8
G1 F1500 X71.739 Y104.209 E72.62486
M204 S3000
M205 X10 Y10
G0 F3000 X70.947 Y104.209
M204 S1800
M205 X8 Y8
G1 F1500 X72.527 Y105.789 E72.78093
M204 S3000
M205 X10 Y10
G0 F3000 X71.735 Y105.789
M204 S1800
M205 X8 Y8
G1 F1500 X70.155 Y104.209 E72.937
M204 S3000
M205 X10 Y10
G0 F3000 X69.363 Y104.209
M204 S1800
M205 X8 Y8
G1 F1500 X70.943 Y105.789 E73.09307
M204 S3000
M205 X10 Y10
G0 F3000 X70.151 Y105.789
M204 S1800
M205 X8 Y8
G1 F1500 X68.571 Y104.209 E73.24913
M204 S3000
M205 X10 Y10
G0 F3000 X67.779 Y104.209
M204 S1800
M205 X8 Y8
G1 F1500 X69.359 Y105.789 E73.4052
M204 S3000
M205 X10 Y10
G0 F3000 X68.567 Y105.789
M204 S1800
M205 X8 Y8
G1 F1500 X66.987 Y104.209 E73.56127
M204 S3000
M205 X10 Y10
G0 F3000 X66.195 Y104.209
M204 S1800
M205 X8 Y8
G1 F1500 X67.775 Y105.789 E73.71734
M204 S3000
M205 X10 Y10
G0 F3000 X66.983 Y105.789
M204 S1800
M205 X8 Y8
G1 F1500 X65.403 Y104.209 E73.87341
M204 S3000
M205 X10 Y10
G0 F3000 X64.611 Y104.209
M204 S1800
M205 X8 Y8
G1 F1500 X66.191 Y105.789 E74.02948
M204 S3000
M205 X10 Y10
G0 F3000 X65.399 Y105.789
M204 S1800
M205 X8 Y8
G1 F1500 X63.819 Y104.209 E74.18555
M204 S3000
M205 X10 Y10
G0 F3000 X63.027 Y104.209
M204 S1800
M205 X8 Y8
G1 F1500 X64.607 Y105.789 E74.34161
M204 S3000
M205 X10 Y10
G0 F3000 X63.815 Y105.789
M204 S1800
M205 X8 Y8
G1 F1500 X62.236 Y104.209 E74.49763
M204 S3000
M205 X10 Y10
G0 F3000 X61.444 Y104.209
M204 S1800
M205 X8 Y8
G1 F1500 X63.023 Y105.789 E74.65365
M204 S3000
M205 X10 Y10
G0 F3000 X62.231 Y105.789
M204 S1800
M205 X8 Y8
G1 F1500 X60.652 Y104.209 E74.80967
M204 S3000
M205 X10 Y10
G0 F3000 X59.86 Y104.209
M204 S1800
M205 X8 Y8
G1 F1500 X61.439 Y105.789 E74.96569
M204 S3000
M205 X10 Y10
G0 F3000 X60.647 Y105.789
M204 S1800
M205 X8 Y8
G1 F1500 X59.068 Y104.209 E75.12171
M204 S3000
M205 X10 Y10
G0 F3000 X58.276 Y104.209
M204 S1800
M205 X8 Y8
G1 F1500 X59.855 Y105.789 E75.27773
M204 S3000
M205 X10 Y10
G0 F3000 X59.063 Y105.789
M204 S1800
M205 X8 Y8
G1 F1500 X57.484 Y104.209 E75.43375
M204 S3000
M205 X10 Y10
G0 F3000 X57.209 Y104.727
M204 S1800
M205 X8 Y8
G1 F1500 X58.271 Y105.789 E75.53865
M204 S3000
M205 X10 Y10
G0 F3000 X57.48 Y105.789
M204 S1800
M205 X8 Y8
G1 F1500 X57.209 Y105.519 E75.56537
M204 S3000
M205 X10 Y10
;MESH:NONMESH
G0 F3000 X154 Y107
;TIME_ELAPSED:58.419647
;LAYER:1
M140 S85
;MESH:28a5d4fa-bf31-459a-9786-158e71e6aa78.stl
G0 F4500 X154 Y107 Z0.5
M204 S1800
M205 X8 Y8
;TYPE:WALL-INNER
G1 F2250 X56 Y107 E78.82486
G1 X56 Y103 E78.9579
G1 X154 Y103 E82.2174
G1 X154 Y107 E82.35044
M204 S3000
M205 X10 Y10
G0 F4500 X154.4 Y107.4
M204 S1800
M205 X8 Y8
G1 F2250 X55.6 Y107.4 E85.63654
G1 X55.6 Y102.6 E85.79619
G1 X154.4 Y102.6 E89.08229
G1 X154.4 Y107.4 E89.24194
M204 S3000
M205 X10 Y10
G0 F4500 X154.8 Y107.8
M204 S1800
M205 X8 Y8
;TYPE:WALL-OUTER
G1 F2250 X55.2 Y107.8 E92.55465
G1 X55.2 Y102.2 E92.7409
G1 X154.8 Y102.2 E96.05361
G1 X154.8 Y107.8 E96.23987
M204 S3000
M205 X10 Y10
G0 F4500 X154.6 Y107.8
G0 X154.33 Y107.33
G0 X153.61 Y106.61
M204 S1800
M205 X8 Y8
;TYPE:SKIN
G1 F1500 X56.39 Y106.61 E99.47342
G1 X56.39 Y103.39 E99.58052
G1 X153.61 Y103.39 E102.81407
G1 X153.61 Y106.61 E102.92117
M204 S3000
M205 X10 Y10
G0 F4500 X153.22 Y106.429
M204 S1800
M205 X8 Y8
G1 F1500 X153.429 Y106.22 E102.931
M204 S3000
M205 X10 Y10
G0 F4500 X153.429 Y105.654
M204 S1800
M205 X8 Y8
