;FLAVOR:Marlin
;TIME:17727
;Filament used: 24.0452m
;Layer height: 0.2
;Generated with Cura_SteamEngine 3.6.0
M140 S85
M105
M190 S85
M104 S215
M105
M109 S215
M82 ;absolute extrusion mode
G21 ;metric values
G90 ;absolute positioning
M82 ;set extruder to absolute mode
M107 ;start with the fan off
G28 X0 Y0 ;move X/Y to min endstops
G28 Z0 ;move Z to min endstops
G1 Z15.0 F100 ;move the platform down 15mm
G92 E0 ;zero the extruded length
G1 F200 E3 ;extrude 3mm of feed stock
G92 E0 ;zero the extruded length again
G1 F100
M117 Printing...
G5
G92 E0
G1 F2400 E-6
;LAYER_COUNT:250
;LAYER:0
M106 S255
M204 S3000
M205 X10 Y10
;MESH:1d2132de-6aeb-4d32-b30f-10db6df7b79e.stl
G0 F3000 X91.1 Y128.9 Z0.3
M204 S1800
M205 X8 Y8
;TYPE:WALL-INNER
G1 F2400 E0
G1 F1500 X106.4 Y128.9 E1.06865
G1 X106.4 Y78.9 E4.56096
G1 X116.1 Y78.9 E5.23847
G1 X116.1 Y128.9 E8.73079
G1 X131.4 Y128.9 E9.79943
G1 X131.4 Y78.9 E13.29175
G1 X141.1 Y78.9 E13.96926
G1 X141.1 Y128.9 E17.46157
G1 X153.6 Y128.9 E18.33465
G1 X153.6 Y131.1 E18.48831
G1 X56.4 Y131.1 E25.27737
G1 X56.4 Y78.9 E28.92335
G1 X66.1 Y78.9 E29.60085
G1 X66.1 Y128.9 E33.09317
G1 X81.4 Y128.9 E34.16182
G1 X81.4 Y78.9 E37.65413
G1 X91.1 Y78.9 E38.33164
G1 X91.1 Y128.9 E41.82395
M204 S3000
M205 X10 Y10
G0 F3000 X91.66 Y128.34
M204 S1800
M205 X8 Y8
G1 F1500 X105.84 Y128.34 E42.81437
G1 X105.84 Y78.34 E46.30669
G1 X116.66 Y78.34 E47.06243
G1 X116.66 Y128.34 E50.55474
G1 X130.84 Y128.34 E51.54516
G1 X130.84 Y78.34 E55.03747
G1 X141.66 Y78.34 E55.79321
G1 X141.66 Y128.34 E59.28553
G1 X154.16 Y128.34 E60.1586
G1 X154.16 Y131.66 E60.39049
G1 X55.84 Y131.66 E67.25778
G1 X55.84 Y78.34 E70.98198
G1 X66.66 Y78.34 E71.73772
G1 X66.66 Y128.34 E75.23004
G1 X80.84 Y128.34 E76.22046
G1 X80.84 Y78.34 E79.71277
G1 X91.66 Y78.34 E80.46851
G1 X91.66 Y128.34 E83.96082
M204 S3000
M205 X10 Y10
G0 F3000 X92.22 Y127.78
M204 S1800
M205 X8 Y8
;TYPE:WALL-OUTER
G1 F1500 X105.28 Y127.78 E84.87301
G1 X105.28 Y77.78 E88.36533
G1 X117.22 Y77.78 E89.19929
G1 X117.22 Y127.78 E92.69161
G1 X130.28 Y127.78 E93.6038
G1 X130.28 Y77.78 E97.09611
G1 X142.22 Y77.78 E97.93008
G1 X142.22 Y127.78 E101.42239
G1 X154.72 Y127.78 E102.29547
G1 X154.72 Y132.22 E102.60559
G1 X55.28 Y132.22 E109.5511
G1 X55.28 Y77.78 E113.35353
G1 X67.22 Y77.78 E114.1875
G1 X67.22 Y127.78 E117.67981
G1 X80.28 Y127.78 E118.592
G1 X80.28 Y77.78 E122.08432
G1 X92.22 Y77.78 E122.91828
G1 X92.22 Y127.78 E126.4106
M204 S3000
M205 X10 Y10
G0 F3000 X92.42 Y127.78
G0 X92.42 Y128.44
G0 X90.55 Y129.45
M204 S1800
M205 X8 Y8
;TYPE:SKIN
G1 F1500 X106.95 Y129.45 E127.55608
G1 X106.95 Y79.45 E131.04839
G1 X115.55 Y79.45 E131.64907
G1 X115.55 Y129.45 E135.14138
G1 X131.95 Y129.45 E136.28686
G1 X131.95 Y79.45 E139.77918
G1 X140.55 Y79.45 E140.37985
G1 X140.55 Y129.45 E143.87217
G1 X153.05 Y129.45 E144.74525
G1 X153.05 Y130.55 E144.82208
G1 X56.95 Y130.55 E151.53431
G1 X56.95 Y79.45 E155.10345
G1 X65.55 Y79.45 E155.70413
G1 X65.55 Y129.45 E159.19644
G1 X81.95 Y129.45 E160.34192
G1 X81.95 Y79.45 E163.83424
G1 X90.55 Y79.45 E164.43491
G1 X90.55 Y129.45 E167.92723
M204 S3000
M205 X10 Y10
G0 F3000 X57.429 Y130.289
M204 S1800
M205 X8 Y8
G1 F1500 X57.209 Y130.07 E167.94891
M204 S3000
M205 X10 Y10
G0 F3000 X57.209 Y129.278
M204 S1800
M205 X8 Y8
G1 F1500 X58.221 Y130.289 E168.04882
M204 S3000
M205 X10 Y10
G0 F3000 X59.013 Y130.289
M204 S1800
M205 X8 Y8
G1 F1500 X57.209 Y128.486 E168.22697
M204 S3000
M205 X10 Y10
G0 F3000 X57.209 Y127.694
M204 S1800
M205 X8 Y8
G1 F1500 X59.804 Y130.289 E168.4833
M204 S3000
M205 X10 Y10
G0 F3000 X60.596 Y130.289
M204 S1800
M205 X8 Y8
G1 F1500 X57.209 Y126.902 E168.81786
M204 S3000
M205 X10 Y10
G0 F3000 X57.209 Y126.11
M204 S1800
M205 X8 Y8
G1 F1500 X61.388 Y130.289 E169.23065
M204 S3000
M205 X10 Y10
G0 F3000 X62.18 Y130.289
M204 S1800
M205 X8 Y8
G1 F1500 X57.209 Y125.318 E169.72167
M204 S3000
M205 X10 Y10
G0 F3000 X57.209 Y124.526
M204 S1800
M205 X8 Y8
G1 F1500 X62.972 Y130.289 E170.29093
M204 S3000
M205 X10 Y10
G0 F3000 X63.764 Y130.289
M204 S1800
M205 X8 Y8
G1 F1500 X57.209 Y123.734 E170.93841
M204 S3000
M205 X10 Y10
G0 F3000 X57.209 Y122.942
M204 S1800
M205 X8 Y8
G1 F1500 X64.556 Y130.289 E171.66413
M204 S3000
M205 X10 Y10
G0 F3000 X65.348 Y130.289
M204 S1800
M205 X8 Y8
G1 F1500 X57.209 Y122.15 E172.46808
M204 S3000
M205 X10 Y10
G0 F3000 X57.209 Y121.358
M204 S1800
M205 X8 Y8
G1 F1500 X65.289 Y129.438 E173.26621
M204 S3000
M205 X10 Y10
G0 F3000 X65.56 Y129.709
M204 S1800
M205 X8 Y8
G1 F1500 X66.14 Y130.289 E173.3235
M204 S3000
M205 X10 Y10
G0 F3000 X66.352 Y129.709
M204 S1800
M205 X8 Y8
G1 F1500 X66.932 Y130.289 E173.38079
M204 S3000
M205 X10 Y10
G0 F3000 X67.144 Y129.709
M204 S1800
M205 X8 Y8
G1 F1500 X67.724 Y130.289 E173.43808
M204 S3000
M205 X10 Y10
G0 F3000 X67.936 Y129.709
M204 S1800
M205 X8 Y8
G1 F1500 X68.516 Y130.289 E173.49537
M204 S3000
M205 X10 Y10
G0 F3000 X68.728 Y129.709
M204 S1800
M205 X8 Y8
G1 F1500 X69.308 Y130.289 E173.55266
M204 S3000
M205 X10 Y10
G0 F3000 X69.52 Y129.709
M204 S1800
M205 X8 Y8
G1 F1500 X70.1 Y130.289 E173.60995
M204 S3000
M205 X10 Y10
G0 F3000 X70.312 Y129.709
M204 S1800
M205 X8 Y8
G1 F1500 X70.892 Y130.289 E173.66724
M204 S3000
M205 X10 Y10
G0 F3000 X71.104 Y129.709
M204 S1800
M205 X8 Y8
G1 F1500 X71.684 Y130.289 E173.72453
M204 S3000
M205 X10 Y10
G0 F3000 X71.896 Y129.709
M204 S1800
M205 X8 Y8
G1 F1500 X72.476 Y130.289 E173.78182
M204 S3000
M205 X10 Y10
G0 F3000 X72.688 Y129.709
M204 S1800
M205 X8 Y8
G1 F1500 X73.268 Y130.289 E173.83912
M204 S3000
M205 X10 Y10
G0 F3000 X73.48 Y129.709
M204 S1800
M205 X8 Y8
G1 F1500 X74.06 Y130.289 E173.89641
M204 S3000
M205 X10 Y10
G0 F3000 X74.272 Y129.709
M204 S1800
M205 X8 Y8
G1 F1500 X74.852 Y130.289 E173.9537
M204 S3000
M205 X10 Y10
G0 F3000 X75.064 Y129.709
M204 S1800
M205 X8 Y8
G1 F1500 X75.644 Y130.289 E174.01099
M204 S3000
M205 X10 Y10
G0 F3000 X75.856 Y129.709
M204 S1800
M205 X8 Y8
G1 F1500 X76.436 Y130.289 E174.06828
M204 S3000
M205 X10 Y10
G0 F3000 X76.648 Y129.709
M204 S1800
M205 X8 Y8
G1 F1500 X77.228 Y130.289 E174.12557
M204 S3000
M205 X10 Y10
G0 F3000 X77.44 Y129.709
M204 S1800
M205 X8 Y8
G1 F1500 X78.02 Y130.289 E174.18286
M204 S3000
M205 X10 Y10
G0 F3000 X78.232 Y129.709
M204 S1800
M205 X8 Y8
G1 F1500 X78.812 Y130.289 E174.24015
M204 S3000
M205 X10 Y10
G0 F3000 X79.024 Y129.709
M204 S1800
M205 X8 Y8
G1 F1500 X79.603 Y130.289 E174.29739
M204 S3000
M205 X10 Y10
G0 F3000 X79.816 Y129.709
M204 S1800
M205 X8 Y8
G1 F1500 X80.395 Y130.289 E174.35464
M204 S3000
M205 X10 Y10
G0 F3000 X80.608 Y129.709
M204 S1800
M205 X8 Y8
G1 F1500 X81.187 Y130.289 E174.41188
M204 S3000
M205 X10 Y10
G0 F3000 X81.4 Y129.709
M204 S1800
M205 X8 Y8
G1 F1500 X81.979 Y130.289 E174.46912
M204 S3000
M205 X10 Y10
G0 F3000 X82.191 Y129.709
M204 S1800
M205 X8 Y8
G1 F1500 X82.771 Y130.289 E174.52641
M204 S3000
M205 X10 Y10
G0 F3000 X83.563 Y130.289
M204 S1800
M205 X8 Y8
G1 F1500 X82.209 Y128.935 E174.66015
M204 S3000
M205 X10 Y10
G0 F3000 X82.209 Y128.143
M204 S1800
M205 X8 Y8
G1 F1500 X84.355 Y130.289 E174.87213
M204 S3000
M205 X10 Y10
G0 F3000 X85.147 Y130.289
M204 S1800
M205 X8 Y8
G1 F1500 X82.209 Y127.351 E175.16234
M204 S3000
M205 X10 Y10
G0 F3000 X82.209 Y126.559
M204 S1800
M205 X8 Y8
G1 F1500 X85.939 Y130.289 E175.53078
M204 S3000
M205 X10 Y10
G0 F3000 X86.731 Y130.289
M204 S1800
M205 X8 Y8
G1 F1500 X82.209 Y125.767 E175.97745
M204 S3000
M205 X10 Y10
G0 F3000 X82.209 Y124.975
M204 S1800
M205 X8 Y8
G1 F1500 X87.523 Y130.289 E176.50236
M204 S3000
M205 X10 Y10
G0 F3000 X88.315 Y130.289
M204 S1800
M205 X8 Y8
G1 F1500 X82.209 Y124.183 E177.10549
M204 S3000
M205 X10 Y10
G0 F3000 X82.209 Y123.391
M204 S1800
M205 X8 Y8
G1 F1500 X89.107 Y130.289 E177.78686
M204 S3000
M205 X10 Y10
G0 F3000 X89.899 Y130.289
M204 S1800
M205 X8 Y8
G1 F1500 X82.209 Y122.599 E178.54646
M204 S3000
M205 X10 Y10
G0 F3000 X82.209 Y121.807
M204 S1800
M205 X8 Y8
G1 F1500 X90.691 Y130.289 E179.38429
M204 S3000
M205 X10 Y10
G0 F3000 X90.903 Y129.709
M204 S1800
M205 X8 Y8
G1 F1500 X91.483 Y130.289 E179.44158
M204 S3000
M205 X10 Y10
G0 F3000 X91.695 Y129.709
M204 S1800
M205 X8 Y8
G1 F1500 X92.275 Y130.289 E179.49887
M204 S3000
M205 X10 Y10
G0 F3000 X92.487 Y129.709
M204 S1800
M205 X8 Y8
G1 F1500 X93.067 Y130.289 E179.55616
M204 S3000
M205 X10 Y10
G0 F3000 X93.279 Y129.709
M204 S1800
M205 X8 Y8
G1 F1500 X93.859 Y130.289 E179.61345
M204 S3000
M205 X10 Y10
G0 F3000 X94.071 Y129.709
M204 S1800
M205 X8 Y8
G1 F1500 X94.651 Y130.289 E179.67075
M204 S3000
M205 X10 Y10
G0 F3000 X94.863 Y129.709
M204 S1800
M205 X8 Y8
G1 F1500 X95.443 Y130.289 E179.72804
M204 S3000
M205 X10 Y10
G0 F3000 X95.655 Y129.709
M204 S1800
M205 X8 Y8
G1 F1500 X96.235 Y130.289 E179.78533
M204 S3000
M205 X10 Y10
G0 F3000 X96.447 Y129.709
M204 S1800
M205 X8 Y8
G1 F1500 X97.027 Y130.289 E179.84262
M204 S3000
M205 X10 Y10
G0 F3000 X97.239 Y129.709
M204 S1800
M205 X8 Y8
G1 F1500 X97.819 Y130.289 E179.89991
M204 S3000
M205 X10 Y10
G0 F3000 X98.031 Y129.709
M204 S1800
M205 X8 Y8
G1 F1500 X98.61 Y130.289 E179.95715
M204 S3000
M205 X10 Y10
G0 F3000 X98.823 Y129.709
M204 S1800
M205 X8 Y8
G1 F1500 X99.402 Y130.289 E180.01439
M204 S3000
M205 X10 Y10
G0 F3000 X99.615 Y129.709
M204 S1800
M205 X8 Y8
G1 F1500 X100.194 Y130.289 E180.07163
M204 S3000
M205 X10 Y10
G0 F3000 X100.407 Y129.709
M204 S1800
M205 X8 Y8
G1 F1500 X100.986 Y130.289 E180.12888
M204 S3000
M205 X10 Y10
G0 F3000 X101.199 Y129.709
M204 S1800
M205 X8 Y8
G1 F1500 X101.778 Y130.289 E180.18612
M204 S3000
M205 X10 Y10
G0 F3000 X101.99 Y129.709
M204 S1800
M205 X8 Y8
G1 F1500 X102.57 Y130.289 E180.24341
M204 S3000
M205 X10 Y10
G0 F3000 X102.782 Y129.709
M204 S1800
M205 X8 Y8
G1 F1500 X103.362 Y130.289 E180.3007
M204 S3000
M205 X10 Y10
G0 F3000 X103.574 Y129.709
M204 S1800
M205 X8 Y8
G1 F1500 X104.154 Y130.289 E180.35799
M204 S3000
M205 X10 Y10
G0 F3000 X104.366 Y129.709
M204 S1800
M205 X8 Y8
G1 F1500 X104.946 Y130.289 E180.41528
M204 S3000
M205 X10 Y10
G0 F3000 X105.158 Y129.709
M204 S1800
M205 X8 Y8
G1 F1500 X105.738 Y130.289 E180.47257
M204 S3000
M205 X10 Y10
G0 F3000 X105.95 Y129.709
M204 S1800
M205 X8 Y8
G1 F1500 X106.53 Y130.289 E180.52986
M204 S3000
M205 X10 Y10
G0 F3000 X106.742 Y129.709
M204 S1800
M205 X8 Y8
G1 F1500 X107.322 Y130.289 E180.58715
M204 S3000
M205 X10 Y10
G0 F3000 X108.114 Y130.289
M204 S1800
M205 X8 Y8
G1 F1500 X107.209 Y129.384 E180.67655
M204 S3000
M205 X10 Y10
G0 F3000 X107.209 Y128.592
M204 S1800
M205 X8 Y8
G1 F1500 X108.906 Y130.289 E180.84417
M204 S3000
M205 X10 Y10
G0 F3000 X109.698 Y130.289
M204 S1800
M205 X8 Y8
G1 F1500 X107.209 Y127.8 E181.09003
M204 S3000
M205 X10 Y10
G0 F3000 X107.209 Y127.008
M204 S1800
M205 X8 Y8
G1 F1500 X110.49 Y130.289 E181.41412
M204 S3000
M205 X10 Y10
G0 F3000 X111.282 Y130.289
M204 S1800
M205 X8 Y8
G1 F1500 X107.209 Y126.216 E181.81644
M204 S3000
M205 X10 Y10
G0 F3000 X107.209 Y125.424
M204 S1800
M205 X8 Y8
G1 F1500 X112.074 Y130.289 E182.29699
M204 S3000
M205 X10 Y10
G0 F3000 X112.866 Y130.289
M204 S1800
M205 X8 Y8
G1 F1500 X107.209 Y124.632 E182.85578
M204 S3000
M205 X10 Y10
G0 F3000 X107.209 Y123.84
M204 S1800
M205 X8 Y8
G1 F1500 X113.658 Y130.289 E183.49279
M204 S3000
M205 X10 Y10
G0 F3000 X114.45 Y130.289
M204 S1800
M205 X8 Y8
G1 F1500 X107.209 Y123.048 E184.20804
M204 S3000
M205 X10 Y10
G0 F3000 X107.209 Y122.256
M204 S1800
M205 X8 Y8
G1 F1500 X115.242 Y130.289 E185.00152
M204 S3000
M205 X10 Y10
G0 F3000 X115.454 Y129.71
M204 S1800
M205 X8 Y8
G1 F1500 X116.034 Y130.289 E185.05876
M204 S3000
M205 X10 Y10
G0 F3000 X116.246 Y129.71
M204 S1800
M205 X8 Y8
G1 F1500 X116.826 Y130.289 E185.11601
M204 S3000
M205 X10 Y10
G0 F3000 X117.038 Y129.71
M204 S1800
M205 X8 Y8
G1 F1500 X117.618 Y130.289 E185.17325
M204 S3000
M205 X10 Y10
G0 F3000 X117.83 Y129.71
M204 S1800
M205 X8 Y8
G1 F1500 X118.409 Y130.289 E185.23044
M204 S3000
M205 X10 Y10
G0 F3000 X118.622 Y129.71
M204 S1800
M205 X8 Y8
G1 F1500 X119.201 Y130.289 E185.28763
M204 S3000
M205 X10 Y10
G0 F3000 X119.414 Y129.71
M204 S1800
M205 X8 Y8
G1 F1500 X119.993 Y130.289 E185.34482
M204 S3000
M205 X10 Y10
G0 F3000 X120.206 Y129.71
M204 S1800
M205 X8 Y8
G1 F1500 X120.785 Y130.289 E185.40202
M204 S3000
M205 X10 Y10
G0 F3000 X120.998 Y129.71
M204 S1800
M205 X8 Y8
G1 F1500 X121.577 Y130.289 E185.45921
M204 S3000
M205 X10 Y10
G0 F3000 X121.79 Y129.71
M204 S1800
M205 X8 Y8
G1 F1500 X122.369 Y130.289 E185.5164
M204 S3000
M205 X10 Y10
G0 F3000 X122.582 Y129.71
M204 S1800
M205 X8 Y8
G1 F1500 X123.161 Y130.289 E185.57359
M204 S3000
M205 X10 Y10
G0 F3000 X123.374 Y129.71
M204 S1800
M205 X8 Y8
G1 F1500 X123.953 Y130.289 E185.63079
M204 S3000
M205 X10 Y10
G0 F3000 X124.166 Y129.71
M204 S1800
M205 X8 Y8
G1 F1500 X124.745 Y130.289 E185.68798
M204 S3000
M205 X10 Y10
G0 F3000 X124.958 Y129.71
M204 S1800
M205 X8 Y8
G1 F1500 X125.537 Y130.289 E185.74517
M204 S3000
M205 X10 Y10
G0 F3000 X125.75 Y129.71
M204 S1800
M205 X8 Y8
G1 F1500 X126.329 Y130.289 E185.80236
M204 S3000
M205 X10 Y10
G0 F3000 X126.542 Y129.71
M204 S1800
M205 X8 Y8
G1 F1500 X127.121 Y130.289 E185.85955
M204 S3000
M205 X10 Y10
G0 F3000 X127.334 Y129.71
M204 S1800
M205 X8 Y8
G1 F1500 X127.913 Y130.289 E185.91675
M204 S3000
M205 X10 Y10
G0 F3000 X128.126 Y129.71
M204 S1800
M205 X8 Y8
G1 F1500 X128.705 Y130.289 E185.97394
M204 S3000
M205 X10 Y10
G0 F3000 X128.918 Y129.71
M204 S1800
M205 X8 Y8
G1 F1500 X129.497 Y130.289 E186.03113
M204 S3000
M205 X10 Y10
G0 F3000 X129.71 Y129.71
M204 S1800
M205 X8 Y8
G1 F1500 X130.289 Y130.289 E186.08832
M204 S3000
M205 X10 Y10
G0 F3000 X130.502 Y129.71
M204 S1800
M205 X8 Y8
G1 F1500 X131.081 Y130.289 E186.14552
M204 S3000
M205 X10 Y10
G0 F3000 X131.294 Y129.71
M204 S1800
M205 X8 Y8
G1 F1500 X131.873 Y130.289 E186.20271
M204 S3000
M205 X10 Y10
G0 F3000 X132.086 Y129.71
M204 S1800
M205 X8 Y8
G1 F1500 X132.665 Y130.289 E186.2599
M204 S3000
M205 X10 Y10
G0 F3000 X133.457 Y130.289
M204 S1800
M205 X8 Y8
G1 F1500 X132.209 Y129.041 E186.38317
M204 S3000
M205 X10 Y10
G0 F3000 X132.209 Y128.249
M204 S1800
M205 X8 Y8
G1 F1500 X134.249 Y130.289 E186.58468
M204 S3000
M205 X10 Y10
G0 F3000 X135.041 Y130.289
M204 S1800
M205 X8 Y8
G1 F1500 X132.209 Y127.457 E186.86442
M204 S3000
M205 X10 Y10
G0 F3000 X132.209 Y126.665
M204 S1800
M205 X8 Y8
G1 F1500 X135.833 Y130.289 E187.22239
M204 S3000
M205 X10 Y10
G0 F3000 X136.625 Y130.289
M204 S1800
M205 X8 Y8
G1 F1500 X132.209 Y125.873 E187.65859
M204 S3000
M205 X10 Y10
G0 F3000 X132.209 Y125.081
M204 S1800
M205 X8 Y8
G1 F1500 X137.417 Y130.289 E188.17302
M204 S3000
M205 X10 Y10
G0 F3000 X138.208 Y130.289
M204 S1800
M205 X8 Y8
G1 F1500 X132.209 Y124.289 E188.76564
M204 S3000
M205 X10 Y10
G0 F3000 X132.209 Y123.497
M204 S1800
M205 X8 Y8
G1 F1500 X139 Y130.289 E189.43649
M204 S3000
M205 X10 Y10
G0 F3000 X139.792 Y130.289
M204 S1800
M205 X8 Y8
G1 F1500 X132.209 Y122.705 E190.18557
M204 S3000
M205 X10 Y10
G0 F3000 X132.209 Y121.913
M204 S1800
M205 X8 Y8
G1 F1500 X140.584 Y130.289 E191.01288
M204 S3000
M205 X10 Y10
G0 F3000 X140.796 Y129.709
M204 S1800
M205 X8 Y8
G1 F1500 X141.376 Y130.289 E191.07017
M204 S3000
M205 X10 Y10
G0 F3000 X141.588 Y129.709
M204 S1800
M205 X8 Y8
G1 F1500 X142.168 Y130.289 E191.12746
M204 S3000
M205 X10 Y10
G0 F3000 X142.38 Y129.709
M204 S1800
M205 X8 Y8
G1 F1500 X142.96 Y130.289 E191.18475
M204 S3000
M205 X10 Y10
G0 F3000 X143.172 Y129.709
M204 S1800
M205 X8 Y8
G1 F1500 X143.752 Y130.289 E191.24204
M204 S3000
M205 X10 Y10
G0 F3000 X143.964 Y129.709
M204 S1800
M205 X8 Y8
G1 F1500 X144.544 Y130.289 E191.29933
M204 S3000
M205 X10 Y10
G0 F3000 X144.756 Y129.709
M204 S1800
M205 X8 Y8
G1 F1500 X145.336 Y130.289 E191.35662
M204 S3000
M205 X10 Y10
G0 F3000 X145.548 Y129.709
M204 S1800
M205 X8 Y8
G1 F1500 X146.128 Y130.289 E191.41392
M204 S3000
M205 X10 Y10
G0 F3000 X146.34 Y129.709
M204 S1800
M205 X8 Y8
G1 F1500 X146.92 Y130.289 E191.47121
M204 S3000
M205 X10 Y10
G0 F3000 X147.132 Y129.709
M204 S1800
M205 X8 Y8
G1 F1500 X147.712 Y130.289 E191.5285
M204 S3000
M205 X10 Y10
G0 F3000 X147.924 Y129.709
M204 S1800
M205 X8 Y8
G1 F1500 X148.504 Y130.289 E191.58579
M204 S3000
M205 X10 Y10
G0 F3000 X148.716 Y129.709
M204 S1800
M205 X8 Y8
G1 F1500 X149.296 Y130.289 E191.64308
M204 S3000
M205 X10 Y10
