;FLAVOR:Marlin
;TIME:3074
;Filament used: 4.38406m
;Layer height: 0.2
;Generated with Cura_SteamEngine 3.6.0
M140 S85
M105
M190 S85
M104 S215
M105
M109 S215
M82 ;absolute extrusion mode
G21 ;metric values
G90 ;absolute positioning
M82 ;set extruder to absolute mode
M107 ;start with the fan off
G28 X0 Y0 ;move X/Y to min endstops
G28 Z0 ;move Z to min endstops
G1 Z15.0 F100 ;move the platform down 15mm
G92 E0 ;zero the extruded length
G1 F200 E3 ;extrude 3mm of feed stock
G92 E0 ;zero the extruded length again
G1 F100
M117 Printing...
G5
G92 E0
G1 F2400 E-6
;LAYER_COUNT:250
;LAYER:0
M106 S255
M204 S3000
M205 X10 Y10
;MESH:4ed2f0a1-1698-45ac-ae7e-74e18e50ac9b.stl
G0 F3000 X105.242 Y86.068 Z0.3
M204 S1800
M205 X8 Y8
;TYPE:WALL-INNER
G1 F2400 E0
G1 F1500 X106.412 Y88.094 E0.16341
G1 X106.552 Y88.336 E0.18294
G1 X106.31 Y88.476 E0.19555
G1 X105 Y89.232 E0.3012
G1 X103.69 Y88.476 E0.40684
G1 X103.448 Y88.336 E0.42637
G1 X103.588 Y88.094 E0.43898
G1 X104.758 Y86.068 E0.60239
G1 X105 Y85.648 E0.63625
G1 X105.242 Y86.068 E0.65541
M204 S3000
M205 X10 Y10
G0 F3000 X107.064 Y88.606
G0 X107.039 Y88.702
M204 S1800
M205 X8 Y8
G1 F1500 X105 Y89.879 E0.81986
G1 X102.961 Y88.702 E0.9843
G1 X81.425 Y126.004 E3.99275
G1 X81.147 Y125.844 E4.01515
G1 X102.683 Y88.542 E5.73427
G1 X105 Y84.528 E6.05799
G1 X107.316 Y88.541 E6.38161
G1 X128.853 Y125.844 E9.39016
G1 X128.575 Y126.004 E9.41256
G1 X107.039 Y88.702 E11.13165
M204 S3000
M205 X10 Y10
G0 F3000 X106.834 Y89.467
M204 S1800
M205 X8 Y8
;TYPE:WALL-OUTER
G1 F1500 X106.592 Y89.607 E11.15117
G1 X105 Y90.526 E11.27957
G1 X103.408 Y89.607 E11.40796
G1 X103.166 Y89.467 E11.42749
G1 X103.026 Y89.709 E11.4401
G1 X81.63 Y126.769 E14.42903
G1 X80.624 Y126.189 E14.51013
G1 X80.382 Y126.049 E14.52966
G1 X80.521 Y125.807 E14.54916
G1 X104.758 Y83.827 E17.9349
G1 X105 Y83.408 E17.9687
G1 X105.242 Y83.827 E17.98783
G1 X129.479 Y125.807 E21.37358
G1 X129.618 Y126.049 E21.39307
G1 X129.376 Y126.189 E21.4126
G1 X128.37 Y126.769 E21.49371
G1 X106.974 Y89.709 E24.48263
G1 X106.834 Y89.467 E24.49525
M204 S3000
M205 X10 Y10
G0 F3000 X106.661 Y89.567
G0 X106.332 Y88.995
G0 X105.801 Y88.135
M204 S1800
M205 X8 Y8
;TYPE:SKIN
G1 F1500 X105 Y88.597 E24.55983
G1 X104.199 Y88.135 E24.62442
G1 X105 Y86.747 E24.73635
G1 X105.801 Y88.135 E24.84828
M204 S3000
M205 X10 Y10
G0 F3000 X104.885 Y87.462
M204 S1800
M205 X8 Y8
G1 F1500 X105.419 Y87.995 E24.90098
M204 S3000
M205 X10 Y10
G0 F3000 X104.827 Y88.196
M204 S1800
M205 X8 Y8
G1 F1500 X104.595 Y87.964 E24.9239
M204 S3000
M205 X10 Y10
;MESH:NONMESH
G0 F3000 X107.097 Y88.484
;TIME_ELAPSED:24.741386
;LAYER:1
M140 S85
;MESH:4ed2f0a1-1698-45ac-ae7e-74e18e50ac9b.stl
G0 F4500 X107.097 Y88.484 Z0.5
M204 S1800
M205 X8 Y8
;TYPE:WALL-INNER
G1 F2250 X106.924 Y88.584 E24.93054
G1 X105 Y89.695 E25.00444
G1 X103.076 Y88.584 E25.07833
G1 X102.903 Y88.484 E25.08498
G1 X102.803 Y88.657 E25.08927
G1 X81.366 Y125.785 E26.51521
G1 X102.801 Y88.656 E27.22818
G1 X102.901 Y88.483 E27.2315
G1 X105 Y84.847 E27.37114
G1 X107.098 Y88.482 E27.51073
G1 X107.197 Y88.654 E27.51733
G1 X128.634 Y125.785 E28.94336
G1 X107.197 Y88.657 E29.6563
G1 X107.097 Y88.484 E29.65967
M204 S3000
M205 X10 Y10
G0 F4500 X106.951 Y89.03
M204 S1800
M205 X8 Y8
G1 F2250 X106.778 Y89.13 E29.66631
G1 X105 Y90.157 E29.7346
G1 X103.222 Y89.13 E29.8029
G1 X103.049 Y89.03 E29.80954
G1 X102.949 Y89.203 E29.81383
G1 X81.513 Y126.332 E31.23979
G1 X80.992 Y126.031 E31.2598
G1 X80.819 Y125.932 E31.26643
G1 X80.918 Y125.759 E31.27072
G1 X104.827 Y84.347 E32.86116
G1 X105 Y84.048 E32.87265
G1 X105.173 Y84.347 E32.87916
G1 X129.082 Y125.759 E34.46961
G1 X129.181 Y125.932 E34.47624
G1 X129.008 Y126.031 E34.48052
G1 X128.487 Y126.332 E34.50054
G1 X107.051 Y89.203 E35.92649
G1 X106.951 Y89.03 E35.93078
M204 S3000
M205 X10 Y10
G0 F4500 X106.805 Y89.576
M204 S1800
M205 X8 Y8
;TYPE:WALL-OUTER
G1 F2250 X105 Y90.618 E36.0001
G1 X103.195 Y89.576 E36.06942
G1 X81.659 Y126.878 E37.50202
G1 X80.446 Y126.178 E37.5486
G1 X80.273 Y126.078 E37.55524
G1 X80.373 Y125.905 E37.55953
G1 X104.827 Y83.548 E39.18626
G1 X105 Y83.249 E39.19775
G1 X105.173 Y83.548 E39.20426
G1 X129.627 Y125.905 E40.83099
G1 X129.727 Y126.078 E40.83764
G1 X129.554 Y126.178 E40.84193
G1 X128.341 Y126.878 E40.88851
G1 X106.805 Y89.576 E42.3211
M204 S3000
M205 X10 Y10
G0 F4500 X106.632 Y89.676
G0 X106.566 Y88.34
M204 S1800
M205 X8 Y8
;TYPE:SKIN
G1 F1500 X105 Y89.244 E42.38125
G1 X103.434 Y88.34 E42.44139
G1 X105 Y85.628 E42.54555
G1 X106.566 Y88.34 E42.6497
M204 S3000
M205 X10 Y10
G0 F4500 X106.112 Y87.917
M204 S1800
M205 X8 Y8
G1 F1500 X104.995 Y89.034 E42.70225
M204 S3000
M205 X10 Y10
G0 F4500 X104.636 Y88.827
M204 S1800
M205 X8 Y8
G1 F1500 X105.905 Y87.558 E42.76193
M204 S3000
M205 X10 Y10
G0 F4500 X105.698 Y87.2
M204 S1800
M205 X8 Y8
G1 F1500 X104.278 Y88.62 E42.82873
M204 S3000
M205 X10 Y10
G0 F4500 X103.919 Y88.413
M204 S1800
M205 X8 Y8
G1 F1500 X105.491 Y86.841 E42.90267
M204 S3000
M205 X10 Y10
G0 F4500 X105.284 Y86.482
M204 S1800
M205 X8 Y8
G1 F1500 X103.932 Y87.834 E42.96626
G1 X103.862 Y87.904
M204 S3000
M205 X10 Y10
G0 F4500 X104.705 Y86.496
M204 S1800
M205 X8 Y8
G1 F1500 X105.077 Y86.124 E42.98376
M204 S3000
M205 X10 Y10
;MESH:NONMESH
G0 F4500 X107.097 Y88.484
;TIME_ELAPSED:41.448986
;LAYER:2
;MESH:4ed2f0a1-1698-45ac-ae7e-74e18e50ac9b.stl
G0 F6000 X107.097 Y88.484 Z0.7
M204 S1800
M205 X8 Y8
;TYPE:WALL-INNER
G1 F3000 X106.924 Y88.584 E42.99041
G1 X105 Y89.695 E43.0643
G1 X103.076 Y88.584 E43.1382
G1 X102.903 Y88.484 E43.14484
G1 X102.803 Y88.657 E43.14914
G1 X81.366 Y125.785 E44.57507
G1 X102.801 Y88.656 E45.28804
G1 X102.901 Y88.483 E45.29136
G1 X105 Y84.847 E45.431
G1 X107.098 Y88.482 E45.57059
G1 X107.197 Y88.654 E45.5772
G1 X128.634 Y125.785 E47.00322
G1 X107.197 Y88.657 E47.71616
G1 X107.097 Y88.484 E47.71953
M204 S3000
M205 X10 Y10
G0 F6000 X106.951 Y89.03
M204 S1800
M205 X8 Y8
G1 F3000 X106.778 Y89.13 E47.72617
G1 X105 Y90.157 E47.79447
G1 X103.222 Y89.13 E47.86276
G1 X103.049 Y89.03 E47.86941
G1 X102.949 Y89.203 E47.8737
G1 X81.513 Y126.332 E49.29965
G1 X80.992 Y126.031 E49.31966
G1 X80.819 Y125.932 E49.32629
G1 X80.918 Y125.759 E49.33058
G1 X104.827 Y84.347 E50.92102
G1 X105 Y84.048 E50.93251
G1 X105.173 Y84.347 E50.93902
G1 X129.082 Y125.759 E52.52947
G1 X129.181 Y125.932 E52.5361
G1 X129.008 Y126.031 E52.54039
G1 X128.487 Y126.332 E52.5604
G1 X107.051 Y89.203 E53.98635
G1 X106.951 Y89.03 E53.99064
M204 S3000
M205 X10 Y10
G0 F6000 X106.805 Y89.576
M204 S1800
M205 X8 Y8
;TYPE:WALL-OUTER
G1 F3000 X105 Y90.618 E54.05996
G1 X103.195 Y89.576 E54.12928
G1 X81.659 Y126.878 E55.56188
G1 X80.446 Y126.178 E55.60846
G1 X80.273 Y126.078 E55.61511
G1 X80.373 Y125.905 E55.6194
G1 X104.827 Y83.548 E57.24612
G1 X105 Y83.249 E57.25761
G1 X105.173 Y83.548 E57.26412
G1 X129.627 Y125.905 E58.89085
G1 X129.727 Y126.078 E58.8975
G1 X129.554 Y126.178 E58.90179
G1 X128.341 Y126.878 E58.94837
G1 X106.805 Y89.576 E60.38097
M204 S3000
M205 X10 Y10
G0 F6000 X106.632 Y89.676
G0 X106.566 Y88.34
M204 S1800
M205 X8 Y8
;TYPE:SKIN
G1 F1500 X105 Y89.244 E60.44111
G1 X103.434 Y88.34 E60.50125
G1 X105 Y85.628 E60.60541
G1 X106.566 Y88.34 E60.70957
M204 S3000
M205 X10 Y10
G0 F6000 X104.873 Y86.205
M204 S1800
M205 X8 Y8
G1 F1500 X105.469 Y86.801 E60.7376
G1 X105.539 Y86.871
M204 S3000
M205 X10 Y10
G0 F6000 X104.665 Y86.564
M204 S1800
M205 X8 Y8
G1 F1500 X106.242 Y88.14 E60.81176
M204 S3000
M205 X10 Y10
G0 F6000 X105.996 Y88.459
M204 S1800
M205 X8 Y8
G1 F1500 X104.458 Y86.922 E60.88408
M204 S3000
M205 X10 Y10
G0 F6000 X104.251 Y87.281
M204 S1800
M205 X8 Y8
G1 F1500 X105.637 Y88.666 E60.94924
M204 S3000
M205 X10 Y10
G0 F6000 X105.279 Y88.874
M204 S1800
M205 X8 Y8
G1 F1500 X104.044 Y87.639 E61.00734
M204 S3000
M205 X10 Y10
G0 F6000 X103.837 Y87.998
M204 S1800
M205 X8 Y8
G1 F1500 X104.704 Y88.865 E61.04812
G1 X104.774 Y88.935
M204 S3000
M205 X10 Y10
;MESH:NONMESH
G0 F6000 X107.097 Y88.484
;TIME_ELAPSED:54.543462
;LAYER:3
;MESH:4ed2f0a1-1698-45ac-ae7e-74e18e50ac9b.stl
G0 X107.097 Y88.484 Z0.9
M204 S1800
M205 X8 Y8
;TYPE:WALL-INNER
G1 F3000 X106.924 Y88.584 E61.05476
G1 X105 Y89.695 E61.12866
G1 X103.076 Y88.584 E61.20255
G1 X102.903 Y88.484 E61.2092
G1 X102.803 Y88.657 E61.21349
G1 X81.366 Y125.785 E62.63943
G1 X102.801 Y88.656 E63.3524
G1 X102.901 Y88.483 E63.35572
G1 X105 Y84.847 E63.49536
G1 X107.098 Y88.482 E63.63495
G1 X107.197 Y88.654 E63.64155
G1 X128.634 Y125.785 E65.06758
G1 X107.197 Y88.657 E65.78052
G1 X107.097 Y88.484 E65.78388
M204 S3000
M205 X10 Y10
G0 F6000 X106.951 Y89.03
M204 S1800
M205 X8 Y8
G1 F3000 X106.778 Y89.13 E65.79053
G1 X105 Y90.157 E65.85882
G1 X103.222 Y89.13 E65.92712
G1 X103.049 Y89.03 E65.93376
G1 X102.949 Y89.203 E65.93805
G1 X81.513 Y126.332 E67.364
G1 X80.992 Y126.031 E67.38402
G1 X80.819 Y125.932 E67.39065
G1 X80.918 Y125.759 E67.39494
G1 X104.827 Y84.347 E68.98538
G1 X105 Y84.048 E68.99687
G1 X105.173 Y84.347 E69.00338
G1 X129.082 Y125.759 E70.59382
G1 X129.181 Y125.932 E70.60045
G1 X129.008 Y126.031 E70.60474
G1 X128.487 Y126.332 E70.62476
G1 X107.051 Y89.203 E72.05071
G1 X106.951 Y89.03 E72.055
M204 S3000
M205 X10 Y10
G0 F6000 X106.805 Y89.576
M204 S1800
M205 X8 Y8
;TYPE:WALL-OUTER
G1 F3000 X105 Y90.618 E72.12432
G1 X103.195 Y89.576 E72.19364
G1 X81.659 Y126.878 E73.62623
G1 X80.446 Y126.178 E73.67281
G1 X80.273 Y126.078 E73.67946
G1 X80.373 Y125.905 E73.68375
G1 X104.827 Y83.548 E75.31048
G1 X105 Y83.249 E75.32197
G1 X105.173 Y83.548 E75.32848
G1 X129.627 Y125.905 E76.95521
G1 X129.727 Y126.078 E76.96185
G1 X129.554 Y126.178 E76.96615
G1 X128.341 Y126.878 E77.01273
G1 X106.805 Y89.576 E78.44532
M204 S3000
M205 X10 Y10
G0 F6000 X106.632 Y89.676
G0 X106.566 Y88.34
M204 S1800
M205 X8 Y8
;TYPE:SKIN
G1 F1500 X105 Y89.244 E78.50546
G1 X103.434 Y88.34 E78.5656
G1 X105 Y85.628 E78.66976
G1 X106.566 Y88.34 E78.77392
M204 S3000
M205 X10 Y10
G0 F6000 X106.112 Y87.917
M204 S1800
M205 X8 Y8
G1 F1500 X104.995 Y89.034 E78.82646
M204 S3000
M205 X10 Y10
G0 F6000 X104.636 Y88.827
M204 S1800
M205 X8 Y8
G1 F1500 X105.905 Y87.558 E78.88615
M204 S3000
M205 X10 Y10
G0 F6000 X105.698 Y87.2
M204 S1800
M205 X8 Y8
G1 F1500 X104.278 Y88.62 E78.95295
M204 S3000
M205 X10 Y10
G0 F6000 X103.919 Y88.413
M204 S1800
M205 X8 Y8
G1 F1500 X105.491 Y86.841 E79.02689
M204 S3000
M205 X10 Y10
G0 F6000 X105.284 Y86.482
M204 S1800
M205 X8 Y8
G1 F1500 X103.932 Y87.834 E79.09048
G1 X103.862 Y87.904
M204 S3000
M205 X10 Y10
G0 F6000 X104.705 Y86.496
M204 S1800
M205 X8 Y8
G1 F1500 X105.077 Y86.124 E79.10798
M204 S3000
M205 X10 Y10
;MESH:NONMESH
G0 F6000 X107.097 Y88.484
;TIME_ELAPSED:67.615602
;LAYER:4
;MESH:4ed2f0a1-1698-45ac-ae7e-74e18e50ac9b.stl
G0 X107.097 Y88.484 Z1.1
M204 S1800
M205 X8 Y8
;TYPE:WALL-INNER
G1 F3000 X106.924 Y88.584 E79.11463
G1 X105 Y89.695 E79.18852
G1 X103.076 Y88.584 E79.26242
G1 X102.903 Y88.484 E79.26906
G1 X102.803 Y88.657 E79.27335
G1 X81.366 Y125.785 E80.69929
G1 X102.801 Y88.656 E81.41226
G1 X102.901 Y88.483 E81.41558
G1 X105 Y84.847 E81.55522
G1 X107.098 Y88.482 E81.69481
G1 X107.197 Y88.654 E81.70141
G1 X128.634 Y125.785 E83.12744
G1 X107.197 Y88.657 E83.84038
G1 X107.097 Y88.484 E83.84375
M204 S3000
M205 X10 Y10
G0 F6000 X106.951 Y89.03
M204 S1800
M205 X8 Y8
G1 F3000 X106.778 Y89.13 E83.85039
G1 X105 Y90.157 E83.91869
G1 X103.222 Y89.13 E83.98698
G1 X103.049 Y89.03 E83.99362
G1 X102.949 Y89.203 E83.99792
G1 X81.513 Y126.332 E85.42387
G1 X80.992 Y126.031 E85.44388
G1 X80.819 Y125.932 E85.45051
G1 X80.918 Y125.759 E85.4548
G1 X104.827 Y84.347 E87.04524
G1 X105 Y84.048 E87.05673
G1 X105.173 Y84.347 E87.06324
G1 X129.082 Y125.759 E88.65369
G1 X129.181 Y125.932 E88.66032
G1 X129.008 Y126.031 E88.66461
G1 X128.487 Y126.332 E88.68462
G1 X107.051 Y89.203 E90.11057
G1 X106.951 Y89.03 E90.11486
M204 S3000
M205 X10 Y10
G0 F6000 X106.805 Y89.576
M204 S1800
M205 X8 Y8
;TYPE:WALL-OUTER
G1 F3000 X105 Y90.618 E90.18418
G1 X103.195 Y89.576 E90.2535
G1 X81.659 Y126.878 E91.6861
G1 X80.446 Y126.178 E91.73268
G1 X80.273 Y126.078 E91.73932
G1 X80.373 Y125.905 E91.74362
G1 X104.827 Y83.548 E93.37034
G1 X105 Y83.249 E93.38183
G1 X105.173 Y83.548 E93.38834
G1 X129.627 Y125.905 E95.01507
G1 X129.727 Y126.078 E95.02172
G1 X129.554 Y126.178 E95.02601
G1 X128.341 Y126.878 E95.07259
G1 X106.805 Y89.576 E96.50519
M204 S3000
M205 X10 Y10
G0 F6000 X106.632 Y89.676
G0 X106.566 Y88.34
M204 S1800
M205 X8 Y8
;TYPE:SKIN
G1 F1500 X105 Y89.244 E96.56533
G1 X103.434 Y88.34 E96.62547
G1 X105 Y85.628 E96.72963
G1 X106.566 Y88.34 E96.83379
M204 S3000
M205 X10 Y10
G0 F6000 X104.873 Y86.205
M204 S1800
M205 X8 Y8
G1 F1500 X105.469 Y86.801 E96.86182
G1 X105.539 Y86.871
M204 S3000
M205 X10 Y10
G0 F6000 X104.665 Y86.564
M204 S1800
M205 X8 Y8
G1 F1500 X106.242 Y88.14 E96.93597
M204 S3000
M205 X10 Y10
G0 F6000 X105.996 Y88.459
M204 S1800
M205 X8 Y8
G1 F1500 X104.458 Y86.922 E97.00829
M204 S3000
M205 X10 Y10
G0 F6000 X104.251 Y87.281
M204 S1800
M205 X8 Y8
G1 F1500 X105.637 Y88.666 E97.07346
M204 S3000
M205 X10 Y10
G0 F6000 X105.279 Y88.874
M204 S1800
M205 X8 Y8
G1 F1500 X104.044 Y87.639 E97.13155
M204 S3000
M205 X10 Y10
G0 F6000 X103.837 Y87.998
M204 S1800
M205 X8 Y8
G1 F1500 X104.704 Y88.865 E97.17233
G1 X104.774 Y88.935
M204 S3000
M205 X10 Y10
;MESH:NONMESH
G0 F6000 X107.097 Y88.484
;TIME_ELAPSED:80.710078
;LAYER:5
;MESH:4ed2f0a1-1698-45ac-ae7e-74e18e50ac9b.stl
G0 X107.097 Y88.484 Z1.3
M204 S1800
M205 X8 Y8
;TYPE:WALL-INNER
G1 F3000 X106.924 Y88.584 E97.17898
G1 X105 Y89.695 E97.25288
G1 X103.076 Y88.584 E97.32677
G1 X102.903 Y88.484 E97.33342
G1 X102.803 Y88.657 E97.33771
G1 X81.366 Y125.785 E98.76365
G1 X102.801 Y88.656 E99.47661
G1 X102.901 Y88.483 E99.47994
G1 X105 Y84.847 E99.61958
G1 X107.098 Y88.482 E99.75917
G1 X107.197 Y88.654 E99.76577
G1 X128.634 Y125.785 E101.19179
G1 X107.197 Y88.657 E101.90474
G1 X107.097 Y88.484 E101.9081
M204 S3000
M205 X10 Y10
G0 F6000 X106.951 Y89.03
M204 S1800
M205 X8 Y8
G1 F3000 X106.778 Y89.13 E101.91475
G1 X105 Y90.157 E101.98304
G1 X103.222 Y89.13 E102.05133
G1 X103.049 Y89.03 E102.05798
G1 X102.949 Y89.203 E102.06227
G1 X81.513 Y126.332 E103.48822
G1 X80.992 Y126.031 E103.50823
G1 X80.819 Y125.932 E103.51486
G1 X80.918 Y125.759 E103.51915
G1 X104.827 Y84.347 E105.1096
G1 X105 Y84.048 E105.12109
G1 X105.173 Y84.347 E105.1276
G1 X129.082 Y125.759 E106.71804
G1 X129.181 Y125.932 E106.72467
G1 X129.008 Y126.031 E106.72896
G1 X128.487 Y126.332 E106.74897
G1 X107.051 Y89.203 E108.17492
G1 X106.951 Y89.03 E108.17922
M204 S3000
M205 X10 Y10
G0 F6000 X106.805 Y89.576
M204 S1800
M205 X8 Y8
;TYPE:WALL-OUTER
G1 F3000 X105 Y90.618 E108.24854
G1 X103.195 Y89.576 E108.31786
G1 X81.659 Y126.878 E109.75045
G1 X80.446 Y126.178 E109.79703
G1 X80.273 Y126.078 E109.80368
G1 X80.373 Y125.905 E109.80797
G1 X104.827 Y83.548 E111.4347
G1 X105 Y83.249 E111.44619
G1 X105.173 Y83.548 E111.4527
G1 X129.627 Y125.905 E113.07943
G1 X129.727 Y126.078 E113.08607
G1 X129.554 Y126.178 E113.09036
G1 X128.341 Y126.878 E113.13694
G1 X106.805 Y89.576 E114.56954
M204 S3000
M205 X10 Y10
G0 F6000 X106.632 Y89.676
G0 X106.566 Y88.34
M204 S1800
M205 X8 Y8
;TYPE:SKIN
G1 F1500 X105 Y89.244 E114.62968
G1 X103.434 Y88.34 E114.68982
G1 X105 Y85.628 E114.79398
G1 X106.566 Y88.34 E114.89814
M204 S3000
M205 X10 Y10
G0 F6000 X106.112 Y87.917
M204 S1800
M205 X8 Y8
G1 F1500 X104.995 Y89.034 E114.95068
M204 S3000
M205 X10 Y10
G0 F6000 X104.636 Y88.827
M204 S1800
M205 X8 Y8
G1 F1500 X105.905 Y87.558 E115.01037
M204 S3000
M205 X10 Y10
G0 F6000 X105.698 Y87.2
M204 S1800
M205 X8 Y8
G1 F1500 X104.278 Y88.62 E115.07716
M204 S3000
M205 X10 Y10
G0 F6000 X103.919 Y88.413
M204 S1800
M205 X8 Y8
G1 F1500 X105.491 Y86.841 E115.15111
M204 S3000
M205 X10 Y10
G0 F6000 X105.284 Y86.482
M204 S1800
M205 X8 Y8
G1 F1500 X103.932 Y87.834 E115.2147
G1 X103.862 Y87.904
M204 S3000
M205 X10 Y10
G0 F6000 X104.705 Y86.496
M204 S1800
M205 X8 Y8
G1 F1500 X105.077 Y86.124 E115.2322
M204 S3000
M205 X10 Y10
;MESH:NONMESH
G0 F6000 X104.083 Y87.112
;TIME_ELAPSED:93.762157
;LAYER:6
;MESH:4ed2f0a1-1698-45ac-ae7e-74e18e50ac9b.stl
G0 X104.083 Y87.112 Z1.5
M204 S1800
M205 X8 Y8
;TYPE:FILL
G1 F3000 X105.806 Y88.835 E115.31324
M204 S3000
M205 X10 Y10
