;FLAVOR:Marlin
;TIME:2039
;Filament used: 1.46412m
;Layer height: 0.2
;Generated with Cura_SteamEngine 3.6.0
M140 S85
M105
M190 S85
M104 S215
M105
M109 S215
M82 ;absolute extrusion mode
G21 ;metric values
G90 ;absolute positioning
M82 ;set extruder to absolute mode
M107 ;start with the fan off
G28 X0 Y0 ;move X/Y to min endstops
G28 Z0 ;move Z to min endstops
G1 Z15.0 F100 ;move the platform down 15mm
G92 E0 ;zero the extruded length
G1 F200 E3 ;extrude 3mm of feed stock
G92 E0 ;zero the extruded length again
G1 F100
M117 Printing...
G5
G92 E0
G1 F2400 E-6
;LAYER_COUNT:200
;LAYER:0
M106 S255
M204 S3000
M205 X10 Y10
G0 F3000 X82.631 Y97.55 Z0.3
M204 S1800
M205 X8 Y8
;TYPE:SKIRT
G1 F2400 E0
G1 X83.116 Y97.233 E0.04047
G1 X83.64 Y96.986 E0.08093
G1 X84.193 Y96.814 E0.12138
G1 X84.765 Y96.719 E0.16188
G1 X85.164 Y96.7 E0.18978
G1 X124.836 Y96.7 E2.96072
G1 X125.414 Y96.74 E3.00119
G1 X125.981 Y96.859 E3.04166
G1 X126.526 Y97.055 E3.08211
G1 X127.039 Y97.324 E3.12257
G1 X127.51 Y97.661 E3.16302
G1 X127.806 Y97.93 E3.19096
G1 X127.97 Y98.094 E3.20715
G1 X128.35 Y98.531 E3.2476
G1 X128.667 Y99.016 E3.28807
G1 X128.914 Y99.54 E3.32853
G1 X129.086 Y100.093 E3.36898
G1 X129.181 Y100.665 E3.40948
G1 X129.2 Y101.064 E3.43738
G1 X129.2 Y108.936 E3.98721
G1 X129.16 Y109.514 E4.02768
G1 X129.041 Y110.081 E4.06815
G1 X128.845 Y110.626 E4.1086
G1 X128.576 Y111.139 E4.14906
G1 X128.239 Y111.61 E4.18951
G1 X127.97 Y111.906 E4.21745
G1 X127.806 Y112.07 E4.23365
G1 X127.369 Y112.45 E4.2741
G1 X126.884 Y112.767 E4.31456
G1 X126.36 Y113.014 E4.35503
G1 X125.807 Y113.186 E4.39548
G1 X125.235 Y113.281 E4.43598
G1 X124.836 Y113.3 E4.46388
G1 X85.164 Y113.3 E7.23482
G1 X84.586 Y113.26 E7.27529
G1 X84.019 Y113.141 E7.31575
G1 X83.474 Y112.945 E7.3562
G1 X82.961 Y112.676 E7.39666
G1 X82.49 Y112.339 E7.43711
G1 X82.194 Y112.07 E7.46505
G1 X82.03 Y111.906 E7.48125
G1 X81.65 Y111.469 E7.5217
G1 X81.333 Y110.984 E7.56217
G1 X81.086 Y110.46 E7.60263
G1 X80.914 Y109.907 E7.64308
G1 X80.819 Y109.335 E7.68358
G1 X80.8 Y108.936 E7.71148
G1 X80.8 Y101.064 E8.26131
G1 X80.84 Y100.486 E8.30178
G1 X80.959 Y99.919 E8.34224
G1 X81.155 Y99.374 E8.3827
G1 X81.424 Y98.861 E8.42315
G1 X81.761 Y98.39 E8.46361
G1 X82.03 Y98.094 E8.49154
G1 X82.194 Y97.93 E8.50774
G1 X82.631 Y97.55 E8.54819
M204 S3000
M205 X10 Y10
G0 F3000 X82.999 Y97.974
M204 S1800
M205 X8 Y8
G1 F2400 X83.455 Y97.686 E8.58586
G1 X83.948 Y97.469 E8.62348
G1 X84.468 Y97.327 E8.66113
G1 X85.164 Y97.26 E8.70997
G1 X124.836 Y97.26 E11.48091
G1 X125.374 Y97.3 E11.51859
G1 X125.9 Y97.419 E11.55626
G1 X126.402 Y97.614 E11.59388
G1 X126.871 Y97.882 E11.63161
G1 X127.41 Y98.326 E11.68038
G1 X127.574 Y98.49 E11.69658
G1 X127.926 Y98.899 E11.73427
G1 X128.214 Y99.355 E11.77194
G1 X128.431 Y99.848 E11.80956
G1 X128.573 Y100.368 E11.84721
G1 X128.64 Y101.064 E11.89605
G1 X128.64 Y108.936 E12.44588
G1 X128.6 Y109.474 E12.48356
G1 X128.481 Y110 E12.52123
G1 X128.286 Y110.502 E12.55884
G1 X128.018 Y110.971 E12.59657
G1 X127.574 Y111.51 E12.64535
G1 X127.41 Y111.674 E12.66155
G1 X127.001 Y112.026 E12.69924
G1 X126.545 Y112.314 E12.73691
G1 X126.052 Y112.531 E12.77453
G1 X125.532 Y112.673 E12.81218
G1 X124.836 Y112.74 E12.86102
G1 X85.164 Y112.74 E15.63196
G1 X84.626 Y112.7 E15.66964
G1 X84.1 Y112.581 E15.70731
G1 X83.598 Y112.386 E15.74492
G1 X83.129 Y112.118 E15.78265
G1 X82.59 Y111.674 E15.83143
G1 X82.426 Y111.51 E15.84763
G1 X82.074 Y111.101 E15.88532
G1 X81.786 Y110.645 E15.92299
G1 X81.569 Y110.152 E15.96061
G1 X81.427 Y109.632 E15.99826
G1 X81.36 Y108.936 E16.0471
G1 X81.36 Y101.064 E16.59693
G1 X81.4 Y100.526 E16.63461
G1 X81.519 Y100 E16.67228
G1 X81.714 Y99.498 E16.70989
G1 X81.982 Y99.029 E16.74762
G1 X82.426 Y98.49 E16.7964
G1 X82.59 Y98.326 E16.8126
G1 X82.999 Y97.974 E16.85029
M204 S3000
M205 X10 Y10
G0 F3000 X83.364 Y98.401
M204 S1800
M205 X8 Y8
G1 F2400 X83.788 Y98.144 E16.88492
G1 X84.249 Y97.959 E16.91961
G1 X84.732 Y97.85 E16.9542
G1 X85.164 Y97.82 E16.98444
G1 X124.836 Y97.82 E19.75538
G1 X125.33 Y97.86 E19.79
G1 X125.812 Y97.979 E19.82468
G1 X126.268 Y98.173 E19.85929
G1 X126.687 Y98.438 E19.89392
G1 X127.014 Y98.722 E19.92417
G1 X127.178 Y98.886 E19.94037
G1 X127.499 Y99.264 E19.97501
G1 X127.756 Y99.688 E20.00964
G1 X127.941 Y100.149 E20.04433
G1 X128.05 Y100.632 E20.07892
G1 X128.08 Y101.064 E20.10916
G1 X128.08 Y108.936 E20.65899
G1 X128.04 Y109.43 E20.69361
G1 X127.921 Y109.912 E20.72829
G1 X127.727 Y110.368 E20.7629
G1 X127.462 Y110.787 E20.79753
G1 X127.178 Y111.114 E20.82778
G1 X127.014 Y111.278 E20.84398
G1 X126.636 Y111.599 E20.87861
G1 X126.212 Y111.856 E20.91324
G1 X125.751 Y112.041 E20.94794
G1 X125.268 Y112.15 E20.98252
G1 X124.836 Y112.18 E21.01277
G1 X85.164 Y112.18 E23.78371
G1 X84.67 Y112.14 E23.81833
G1 X84.188 Y112.021 E23.85301
G1 X83.732 Y111.827 E23.88762
G1 X83.313 Y111.562 E23.92225
G1 X82.986 Y111.278 E23.9525
G1 X82.822 Y111.114 E23.9687
G1 X82.501 Y110.736 E24.00333
G1 X82.244 Y110.312 E24.03796
G1 X82.059 Y109.851 E24.07266
G1 X81.95 Y109.368 E24.10724
G1 X81.92 Y108.936 E24.13749
G1 X81.92 Y101.064 E24.68732
G1 X81.96 Y100.57 E24.72194
G1 X82.079 Y100.088 E24.75661
G1 X82.273 Y99.632 E24.79123
G1 X82.538 Y99.213 E24.82585
G1 X82.822 Y98.886 E24.8561
G1 X82.986 Y98.722 E24.8723
G1 X83.364 Y98.401 E24.90694
M204 S3000
M205 X10 Y10
G0 F3000 X83.726 Y98.83
M204 S1800
M205 X8 Y8
G1 F2400 X84.116 Y98.608 E24.93829
G1 X84.539 Y98.459 E24.96961
G1 X85.164 Y98.38 E25.01361
G1 X124.836 Y98.38 E27.78455
G1 X125.283 Y98.42 E27.8159
G1 X125.715 Y98.538 E27.84718
G1 X126.12 Y98.732 E27.87854
G1 X126.618 Y99.118 E27.92255
G1 X126.782 Y99.282 E27.93875
G1 X127.07 Y99.626 E27.97009
G1 X127.292 Y100.016 E28.00143
G1 X127.441 Y100.439 E28.03276
G1 X127.52 Y101.064 E28.07676
G1 X127.52 Y108.936 E28.62659
G1 X127.48 Y109.383 E28.65793
G1 X127.362 Y109.815 E28.68921
G1 X127.168 Y110.22 E28.72058
G1 X126.782 Y110.718 E28.76459
G1 X126.618 Y110.882 E28.78079
G1 X126.274 Y111.17 E28.81212
G1 X125.884 Y111.392 E28.84347
G1 X125.461 Y111.541 E28.87479
G1 X124.836 Y111.62 E28.91879
G1 X85.164 Y111.62 E31.68973
G1 X84.717 Y111.58 E31.72108
G1 X84.285 Y111.462 E31.75236
G1 X83.88 Y111.268 E31.78372
G1 X83.382 Y110.882 E31.82773
G1 X83.218 Y110.718 E31.84393
G1 X82.93 Y110.374 E31.87527
G1 X82.708 Y109.984 E31.90661
G1 X82.559 Y109.561 E31.93794
G1 X82.48 Y108.936 E31.98194
G1 X82.48 Y101.064 E32.53177
G1 X82.52 Y100.617 E32.56311
G1 X82.638 Y100.185 E32.59439
G1 X82.832 Y99.78 E32.62576
G1 X83.218 Y99.282 E32.66977
G1 X83.382 Y99.118 E32.68597
G1 X83.726 Y98.83 E32.7173
M204 S3000
M205 X10 Y10
G0 F3000 X84.084 Y99.264
M204 S1800
M205 X8 Y8
G1 F2400 X84.435 Y99.081 E32.74495
G1 X84.815 Y98.971 E32.77258
G1 X85.164 Y98.94 E32.79705
G1 X124.836 Y98.94 E35.568
G1 X125.229 Y98.98 E35.59559
G1 X125.607 Y99.098 E35.62325
G1 X125.953 Y99.289 E35.65085
G1 X126.222 Y99.514 E35.67535
G1 X126.386 Y99.678 E35.69154
G1 X126.636 Y99.984 E35.71914
G1 X126.819 Y100.335 E35.74679
G1 X126.929 Y100.715 E35.77442
G1 X126.96 Y101.064 E35.7989
G1 X126.96 Y108.936 E36.34873
G1 X126.92 Y109.329 E36.37632
G1 X126.802 Y109.707 E36.40398
G1 X126.611 Y110.053 E36.43158
G1 X126.386 Y110.322 E36.45607
G1 X126.222 Y110.486 E36.47227
G1 X125.916 Y110.736 E36.49987
G1 X125.565 Y110.919 E36.52752
G1 X125.185 Y111.029 E36.55515
G1 X124.836 Y111.06 E36.57962
G1 X85.164 Y111.06 E39.35057
G1 X84.771 Y111.02 E39.37816
G1 X84.393 Y110.902 E39.40582
G1 X84.047 Y110.711 E39.43342
G1 X83.778 Y110.486 E39.45792
G1 X83.614 Y110.322 E39.47411
G1 X83.364 Y110.016 E39.50171
G1 X83.181 Y109.665 E39.52936
G1 X83.071 Y109.285 E39.55699
G1 X83.04 Y108.936 E39.58147
G1 X83.04 Y101.064 E40.1313
G1 X83.08 Y100.671 E40.15889
G1 X83.198 Y100.293 E40.18655
G1 X83.389 Y99.947 E40.21415
G1 X83.614 Y99.678 E40.23864
G1 X83.778 Y99.514 E40.25484
G1 X84.084 Y99.264 E40.28244
M204 S3000
M205 X10 Y10
G0 F3000 X84.437 Y99.704
M204 S1800
M205 X8 Y8
G1 F2400 X84.741 Y99.565 E40.30579
G1 X85.164 Y99.5 E40.33568
G1 X124.836 Y99.5 E43.10662
G1 X125.168 Y99.54 E43.12998
G1 X125.48 Y99.657 E43.15325
G1 X125.826 Y99.91 E43.18319
G1 X125.99 Y100.074 E43.19939
G1 X126.196 Y100.337 E43.22273
G1 X126.335 Y100.641 E43.24607
G1 X126.4 Y101.064 E43.27597
G1 X126.4 Y108.936 E43.8258
G1 X126.36 Y109.268 E43.84915
G1 X126.243 Y109.58 E43.87243
G1 X125.99 Y109.926 E43.90236
G1 X125.826 Y110.09 E43.91856
G1 X125.563 Y110.296 E43.9419
G1 X125.259 Y110.435 E43.96525
G1 X124.836 Y110.5 E43.99514
G1 X85.164 Y110.5 E46.76608
G1 X84.832 Y110.46 E46.78944
G1 X84.52 Y110.343 E46.81271
G1 X84.174 Y110.09 E46.84265
G1 X84.01 Y109.926 E46.85885
G1 X83.804 Y109.663 E46.88218
G1 X83.665 Y109.359 E46.90553
G1 X83.6 Y108.936 E46.93542
G1 X83.6 Y101.064 E47.48525
G1 X83.64 Y100.732 E47.50861
G1 X83.757 Y100.42 E47.53188
G1 X84.01 Y100.074 E47.56182
G1 X84.174 Y99.91 E47.57802
G1 X84.437 Y99.704 E47.60135
M204 S3000
M205 X10 Y10
G0 F3000 X84.57 Y100.306
M204 S1800
M205 X8 Y8
G1 F2400 X84.779 Y100.154 E47.6194
G1 X85.024 Y100.072 E47.63745
G1 X85.164 Y100.06 E47.64726
G1 X124.836 Y100.06 E50.4182
G1 X125.091 Y100.1 E50.43623
G1 X125.323 Y100.215 E50.45432
G1 X125.43 Y100.306 E50.46413
G1 X125.594 Y100.47 E50.48033
G1 X125.746 Y100.679 E50.49838
G1 X125.828 Y100.924 E50.51642
G1 X125.84 Y101.064 E50.52624
G1 X125.84 Y108.936 E51.07607
G1 X125.8 Y109.191 E51.0941
G1 X125.685 Y109.423 E51.11218
G1 X125.594 Y109.53 E51.12199
G1 X125.43 Y109.694 E51.13819
G1 X125.221 Y109.846 E51.15624
G1 X124.976 Y109.928 E51.17429
G1 X124.836 Y109.94 E51.1841
G1 X85.164 Y109.94 E53.95505
G1 X84.909 Y109.9 E53.97307
G1 X84.677 Y109.785 E53.99116
G1 X84.57 Y109.694 E54.00097
G1 X84.406 Y109.53 E54.01717
G1 X84.254 Y109.321 E54.03522
G1 X84.172 Y109.076 E54.05327
G1 X84.16 Y108.936 E54.06308
G1 X84.16 Y101.064 E54.61291
G1 X84.2 Y100.809 E54.63094
G1 X84.315 Y100.577 E54.64902
G1 X84.406 Y100.47 E54.65884
G1 X84.57 Y100.306 E54.67504
M204 S3000
M205 X10 Y10
G0 F3000 X84.966 Y100.702
M204 S1800
M205 X8 Y8
G1 F2400 X85.164 Y100.62 E54.69
G1 X124.836 Y100.62 E57.46095
G1 X125.034 Y100.702 E57.47591
G1 X125.198 Y100.866 E57.49211
G1 X125.28 Y101.064 E57.50708
G1 X125.28 Y108.936 E58.05691
G1 X125.198 Y109.134 E58.07188
G1 X125.034 Y109.298 E58.08808
G1 X124.836 Y109.38 E58.10305
G1 X85.164 Y109.38 E60.87399
G1 X84.966 Y109.298 E60.88896
G1 X84.802 Y109.134 E60.90516
G1 X84.72 Y108.936 E60.92013
G1 X84.72 Y101.064 E61.46996
G1 X84.802 Y100.866 E61.48493
G1 X84.966 Y100.702 E61.50113
M204 S3000
M205 X10 Y10
G1 F2400 E55.50113
;MESH:e4b8aece-7b49-4c2c-ae99-a84861fba1fd.stl
G0 F3000 X85.854 Y101.754
G0 X124.09 Y108.19
G0 X124.72 Y108.82
M204 S1800
M205 X8 Y8
;TYPE:WALL-OUTER
G1 F2400 E61.50113
G1 F1500 X85.28 Y108.82 E64.25586
G1 X85.28 Y101.18 E64.78949
G1 X124.72 Y101.18 E67.54423
G1 X124.72 Y108.82 E68.07785
M204 S3000
M205 X10 Y10
G0 F3000 X124.52 Y108.82
G0 X124.16 Y108.26
M204 S1800
M205 X8 Y8
;TYPE:WALL-INNER
G1 F1500 X85.84 Y108.26 E70.75436
G1 X85.84 Y101.74 E71.20976
G1 X124.16 Y101.74 E73.88627
G1 X124.16 Y108.26 E74.34167
M204 S3000
M205 X10 Y10
G0 F3000 X123.6 Y107.7
M204 S1800
M205 X8 Y8
G1 F1500 X86.4 Y107.7 E76.93995
G1 X86.4 Y102.3 E77.31712
G1 X123.6 Y102.3 E79.9154
G1 X123.6 Y107.7 E80.29257
M204 S3000
M205 X10 Y10
G0 F3000 X123.05 Y107.15
M204 S1800
M205 X8 Y8
;TYPE:SKIN
G1 F1500 X86.95 Y107.15 E82.81402
G1 X86.95 Y102.85 E83.11436
G1 X123.05 Y102.85 E85.63581
G1 X123.05 Y107.15 E85.93615
M204 S3000
M205 X10 Y10
G0 F3000 X122.789 Y103.782
M204 S1800
M205 X8 Y8
G1 F1500 X122.117 Y103.11 E86.00253
M204 S3000
M205 X10 Y10
G0 F3000 X121.325 Y103.11
M204 S1800
M205 X8 Y8
G1 F1500 X122.789 Y104.574 E86.14714
M204 S3000
M205 X10 Y10
G0 F3000 X122.789 Y105.365
M204 S1800
M205 X8 Y8
G1 F1500 X120.533 Y103.11 E86.36993
M204 S3000
M205 X10 Y10
G0 F3000 X119.741 Y103.11
M204 S1800
M205 X8 Y8
G1 F1500 X122.789 Y106.157 E86.67096
M204 S3000
M205 X10 Y10
G0 F3000 X122.728 Y106.889
M204 S1800
M205 X8 Y8
G1 F1500 X118.949 Y103.11 E87.04424
M204 S3000
M205 X10 Y10
G0 F3000 X118.157 Y103.11
M204 S1800
M205 X8 Y8
G1 F1500 X121.937 Y106.889 E87.41757
M204 S3000
M205 X10 Y10
G0 F3000 X121.145 Y106.889
M204 S1800
M205 X8 Y8
G1 F1500 X117.365 Y103.11 E87.7909
M204 S3000
M205 X10 Y10
G0 F3000 X116.573 Y103.11
M204 S1800
M205 X8 Y8
G1 F1500 X120.353 Y106.889 E88.16423
M204 S3000
M205 X10 Y10
G0 F3000 X119.561 Y106.889
M204 S1800
M205 X8 Y8
G1 F1500 X115.781 Y103.11 E88.53756
M204 S3000
M205 X10 Y10
G0 F3000 X114.989 Y103.11
M204 S1800
M205 X8 Y8
G1 F1500 X118.769 Y106.889 E88.91089
M204 S3000
M205 X10 Y10
G0 F3000 X117.977 Y106.889
M204 S1800
M205 X8 Y8
G1 F1500 X114.197 Y103.11 E89.28421
M204 S3000
M205 X10 Y10
G0 F3000 X113.405 Y103.11
M204 S1800
M205 X8 Y8
G1 F1500 X117.185 Y106.889 E89.65754
M204 S3000
M205 X10 Y10
G0 F3000 X116.393 Y106.889
M204 S1800
M205 X8 Y8
G1 F1500 X112.613 Y103.11 E90.03087
M204 S3000
M205 X10 Y10
G0 F3000 X111.821 Y103.11
M204 S1800
M205 X8 Y8
G1 F1500 X115.601 Y106.889 E90.4042
M204 S3000
M205 X10 Y10
G0 F3000 X114.809 Y106.889
M204 S1800
M205 X8 Y8
G1 F1500 X111.029 Y103.11 E90.77753
M204 S3000
M205 X10 Y10
G0 F3000 X110.237 Y103.11
M204 S1800
M205 X8 Y8
G1 F1500 X114.017 Y106.889 E91.15086
M204 S3000
M205 X10 Y10
G0 F3000 X113.225 Y106.889
M204 S1800
M205 X8 Y8
G1 F1500 X109.445 Y103.11 E91.52419
M204 S3000
M205 X10 Y10
G0 F3000 X108.654 Y103.11
M204 S1800
M205 X8 Y8
G1 F1500 X112.433 Y106.889 E91.89747
M204 S3000
M205 X10 Y10
G0 F3000 X111.641 Y106.889
M204 S1800
M205 X8 Y8
G1 F1500 X107.862 Y103.11 E92.27075
M204 S3000
M205 X10 Y10
G0 F3000 X107.07 Y103.11
M204 S1800
M205 X8 Y8
G1 F1500 X110.849 Y106.889 E92.64403
M204 S3000
M205 X10 Y10
G0 F3000 X110.057 Y106.889
M204 S1800
M205 X8 Y8
G1 F1500 X106.278 Y103.11 E93.01732
M204 S3000
M205 X10 Y10
G0 F3000 X105.486 Y103.11
M204 S1800
M205 X8 Y8
G1 F1500 X109.265 Y106.889 E93.3906
M204 S3000
M205 X10 Y10
G0 F3000 X108.473 Y106.889
M204 S1800
M205 X8 Y8
G1 F1500 X104.693 Y103.109 E93.76397
M204 S3000
M205 X10 Y10
G0 F3000 X103.901 Y103.109
M204 S1800
M205 X8 Y8
G1 F1500 X107.681 Y106.889 E94.13735
M204 S3000
M205 X10 Y10
G0 F3000 X106.889 Y106.889
M204 S1800
M205 X8 Y8
G1 F1500 X103.109 Y103.109 E94.51073
M204 S3000
M205 X10 Y10
G0 F3000 X102.317 Y103.109
M204 S1800
M205 X8 Y8
G1 F1500 X106.097 Y106.889 E94.88411
M204 S3000
M205 X10 Y10
G0 F3000 X105.305 Y106.889
M204 S1800
M205 X8 Y8
G1 F1500 X101.525 Y103.109 E95.25749
M204 S3000
M205 X10 Y10
G0 F3000 X100.733 Y103.109
M204 S1800
M205 X8 Y8
G1 F1500 X104.513 Y106.889 E95.63087
M204 S3000
M205 X10 Y10
G0 F3000 X103.721 Y106.889
M204 S1800
M205 X8 Y8
G1 F1500 X99.941 Y103.109 E96.00425
M204 S3000
M205 X10 Y10
G0 F3000 X99.149 Y103.109
M204 S1800
M205 X8 Y8
G1 F1500 X102.929 Y106.889 E96.37763
M204 S3000
M205 X10 Y10
G0 F3000 X102.137 Y106.889
M204 S1800
M205 X8 Y8
G1 F1500 X98.357 Y103.109 E96.75101
M204 S3000
M205 X10 Y10
G0 F3000 X97.565 Y103.109
M204 S1800
M205 X8 Y8
G1 F1500 X101.345 Y106.889 E97.12439
M204 S3000
M205 X10 Y10
G0 F3000 X100.553 Y106.889
M204 S1800
M205 X8 Y8
G1 F1500 X96.773 Y103.109 E97.49777
M204 S3000
M205 X10 Y10
G0 F3000 X95.981 Y103.109
M204 S1800
M205 X8 Y8
G1 F1500 X99.761 Y106.889 E97.87115
M204 S3000
M205 X10 Y10
G0 F3000 X98.969 Y106.889
M204 S1800
M205 X8 Y8
G1 F1500 X95.19 Y103.109 E98.24448
M204 S3000
M205 X10 Y10
G0 F3000 X94.398 Y103.109
M204 S1800
M205 X8 Y8
G1 F1500 X98.177 Y106.889 E98.61781
M204 S3000
M205 X10 Y10
G0 F3000 X97.385 Y106.889
M204 S1800
M205 X8 Y8
G1 F1500 X93.606 Y103.109 E98.99114
M204 S3000
M205 X10 Y10
G0 F3000 X92.814 Y103.109
M204 S1800
M205 X8 Y8
G1 F1500 X96.593 Y106.889 E99.36447
M204 S3000
M205 X10 Y10
G0 F3000 X95.801 Y106.889
M204 S1800
M205 X8 Y8
G1 F1500 X92.022 Y103.109 E99.73779
M204 S3000
M205 X10 Y10
G0 F3000 X91.23 Y103.109
M204 S1800
M205 X8 Y8
G1 F1500 X95.009 Y106.889 E100.11112
M204 S3000
M205 X10 Y10
G0 F3000 X94.217 Y106.889
M204 S1800
M205 X8 Y8
G1 F1500 X90.438 Y103.109 E100.48445
M204 S3000
M205 X10 Y10
G0 F3000 X89.646 Y103.109
M204 S1800
M205 X8 Y8
G1 F1500 X93.425 Y106.889 E100.85778
M204 S3000
M205 X10 Y10
G0 F3000 X92.633 Y106.889
M204 S1800
M205 X8 Y8
G1 F1500 X88.854 Y103.109 E101.23111
