;FLAVOR:Marlin
;TIME:1655
;Filament used: 1.52635m
;Layer height: 0.2
;Generated with Cura_SteamEngine 3.3.1
M190 S85
M104 S240
M109 S240
M82 ;absolute extrusion mode
G21 ;metric values
G90 ;absolute positioning
M82 ;set extruder to absolute mode
M107 ;start with the fan off
G28 X0 Y0 ;move X/Y to min endstops
G28 Z0 ;move Z to min endstops
G1 Z15.0 F9000 ;move the platform down 15mm
G92 E0 ;zero the extruded length
G1 F200 E3 ;extrude 3mm of feed stock
G92 E0 ;zero the extruded length again
G1 F9000
;Put printing message on LCD screen
M117 Printing...
G92 E0
G1 F1500 E-6.5
;LAYER_COUNT:5
;LAYER:0
M107
G0 F1800 X30.505 Y92.492 Z0.3
;TYPE:SKIRT
G1 F1500 E0
G1 X31.083 Y92.3 E0.03039
G1 X32.567 Y91.934 E0.10664
G1 X33.171 Y91.835 E0.13718
G1 X34.694 Y91.712 E0.21341
G1 X35.001 Y91.7 E0.22874
G1 X175.765 Y91.731 E7.25148
G1 X176.375 Y91.78 E7.28201
G1 X177.885 Y92.026 E7.35834
G1 X178.476 Y92.172 E7.38871
G1 X179.927 Y92.656 E7.46502
G1 X180.491 Y92.896 E7.4956
G1 X181.844 Y93.606 E7.57183
G1 X182.36 Y93.932 E7.60228
G1 X183.581 Y94.849 E7.67847
G1 X184.039 Y95.255 E7.709
G1 X185.099 Y96.358 E7.78532
G1 X185.488 Y96.835 E7.81603
G1 X186.355 Y98.093 E7.89225
G1 X186.657 Y98.617 E7.92243
G1 X187.314 Y99.998 E7.99872
G1 X187.533 Y100.574 E8.02947
G1 X187.958 Y102.043 E8.10576
G1 X188.08 Y102.641 E8.13621
G1 X188.264 Y104.158 E8.21245
G1 X188.289 Y104.768 E8.24291
G1 X188.228 Y106.296 E8.3192
G1 X188.154 Y106.904 E8.34976
G1 X187.848 Y108.403 E8.42609
G1 X187.678 Y108.99 E8.45657
G1 X187.136 Y110.42 E8.53287
G1 X186.873 Y110.975 E8.56351
G1 X186.108 Y112.298 E8.63976
G1 X185.762 Y112.799 E8.67013
G1 X184.795 Y113.984 E8.74644
G1 X184.372 Y114.425 E8.77692
G1 X183.227 Y115.44 E8.85326
G1 X182.736 Y115.808 E8.88387
G1 X181.445 Y116.624 E8.96007
G1 X180.903 Y116.909 E8.99062
G1 X179.495 Y117.508 E9.06696
G1 X178.917 Y117.7 E9.09735
G1 X177.433 Y118.066 E9.1736
G1 X176.829 Y118.165 E9.20414
G1 X175.306 Y118.288 E9.28037
G1 X174.999 Y118.3 E9.29569
G1 X34.235 Y118.269 E16.31844
G1 X33.625 Y118.22 E16.34897
G1 X32.115 Y117.974 E16.4253
G1 X31.524 Y117.828 E16.45567
G1 X30.073 Y117.344 E16.53198
G1 X29.509 Y117.104 E16.56256
G1 X28.156 Y116.394 E16.63879
G1 X27.64 Y116.067 E16.66927
G1 X26.418 Y115.149 E16.74552
G1 X25.96 Y114.744 E16.77602
G1 X24.9 Y113.641 E16.85234
G1 X24.51 Y113.163 E16.88312
G1 X23.643 Y111.904 E16.95939
G1 X23.342 Y111.381 E16.98949
G1 X22.685 Y110 E17.06579
G1 X22.465 Y109.423 E17.0966
G1 X22.041 Y107.956 E17.17278
G1 X21.92 Y107.359 E17.20317
G1 X21.736 Y105.842 E17.27941
G1 X21.711 Y105.232 E17.30987
G1 X21.772 Y103.704 E17.38616
G1 X21.846 Y103.096 E17.41672
G1 X22.152 Y101.597 E17.49305
G1 X22.322 Y101.01 E17.52354
G1 X22.864 Y99.58 E17.59983
G1 X23.127 Y99.025 E17.63047
G1 X23.892 Y97.702 E17.70672
G1 X24.238 Y97.201 E17.73709
G1 X25.205 Y96.016 E17.8134
G1 X25.628 Y95.575 E17.84389
G1 X26.773 Y94.56 E17.92022
G1 X27.264 Y94.192 E17.95084
G1 X28.555 Y93.376 E18.02703
G1 X29.097 Y93.091 E18.05758
G1 X30.505 Y92.492 E18.13392
G0 F1800 X30.662 Y92.86
G1 F1500 X31.179 Y92.688 E18.1611
G1 X32.663 Y92.322 E18.23736
G1 X33.203 Y92.234 E18.26466
G1 X34.726 Y92.111 E18.34089
G1 X35.001 Y92.1 E18.35462
G1 X175.765 Y92.131 E25.37736
G1 X176.311 Y92.175 E25.40469
G1 X177.821 Y92.421 E25.48102
G1 X178.35 Y92.552 E25.50821
G1 X179.801 Y93.036 E25.58452
G1 X180.305 Y93.25 E25.61184
G1 X181.658 Y93.96 E25.68807
G1 X182.12 Y94.252 E25.71533
G1 X183.341 Y95.169 E25.79152
G1 X183.75 Y95.532 E25.8188
G1 X184.81 Y96.635 E25.89512
G1 X185.159 Y97.062 E25.92263
G1 X186.026 Y98.32 E25.99886
G1 X186.296 Y98.788 E26.02581
G1 X186.953 Y100.169 E26.10211
G1 X187.149 Y100.685 E26.12965
G1 X187.574 Y102.154 E26.20594
G1 X187.683 Y102.69 E26.23323
G1 X187.867 Y104.207 E26.30947
G1 X187.889 Y104.752 E26.33668
G1 X187.828 Y106.28 E26.41297
G1 X187.762 Y106.824 E26.44031
G1 X187.456 Y108.323 E26.51664
G1 X187.304 Y108.848 E26.54391
G1 X186.762 Y110.278 E26.6202
G1 X186.526 Y110.775 E26.64765
G1 X185.761 Y112.098 E26.7239
G1 X185.452 Y112.546 E26.75105
G1 X184.485 Y113.731 E26.82736
G1 X184.106 Y114.125 E26.85463
G1 X182.961 Y115.14 E26.93097
G1 X182.523 Y115.47 E26.95833
G1 X181.232 Y116.286 E27.03452
G1 X180.746 Y116.541 E27.06191
G1 X179.338 Y117.14 E27.13824
G1 X178.821 Y117.312 E27.16543
G1 X177.337 Y117.678 E27.24168
G1 X176.797 Y117.766 E27.26898
G1 X175.274 Y117.889 E27.34521
G1 X174.999 Y117.9 E27.35894
G1 X34.235 Y117.869 E34.38168
G1 X33.689 Y117.825 E34.40901
G1 X32.179 Y117.579 E34.48534
G1 X31.65 Y117.448 E34.51253
G1 X30.199 Y116.964 E34.58884
G1 X29.695 Y116.75 E34.61616
G1 X28.342 Y116.04 E34.69239
G1 X27.88 Y115.747 E34.71968
G1 X26.658 Y114.829 E34.79593
G1 X26.249 Y114.467 E34.82318
G1 X25.189 Y113.364 E34.89951
G1 X24.84 Y112.936 E34.92706
G1 X23.973 Y111.677 E35.00332
G1 X23.703 Y111.21 E35.03023
G1 X23.046 Y109.829 E35.10653
G1 X22.85 Y109.312 E35.13412
G1 X22.426 Y107.845 E35.2103
G1 X22.317 Y107.31 E35.23754
G1 X22.133 Y105.793 E35.31378
G1 X22.111 Y105.248 E35.34099
G1 X22.172 Y103.72 E35.41728
G1 X22.238 Y103.176 E35.44462
G1 X22.544 Y101.677 E35.52095
G1 X22.696 Y101.152 E35.54822
G1 X23.238 Y99.722 E35.62452
G1 X23.474 Y99.225 E35.65196
G1 X24.239 Y97.902 E35.72821
G1 X24.548 Y97.454 E35.75536
G1 X25.515 Y96.269 E35.83167
G1 X25.894 Y95.875 E35.85894
G1 X27.039 Y94.86 E35.93528
G1 X27.477 Y94.53 E35.96264
G1 X28.768 Y93.714 E36.03883
G1 X29.254 Y93.459 E36.06622
G1 X30.662 Y92.86 E36.14255
G0 F1800 X30.819 Y93.228
G1 F1500 X31.275 Y93.076 E36.16653
G1 X32.759 Y92.71 E36.24279
G1 X33.236 Y92.633 E36.2669
G1 X34.759 Y92.51 E36.34313
G1 X35.001 Y92.5 E36.35521
G1 X175.765 Y92.531 E43.37795
G1 X176.246 Y92.57 E43.40203
G1 X177.756 Y92.816 E43.47836
G1 X178.223 Y92.931 E43.50235
G1 X179.674 Y93.415 E43.57866
G1 X180.119 Y93.605 E43.6028
G1 X181.472 Y94.315 E43.67904
G1 X181.88 Y94.572 E43.70309
G1 X183.101 Y95.489 E43.77927
G1 X183.462 Y95.809 E43.80334
G1 X184.522 Y96.912 E43.87966
G1 X184.829 Y97.289 E43.90392
G1 X185.696 Y98.547 E43.98014
G1 X185.935 Y98.96 E44.00395
G1 X186.592 Y100.341 E44.08025
G1 X186.765 Y100.796 E44.10453
G1 X187.19 Y102.265 E44.18083
G1 X187.286 Y102.738 E44.20491
G1 X187.47 Y104.255 E44.28114
G1 X187.49 Y104.736 E44.30516
G1 X187.429 Y106.264 E44.38145
G1 X187.37 Y106.744 E44.40558
G1 X187.064 Y108.243 E44.48191
G1 X186.93 Y108.706 E44.50596
G1 X186.388 Y110.136 E44.58225
G1 X186.18 Y110.575 E44.60649
G1 X185.415 Y111.898 E44.68273
G1 X185.142 Y112.293 E44.70669
G1 X184.175 Y113.478 E44.78299
G1 X183.841 Y113.826 E44.80706
G1 X182.696 Y114.841 E44.8834
G1 X182.309 Y115.132 E44.90755
G1 X181.018 Y115.948 E44.98375
G1 X180.589 Y116.173 E45.00792
G1 X179.181 Y116.772 E45.08425
G1 X178.725 Y116.924 E45.10824
G1 X177.241 Y117.29 E45.18449
G1 X176.764 Y117.367 E45.2086
G1 X175.241 Y117.49 E45.28483
G1 X174.999 Y117.5 E45.29691
G1 X34.235 Y117.469 E52.31966
G1 X33.754 Y117.43 E52.34373
G1 X32.244 Y117.184 E52.42006
G1 X31.777 Y117.069 E52.44405
G1 X30.326 Y116.585 E52.52036
G1 X29.881 Y116.395 E52.5445
G1 X28.528 Y115.685 E52.62074
G1 X28.12 Y115.428 E52.64479
G1 X26.898 Y114.51 E52.72105
G1 X26.537 Y114.19 E52.74511
G1 X25.477 Y113.087 E52.82143
G1 X25.169 Y112.71 E52.84572
G1 X24.302 Y111.451 E52.92199
G1 X24.064 Y111.038 E52.94577
G1 X23.407 Y109.657 E53.02206
G1 X23.234 Y109.201 E53.0464
G1 X22.81 Y107.734 E53.12258
G1 X22.714 Y107.262 E53.14661
G1 X22.53 Y105.745 E53.22285
G1 X22.51 Y105.264 E53.24687
G1 X22.571 Y103.736 E53.32316
G1 X22.63 Y103.256 E53.34729
G1 X22.936 Y101.757 E53.42362
G1 X23.07 Y101.294 E53.44766
G1 X23.612 Y99.864 E53.52396
G1 X23.82 Y99.425 E53.54819
G1 X24.585 Y98.102 E53.62444
G1 X24.858 Y97.707 E53.64839
G1 X25.825 Y96.522 E53.7247
G1 X26.159 Y96.174 E53.74877
G1 X27.304 Y95.159 E53.8251
G1 X27.691 Y94.868 E53.84926
G1 X28.982 Y94.052 E53.92546
G1 X29.411 Y93.827 E53.94962
G1 X30.819 Y93.228 E54.02596
G0 F1800 X30.975 Y93.597
G1 F1500 X31.37 Y93.465 E54.04674
G1 X32.854 Y93.099 E54.12299
G1 X33.268 Y93.031 E54.14393
G1 X34.791 Y92.908 E54.22016
G1 X35.001 Y92.9 E54.23064
G1 X175.765 Y92.931 E61.25339
G1 X176.182 Y92.965 E61.27426
G1 X177.692 Y93.211 E61.35059
G1 X178.097 Y93.311 E61.3714
G1 X179.548 Y93.795 E61.44771
G1 X179.933 Y93.959 E61.46859
G1 X181.286 Y94.669 E61.54482
G1 X181.639 Y94.892 E61.56565
G1 X182.86 Y95.809 E61.64183
G1 X183.174 Y96.086 E61.66272
G1 X184.234 Y97.189 E61.73904
G1 X184.5 Y97.516 E61.76007
G1 X185.367 Y98.774 E61.8363
G1 X185.574 Y99.132 E61.85693
G1 X186.231 Y100.513 E61.93323
G1 X186.381 Y100.907 E61.95426
G1 X186.806 Y102.376 E62.03055
G1 X186.889 Y102.786 E62.05142
G1 X187.073 Y104.303 E62.12766
G1 X187.09 Y104.72 E62.14848
G1 X187.029 Y106.248 E62.22478
G1 X186.978 Y106.664 E62.24569
G1 X186.672 Y108.163 E62.32201
G1 X186.556 Y108.564 E62.34284
G1 X186.014 Y109.994 E62.41913
G1 X185.834 Y110.374 E62.44011
G1 X185.069 Y111.697 E62.51636
G1 X184.832 Y112.04 E62.53716
G1 X183.865 Y113.225 E62.61346
G1 X183.576 Y113.527 E62.63432
G1 X182.431 Y114.542 E62.71066
G1 X182.095 Y114.794 E62.73161
G1 X180.804 Y115.61 E62.8078
G1 X180.433 Y115.804 E62.82869
G1 X179.025 Y116.403 E62.90503
G1 X178.63 Y116.535 E62.92581
G1 X177.146 Y116.901 E63.00206
G1 X176.732 Y116.969 E63.02299
G1 X175.209 Y117.092 E63.09922
G1 X174.999 Y117.1 E63.10971
G1 X34.235 Y117.069 E70.13245
G1 X33.818 Y117.035 E70.15333
G1 X32.308 Y116.789 E70.22965
G1 X31.903 Y116.689 E70.25047
G1 X30.452 Y116.205 E70.32678
G1 X30.067 Y116.041 E70.34766
G1 X28.714 Y115.331 E70.42389
G1 X28.36 Y115.108 E70.44476
G1 X27.138 Y114.19 E70.52101
G1 X26.825 Y113.913 E70.54187
G1 X25.765 Y112.81 E70.61819
G1 X25.499 Y112.483 E70.63922
G1 X24.632 Y111.224 E70.71548
G1 X24.425 Y110.866 E70.73611
G1 X23.768 Y109.485 E70.81241
G1 X23.618 Y109.09 E70.83349
G1 X23.194 Y107.623 E70.90967
G1 X23.111 Y107.214 E70.9305
G1 X22.927 Y105.697 E71.00673
G1 X22.91 Y105.28 E71.02756
G1 X22.971 Y103.752 E71.10385
G1 X23.022 Y103.336 E71.12476
G1 X23.328 Y101.837 E71.20109
G1 X23.444 Y101.436 E71.22191
G1 X23.986 Y100.006 E71.29821
G1 X24.166 Y99.626 E71.31918
G1 X24.931 Y98.303 E71.39543
G1 X25.168 Y97.96 E71.41623
G1 X26.135 Y96.775 E71.49254
G1 X26.424 Y96.473 E71.51339
G1 X27.569 Y95.458 E71.58973
G1 X27.905 Y95.206 E71.61068
G1 X29.196 Y94.39 E71.68688
G1 X29.567 Y94.196 E71.70776
G1 X30.975 Y93.597 E71.7841
G0 F1800 X31.132 Y93.965
G1 F1500 X31.466 Y93.853 E71.80168
G1 X32.95 Y93.487 E71.87793
G1 X33.3 Y93.43 E71.89562
G1 X34.823 Y93.307 E71.97185
G1 X35 Y93.3 E71.98069
G1 X175.764 Y93.331 E79.00344
G1 X176.118 Y93.36 E79.02116
G1 X177.628 Y93.606 E79.09748
G1 X177.97 Y93.69 E79.11505
G1 X179.421 Y94.174 E79.19137
G1 X179.747 Y94.313 E79.20905
G1 X181.1 Y95.023 E79.28528
G1 X181.399 Y95.212 E79.30293
G1 X182.62 Y96.129 E79.37911
G1 X182.885 Y96.364 E79.39678
G1 X183.945 Y97.467 E79.4731
G1 X184.17 Y97.743 E79.49086
G1 X185.037 Y99.001 E79.56709
G1 X185.213 Y99.304 E79.58457
G1 X185.87 Y100.685 E79.66087
G1 X185.996 Y101.019 E79.67868
G1 X186.421 Y102.488 E79.75497
G1 X186.492 Y102.834 E79.77259
G1 X186.676 Y104.351 E79.84883
G1 X186.69 Y104.704 E79.86646
G1 X186.629 Y106.232 E79.94275
G1 X186.587 Y106.584 E79.96044
G1 X186.281 Y108.083 E80.03676
G1 X186.182 Y108.423 E80.05443
G1 X185.64 Y109.853 E80.13073
G1 X185.488 Y110.174 E80.14845
G1 X184.723 Y111.497 E80.22469
G1 X184.522 Y111.787 E80.24229
G1 X183.555 Y112.972 E80.3186
G1 X183.31 Y113.227 E80.33624
G1 X182.165 Y114.242 E80.41258
G1 X181.881 Y114.456 E80.43032
G1 X180.59 Y115.272 E80.50652
G1 X180.276 Y115.436 E80.52419
G1 X178.868 Y116.035 E80.60053
G1 X178.534 Y116.147 E80.6181
G1 X177.05 Y116.513 E80.69436
G1 X176.7 Y116.57 E80.71205
G1 X175.177 Y116.693 E80.78828
G1 X175 Y116.7 E80.79712
G1 X34.236 Y116.669 E87.81986
G1 X33.882 Y116.64 E87.83758
G1 X32.372 Y116.394 E87.91391
G1 X32.03 Y116.31 E87.93148
G1 X30.579 Y115.826 E88.00779
G1 X30.253 Y115.687 E88.02547
G1 X28.9 Y114.977 E88.1017
G1 X28.601 Y114.788 E88.11935
G1 X27.379 Y113.87 E88.1956
G1 X27.114 Y113.635 E88.21327
G1 X26.054 Y112.532 E88.28959
G1 X25.828 Y112.256 E88.30739
G1 X24.961 Y110.997 E88.38366
G1 X24.786 Y110.694 E88.40111
G1 X24.129 Y109.313 E88.47741
G1 X24.003 Y108.979 E88.49522
G1 X23.579 Y107.512 E88.57141
G1 X23.508 Y107.166 E88.58903
G1 X23.324 Y105.649 E88.66526
G1 X23.31 Y105.296 E88.68289
G1 X23.371 Y103.768 E88.75918
G1 X23.413 Y103.416 E88.77687
G1 X23.719 Y101.917 E88.8532
G1 X23.818 Y101.577 E88.87086
G1 X24.36 Y100.147 E88.94716
G1 X24.512 Y99.826 E88.96488
G1 X25.277 Y98.503 E89.04112
G1 X25.478 Y98.213 E89.05873
G1 X26.445 Y97.028 E89.13503
G1 X26.69 Y96.773 E89.15268
G1 X27.835 Y95.758 E89.22901
G1 X28.119 Y95.544 E89.24675
G1 X29.41 Y94.728 E89.32295
G1 X29.724 Y94.564 E89.34062
G1 X31.132 Y93.965 E89.41696
G0 F1800 X31.288 Y94.333
G1 F1500 X31.562 Y94.241 E89.43138
G1 X33.046 Y93.875 E89.50764
G1 X33.332 Y93.829 E89.52209
G1 X34.855 Y93.706 E89.59832
G1 X35 Y93.7 E89.60556
G1 X175.764 Y93.731 E96.6283
G1 X176.053 Y93.754 E96.64277
G1 X177.563 Y94 E96.7191
G1 X177.844 Y94.069 E96.73353
G1 X179.295 Y94.553 E96.80984
G1 X179.561 Y94.667 E96.82428
G1 X180.914 Y95.377 E96.90051
G1 X181.159 Y95.532 E96.91498
G1 X182.38 Y96.449 E96.99116
G1 X182.597 Y96.641 E97.00561
G1 X183.657 Y97.744 E97.08193
G1 X183.841 Y97.97 E97.09647
G1 X184.708 Y99.228 E97.1727
G1 X184.851 Y99.476 E97.18698
G1 X185.508 Y100.857 E97.26328
G1 X185.612 Y101.13 E97.27785
G1 X186.037 Y102.599 E97.35415
G1 X186.095 Y102.882 E97.36856
G1 X186.279 Y104.399 E97.4448
G1 X186.291 Y104.688 E97.45923
G1 X186.23 Y106.216 E97.53552
G1 X186.195 Y106.504 E97.54999
G1 X185.889 Y108.003 E97.62632
G1 X185.808 Y108.281 E97.64077
G1 X185.266 Y109.711 E97.71706
G1 X185.141 Y109.974 E97.73159
G1 X184.376 Y111.297 E97.80784
G1 X184.213 Y111.534 E97.82219
G1 X183.246 Y112.719 E97.89849
G1 X183.045 Y112.928 E97.91296
G1 X181.9 Y113.943 E97.9893
G1 X181.668 Y114.118 E98.0038
G1 X180.377 Y114.934 E98.07999
G1 X180.12 Y115.068 E98.09445
G1 X178.712 Y115.667 E98.17079
G1 X178.438 Y115.759 E98.18521
G1 X176.954 Y116.125 E98.26146
G1 X176.668 Y116.171 E98.27592
G1 X175.145 Y116.294 E98.35215
G1 X175 Y116.3 E98.35939
G1 X34.236 Y116.269 E105.38213
G1 X33.947 Y116.246 E105.3966
G1 X32.437 Y116 E105.47292
G1 X32.156 Y115.931 E105.48736
G1 X30.705 Y115.447 E105.56367
G1 X30.439 Y115.333 E105.57811
G1 X29.086 Y114.623 E105.65434
G1 X28.841 Y114.468 E105.6688
G1 X27.619 Y113.55 E105.74506
G1 X27.402 Y113.358 E105.75951
G1 X26.342 Y112.255 E105.83583
G1 X26.158 Y112.029 E105.85037
G1 X25.291 Y110.77 E105.92664
G1 X25.148 Y110.522 E105.94092
G1 X24.491 Y109.141 E106.01722
G1 X24.387 Y108.868 E106.03179
G1 X23.963 Y107.401 E106.10798
G1 X23.905 Y107.118 E106.12239
G1 X23.721 Y105.601 E106.19863
G1 X23.709 Y105.312 E106.21306
G1 X23.77 Y103.784 E106.28935
G1 X23.805 Y103.496 E106.30382
G1 X24.111 Y101.997 E106.38015
G1 X24.192 Y101.719 E106.3946
G1 X24.734 Y100.289 E106.47089
G1 X24.859 Y100.026 E106.48542
G1 X25.624 Y98.703 E106.56167
G1 X25.787 Y98.466 E106.57602
G1 X26.754 Y97.281 E106.65232
G1 X26.955 Y97.072 E106.66679
G1 X28.1 Y96.057 E106.74313
G1 X28.332 Y95.882 E106.75763
G1 X29.623 Y95.066 E106.83382
G1 X29.88 Y94.932 E106.84828
G1 X31.288 Y94.333 E106.92462
G0 F1800 X31.445 Y94.701
G1 F1500 X31.658 Y94.63 E106.93582
G1 X33.142 Y94.264 E107.01208
G1 X33.364 Y94.228 E107.0233
G1 X34.887 Y94.105 E107.09953
G1 X35 Y94.1 E107.10517
G1 X175.764 Y94.131 E114.12791
G1 X175.989 Y94.149 E114.13918
G1 X177.499 Y94.395 E114.2155
G1 X177.717 Y94.449 E114.22671
G1 X179.168 Y94.933 E114.30302
G1 X179.376 Y95.021 E114.31429
G1 X180.729 Y95.731 E114.39052
G1 X180.919 Y95.852 E114.40176
G1 X182.14 Y96.769 E114.47794
G1 X182.308 Y96.918 E114.48914
G1 X183.368 Y98.021 E114.56546
G1 X183.512 Y98.197 E114.57681
G1 X184.379 Y99.455 E114.65303
G1 X184.49 Y99.648 E114.66414
G1 X185.147 Y101.029 E114.74044
G1 X185.228 Y101.241 E114.75176
G1 X185.653 Y102.71 E114.82805
G1 X185.698 Y102.93 E114.83926
G1 X185.882 Y104.447 E114.91549
G1 X185.891 Y104.672 E114.92673
G1 X185.83 Y106.2 E115.00302
G1 X185.803 Y106.424 E115.01428
G1 X185.497 Y107.923 E115.09061
G1 X185.434 Y108.139 E115.10183
