;FLAVOR:Marlin
;TIME:5275
;Filament used: 7.11302m
;Layer height: 0.2
;Generated with Cura_SteamEngine 3.6.0
M140 S85
M105
M190 S85
M104 S215
M105
M109 S215
M82 ;absolute extrusion mode
G21 ;metric values
G90 ;absolute positioning
M82 ;set extruder to absolute mode
M107 ;start with the fan off
G28 X0 Y0 ;move X/Y to min endstops
G28 Z0 ;move Z to min endstops
G1 Z15.0 F100 ;move the platform down 15mm
G92 E0 ;zero the extruded length
G1 F200 E3 ;extrude 3mm of feed stock
G92 E0 ;zero the extruded length again
G1 F100
M117 Printing...
G5
G92 E0
G1 F2400 E-6
;LAYER_COUNT:400
;LAYER:0
M106 S255
M204 S3000
M205 X10 Y10
G0 F3000 X67.613 Y96.544 Z0.3
M204 S1800
M205 X8 Y8
;TYPE:SKIRT
G1 F2400 E0
G1 X68.111 Y96.249 E0.04043
G1 X68.645 Y96.024 E0.0809
G1 X69.205 Y95.876 E0.12136
G1 X70 Y95.8 E0.17714
G1 X140 Y95.8 E5.06638
G1 X140.578 Y95.84 E5.10685
G1 X141.145 Y95.959 E5.14731
G1 X141.69 Y96.155 E5.18777
G1 X142.203 Y96.424 E5.22822
G1 X142.674 Y96.761 E5.26868
G1 X143.094 Y97.16 E5.30914
G1 X143.456 Y97.613 E5.34964
G1 X143.751 Y98.111 E5.39007
G1 X143.976 Y98.645 E5.43054
G1 X144.124 Y99.205 E5.471
G1 X144.2 Y100 E5.52678
G1 X144.2 Y110 E6.22524
G1 X144.16 Y110.578 E6.26571
G1 X144.041 Y111.145 E6.30618
G1 X143.845 Y111.69 E6.34663
G1 X143.576 Y112.203 E6.38709
G1 X143.239 Y112.674 E6.42754
G1 X142.84 Y113.094 E6.468
G1 X142.387 Y113.456 E6.5085
G1 X141.889 Y113.751 E6.54893
G1 X141.355 Y113.976 E6.58941
G1 X140.795 Y114.124 E6.62986
G1 X140 Y114.2 E6.68564
G1 X70 Y114.2 E11.57488
G1 X69.422 Y114.16 E11.61535
G1 X68.855 Y114.041 E11.65582
G1 X68.31 Y113.845 E11.69627
G1 X67.797 Y113.576 E11.73673
G1 X67.326 Y113.239 E11.77718
G1 X66.906 Y112.84 E11.81764
G1 X66.544 Y112.387 E11.85814
G1 X66.249 Y111.889 E11.89857
G1 X66.024 Y111.355 E11.93905
G1 X65.876 Y110.795 E11.9795
G1 X65.8 Y110 E12.03528
G1 X65.8 Y100 E12.73375
G1 X65.84 Y99.422 E12.77421
G1 X65.959 Y98.855 E12.81468
G1 X66.155 Y98.31 E12.85513
G1 X66.424 Y97.797 E12.89559
G1 X66.761 Y97.326 E12.93604
G1 X67.16 Y96.906 E12.9765
G1 X67.613 Y96.544 E13.01701
M204 S3000
M205 X10 Y10
G0 F3000 X68.151 Y96.865
M204 S1800
M205 X8 Y8
G1 F2400 X68.635 Y96.626 E13.05471
G1 X69.148 Y96.461 E13.09235
G1 X69.68 Y96.374 E13.13
G1 X70 Y96.36 E13.15237
G1 X140 Y96.36 E18.04161
G1 X140.538 Y96.4 E18.07929
G1 X141.064 Y96.519 E18.11696
G1 X141.566 Y96.714 E18.15458
G1 X142.035 Y96.982 E18.1923
G1 X142.458 Y97.315 E18.22991
G1 X142.828 Y97.708 E18.26761
G1 X143.135 Y98.151 E18.30525
G1 X143.374 Y98.635 E18.34296
G1 X143.539 Y99.148 E18.38059
G1 X143.626 Y99.68 E18.41825
G1 X143.64 Y100 E18.44062
G1 X143.64 Y110 E19.13908
G1 X143.6 Y110.538 E19.17676
G1 X143.481 Y111.064 E19.21443
G1 X143.286 Y111.566 E19.25205
G1 X143.018 Y112.035 E19.28977
G1 X142.685 Y112.458 E19.32738
G1 X142.292 Y112.828 E19.36508
G1 X141.849 Y113.135 E19.40272
G1 X141.365 Y113.374 E19.44042
G1 X140.852 Y113.539 E19.47806
G1 X140.32 Y113.626 E19.51572
G1 X140 Y113.64 E19.53809
G1 X70 Y113.64 E24.42733
G1 X69.462 Y113.6 E24.46501
G1 X68.936 Y113.481 E24.50268
G1 X68.434 Y113.286 E24.54029
G1 X67.965 Y113.018 E24.57802
G1 X67.542 Y112.685 E24.61562
G1 X67.172 Y112.292 E24.65332
G1 X66.865 Y111.849 E24.69097
G1 X66.626 Y111.365 E24.72867
G1 X66.461 Y110.852 E24.76631
G1 X66.374 Y110.32 E24.80396
G1 X66.36 Y110 E24.82633
G1 X66.36 Y100 E25.5248
G1 X66.4 Y99.462 E25.56248
G1 X66.519 Y98.936 E25.60015
G1 X66.714 Y98.434 E25.63776
G1 X66.982 Y97.965 E25.67549
G1 X67.315 Y97.542 E25.71309
G1 X67.708 Y97.172 E25.75079
G1 X68.151 Y96.865 E25.78844
M204 S3000
M205 X10 Y10
G0 F3000 X68.252 Y97.464
M204 S1800
M205 X8 Y8
G1 F2400 X68.682 Y97.216 E25.82311
G1 X69.145 Y97.041 E25.85768
G1 X69.632 Y96.942 E25.89239
G1 X70 Y96.92 E25.91814
G1 X140 Y96.92 E30.80738
G1 X140.494 Y96.96 E30.842
G1 X140.976 Y97.079 E30.87667
G1 X141.432 Y97.273 E30.91129
G1 X141.851 Y97.538 E30.94591
G1 X142.222 Y97.868 E30.98059
G1 X142.536 Y98.252 E31.01524
G1 X142.784 Y98.682 E31.04991
G1 X142.959 Y99.145 E31.08448
G1 X143.058 Y99.632 E31.11919
G1 X143.08 Y100 E31.14494
G1 X143.08 Y110 E31.84341
G1 X143.04 Y110.494 E31.87802
G1 X142.921 Y110.976 E31.9127
G1 X142.727 Y111.432 E31.94731
G1 X142.462 Y111.851 E31.98194
G1 X142.132 Y112.222 E32.01662
G1 X141.748 Y112.536 E32.05127
G1 X141.318 Y112.784 E32.08594
G1 X140.855 Y112.959 E32.12051
G1 X140.368 Y113.058 E32.15522
G1 X140 Y113.08 E32.18097
G1 X70 Y113.08 E37.07021
G1 X69.506 Y113.04 E37.10483
G1 X69.024 Y112.921 E37.1395
G1 X68.568 Y112.727 E37.17412
G1 X68.149 Y112.462 E37.20874
G1 X67.778 Y112.132 E37.24342
G1 X67.464 Y111.748 E37.27807
G1 X67.216 Y111.318 E37.31274
G1 X67.041 Y110.855 E37.34731
G1 X66.942 Y110.368 E37.38202
G1 X66.92 Y110 E37.40777
G1 X66.92 Y100 E38.10624
G1 X66.96 Y99.506 E38.14085
G1 X67.079 Y99.024 E38.17553
G1 X67.273 Y98.568 E38.21014
G1 X67.538 Y98.149 E38.24477
G1 X67.868 Y97.778 E38.27945
G1 X68.252 Y97.464 E38.3141
M204 S3000
M205 X10 Y10
G0 F3000 X68.416 Y98.04
M204 S1800
M205 X8 Y8
G1 F2400 X68.789 Y97.79 E38.34546
G1 X69.2 Y97.61 E38.3768
G1 X69.636 Y97.506 E38.40811
G1 X70 Y97.48 E38.4336
G1 X140 Y97.48 E43.32284
G1 X140.447 Y97.52 E43.35418
G1 X140.879 Y97.638 E43.38546
G1 X141.284 Y97.832 E43.41683
G1 X141.648 Y98.094 E43.44815
G1 X141.96 Y98.416 E43.47947
G1 X142.21 Y98.789 E43.51083
G1 X142.39 Y99.2 E43.54217
G1 X142.494 Y99.636 E43.57348
G1 X142.52 Y100 E43.59897
G1 X142.52 Y110 E44.29743
G1 X142.48 Y110.447 E44.32878
G1 X142.362 Y110.879 E44.36005
G1 X142.168 Y111.284 E44.39142
G1 X141.906 Y111.648 E44.42275
G1 X141.584 Y111.96 E44.45406
G1 X141.211 Y112.21 E44.48542
G1 X140.8 Y112.39 E44.51676
G1 X140.364 Y112.494 E44.54807
G1 X140 Y112.52 E44.57356
G1 X70 Y112.52 E49.4628
G1 X69.553 Y112.48 E49.49415
G1 X69.121 Y112.362 E49.52543
G1 X68.716 Y112.168 E49.55679
G1 X68.352 Y111.906 E49.58812
G1 X68.04 Y111.584 E49.61943
G1 X67.79 Y111.211 E49.6508
G1 X67.61 Y110.8 E49.68213
G1 X67.506 Y110.364 E49.71344
G1 X67.48 Y110 E49.73893
G1 X67.48 Y100 E50.43739
G1 X67.52 Y99.553 E50.46874
G1 X67.638 Y99.121 E50.50002
G1 X67.832 Y98.716 E50.53138
G1 X68.094 Y98.352 E50.56271
G1 X68.416 Y98.04 E50.59403
M204 S3000
M205 X10 Y10
G0 F3000 X68.959 Y98.34
M204 S1800
M205 X8 Y8
G1 F2400 X69.313 Y98.164 E50.62164
G1 X69.696 Y98.064 E50.64929
G1 X70 Y98.04 E50.67059
G1 X140 Y98.04 E55.55983
G1 X140.393 Y98.08 E55.58742
G1 X140.771 Y98.198 E55.61508
G1 X141.117 Y98.389 E55.64268
G1 X141.418 Y98.646 E55.67032
G1 X141.66 Y98.959 E55.69796
G1 X141.836 Y99.313 E55.72557
G1 X141.936 Y99.696 E55.75322
G1 X141.96 Y100 E55.77452
G1 X141.96 Y110 E56.47298
G1 X141.92 Y110.393 E56.50057
G1 X141.802 Y110.771 E56.52823
G1 X141.611 Y111.117 E56.55584
G1 X141.354 Y111.418 E56.58348
G1 X141.041 Y111.66 E56.61111
G1 X140.687 Y111.836 E56.63873
G1 X140.304 Y111.936 E56.66638
G1 X140 Y111.96 E56.68767
G1 X70 Y111.96 E61.57691
G1 X69.607 Y111.92 E61.60451
G1 X69.229 Y111.802 E61.63216
G1 X68.883 Y111.611 E61.65977
G1 X68.582 Y111.354 E61.68741
G1 X68.34 Y111.041 E61.71505
G1 X68.164 Y110.687 E61.74266
G1 X68.064 Y110.304 E61.77031
G1 X68.04 Y110 E61.79161
G1 X68.04 Y100 E62.49007
G1 X68.08 Y99.607 E62.51766
G1 X68.198 Y99.229 E62.54532
G1 X68.389 Y98.883 E62.57292
G1 X68.646 Y98.582 E62.60057
G1 X68.959 Y98.34 E62.6282
M204 S3000
M205 X10 Y10
G0 F3000 X69.193 Y98.856
M204 S1800
M205 X8 Y8
G1 F2400 X69.487 Y98.697 E62.65155
G1 X69.811 Y98.613 E62.67493
G1 X70 Y98.6 E62.68816
G1 X140 Y98.6 E67.5774
G1 X140.332 Y98.64 E67.60076
G1 X140.644 Y98.757 E67.62403
G1 X140.921 Y98.945 E67.64741
G1 X141.144 Y99.193 E67.67071
G1 X141.303 Y99.487 E67.69405
G1 X141.387 Y99.811 E67.71743
G1 X141.4 Y100 E67.73066
G1 X141.4 Y110 E68.42913
G1 X141.36 Y110.332 E68.45248
G1 X141.243 Y110.644 E68.47576
G1 X141.055 Y110.921 E68.49914
G1 X140.807 Y111.144 E68.52243
G1 X140.513 Y111.303 E68.54578
G1 X140.189 Y111.387 E68.56916
G1 X140 Y111.4 E68.58239
G1 X70 Y111.4 E73.47163
G1 X69.668 Y111.36 E73.49499
G1 X69.356 Y111.243 E73.51826
G1 X69.079 Y111.055 E73.54164
G1 X68.856 Y110.807 E73.56494
G1 X68.697 Y110.513 E73.58828
G1 X68.613 Y110.189 E73.61166
G1 X68.6 Y110 E73.62489
G1 X68.6 Y100 E74.32336
G1 X68.64 Y99.668 E74.34671
G1 X68.757 Y99.356 E74.36999
G1 X68.945 Y99.079 E74.39337
G1 X69.193 Y98.856 E74.41667
M204 S3000
M205 X10 Y10
G0 F3000 X69.496 Y99.328
M204 S1800
M205 X8 Y8
G1 F2400 X69.724 Y99.207 E74.43469
G1 X70 Y99.16 E74.45425
G1 X140 Y99.16 E79.34349
G1 X140.255 Y99.2 E79.36152
G1 X140.487 Y99.315 E79.3796
G1 X140.672 Y99.496 E79.39768
G1 X140.793 Y99.724 E79.41571
G1 X140.84 Y100 E79.43526
G1 X140.84 Y110 E80.13373
G1 X140.8 Y110.255 E80.15176
G1 X140.685 Y110.487 E80.16984
G1 X140.504 Y110.672 E80.18792
G1 X140.276 Y110.793 E80.20595
G1 X140 Y110.84 E80.2255
G1 X70 Y110.84 E85.11474
G1 X69.745 Y110.8 E85.13277
G1 X69.513 Y110.685 E85.15086
G1 X69.328 Y110.504 E85.16893
G1 X69.207 Y110.276 E85.18696
G1 X69.16 Y110 E85.20652
G1 X69.16 Y100 E85.90498
G1 X69.2 Y99.745 E85.92301
G1 X69.315 Y99.513 E85.9411
G1 X69.496 Y99.328 E85.95917
M204 S3000
M205 X10 Y10
G0 F3000 X69.866 Y99.754
M204 S1800
M205 X8 Y8
G1 F2400 X70 Y99.72 E85.96883
G1 X140 Y99.72 E90.85807
G1 X140.143 Y99.759 E90.86842
G1 X140.246 Y99.866 E90.87879
G1 X140.28 Y100 E90.88845
G1 X140.28 Y110 E91.58691
G1 X140.241 Y110.143 E91.59727
G1 X140.134 Y110.246 E91.60764
G1 X140 Y110.28 E91.6173
G1 X70 Y110.28 E96.50654
G1 X69.857 Y110.241 E96.51689
G1 X69.754 Y110.134 E96.52726
G1 X69.72 Y110 E96.53692
G1 X69.72 Y100 E97.23538
G1 X69.759 Y99.857 E97.24573
G1 X69.866 Y99.754 E97.25611
M204 S3000
M205 X10 Y10
G1 F2400 E91.25611
;MESH:e9e9114b-0fda-40c3-af20-4bca65cdfa17.stl
G0 F3000 X70.854 Y100.854
G0 X139.09 Y109.09
G0 X139.72 Y109.72
M204 S1800
M205 X8 Y8
;TYPE:WALL-OUTER
G1 F2400 E97.25611
G1 F1500 X70.28 Y109.72 E102.10623
G1 X70.28 Y100.28 E102.76558
G1 X139.72 Y100.28 E107.61571
G1 X139.72 Y109.72 E108.27506
M204 S3000
M205 X10 Y10
G0 F3000 X139.52 Y109.72
G0 X139.16 Y109.16
M204 S1800
M205 X8 Y8
;TYPE:WALL-INNER
G1 F1500 X70.84 Y109.16 E113.04696
G1 X70.84 Y100.84 E113.62808
G1 X139.16 Y100.84 E118.39997
G1 X139.16 Y109.16 E118.9811
M204 S3000
M205 X10 Y10
G0 F3000 X138.6 Y108.6
M204 S1800
M205 X8 Y8
G1 F1500 X71.4 Y108.6 E123.67477
G1 X71.4 Y101.4 E124.17766
G1 X138.6 Y101.4 E128.87133
G1 X138.6 Y108.6 E129.37422
M204 S3000
M205 X10 Y10
G0 F3000 X138.05 Y108.05
M204 S1800
M205 X8 Y8
;TYPE:SKIN
G1 F1500 X71.95 Y108.05 E133.99106
G1 X71.95 Y101.95 E134.41712
G1 X138.05 Y101.95 E139.03396
G1 X138.05 Y108.05 E139.46003
M204 S3000
M205 X10 Y10
G0 F3000 X137.789 Y102.943
M204 S1800
M205 X8 Y8
G1 F1500 X137.056 Y102.21 E139.53243
M204 S3000
M205 X10 Y10
G0 F3000 X136.264 Y102.21
M204 S1800
M205 X8 Y8
G1 F1500 X137.789 Y103.735 E139.68307
M204 S3000
M205 X10 Y10
G0 F3000 X137.789 Y104.527
M204 S1800
M205 X8 Y8
G1 F1500 X135.472 Y102.21 E139.91193
M204 S3000
M205 X10 Y10
G0 F3000 X134.68 Y102.21
M204 S1800
M205 X8 Y8
G1 F1500 X137.789 Y105.319 E140.21903
M204 S3000
M205 X10 Y10
G0 F3000 X137.789 Y106.111
M204 S1800
M205 X8 Y8
G1 F1500 X133.888 Y102.21 E140.60436
M204 S3000
M205 X10 Y10
G0 F3000 X133.096 Y102.21
M204 S1800
M205 X8 Y8
G1 F1500 X137.789 Y106.903 E141.06793
M204 S3000
M205 X10 Y10
G0 F3000 X137.789 Y107.695
M204 S1800
M205 X8 Y8
G1 F1500 X132.304 Y102.21 E141.60972
M204 S3000
M205 X10 Y10
G0 F3000 X131.512 Y102.21
M204 S1800
M205 X8 Y8
G1 F1500 X137.091 Y107.789 E142.1608
M204 S3000
M205 X10 Y10
G0 F3000 X136.299 Y107.789
M204 S1800
M205 X8 Y8
G1 F1500 X130.72 Y102.21 E142.71188
M204 S3000
M205 X10 Y10
G0 F3000 X129.928 Y102.21
M204 S1800
M205 X8 Y8
G1 F1500 X135.507 Y107.789 E143.26296
M204 S3000
M205 X10 Y10
G0 F3000 X134.715 Y107.789
M204 S1800
M205 X8 Y8
G1 F1500 X129.136 Y102.21 E143.81404
M204 S3000
M205 X10 Y10
G0 F3000 X128.344 Y102.21
M204 S1800
M205 X8 Y8
G1 F1500 X133.923 Y107.789 E144.36512
M204 S3000
M205 X10 Y10
G0 F3000 X133.131 Y107.789
M204 S1800
M205 X8 Y8
G1 F1500 X127.552 Y102.21 E144.9162
M204 S3000
M205 X10 Y10
G0 F3000 X126.76 Y102.21
M204 S1800
M205 X8 Y8
G1 F1500 X132.339 Y107.789 E145.46728
M204 S3000
M205 X10 Y10
G0 F3000 X131.548 Y107.789
M204 S1800
M205 X8 Y8
G1 F1500 X125.968 Y102.21 E146.01841
M204 S3000
M205 X10 Y10
G0 F3000 X125.176 Y102.21
M204 S1800
M205 X8 Y8
G1 F1500 X130.756 Y107.789 E146.56954
M204 S3000
M205 X10 Y10
G0 F3000 X129.964 Y107.789
M204 S1800
M205 X8 Y8
G1 F1500 X124.385 Y102.21 E147.12062
M204 S3000
M205 X10 Y10
G0 F3000 X123.593 Y102.21
M204 S1800
M205 X8 Y8
G1 F1500 X129.172 Y107.789 E147.6717
M204 S3000
M205 X10 Y10
G0 F3000 X128.38 Y107.789
M204 S1800
M205 X8 Y8
G1 F1500 X122.801 Y102.21 E148.22278
M204 S3000
M205 X10 Y10
G0 F3000 X122.009 Y102.21
M204 S1800
M205 X8 Y8
G1 F1500 X127.588 Y107.789 E148.77386
M204 S3000
M205 X10 Y10
G0 F3000 X126.796 Y107.789
M204 S1800
M205 X8 Y8
G1 F1500 X121.217 Y102.21 E149.32494
M204 S3000
M205 X10 Y10
G0 F3000 X120.425 Y102.21
M204 S1800
M205 X8 Y8
G1 F1500 X126.004 Y107.789 E149.87602
M204 S3000
M205 X10 Y10
G0 F3000 X125.212 Y107.789
M204 S1800
M205 X8 Y8
G1 F1500 X119.633 Y102.21 E150.4271
M204 S3000
M205 X10 Y10
G0 F3000 X118.841 Y102.21
M204 S1800
M205 X8 Y8
G1 F1500 X124.42 Y107.789 E150.97818
M204 S3000
M205 X10 Y10
G0 F3000 X123.628 Y107.789
M204 S1800
M205 X8 Y8
G1 F1500 X118.049 Y102.21 E151.52926
M204 S3000
M205 X10 Y10
G0 F3000 X117.257 Y102.21
M204 S1800
M205 X8 Y8
G1 F1500 X122.836 Y107.789 E152.08034
M204 S3000
M205 X10 Y10
G0 F3000 X122.044 Y107.789
M204 S1800
M205 X8 Y8
G1 F1500 X116.465 Y102.21 E152.63142
M204 S3000
M205 X10 Y10
G0 F3000 X115.673 Y102.21
M204 S1800
M205 X8 Y8
G1 F1500 X121.252 Y107.789 E153.1825
M204 S3000
M205 X10 Y10
G0 F3000 X120.46 Y107.789
M204 S1800
M205 X8 Y8
G1 F1500 X114.881 Y102.21 E153.73358
M204 S3000
M205 X10 Y10
G0 F3000 X114.089 Y102.21
M204 S1800
M205 X8 Y8
G1 F1500 X119.668 Y107.789 E154.28466
M204 S3000
M205 X10 Y10
G0 F3000 X118.876 Y107.789
M204 S1800
M205 X8 Y8
G1 F1500 X113.297 Y102.21 E154.83574
M204 S3000
M205 X10 Y10
G0 F3000 X112.505 Y102.21
M204 S1800
M205 X8 Y8
G1 F1500 X118.084 Y107.789 E155.38682
M204 S3000
M205 X10 Y10
G0 F3000 X117.292 Y107.789
M204 S1800
M205 X8 Y8
G1 F1500 X111.713 Y102.21 E155.9379
M204 S3000
M205 X10 Y10
G0 F3000 X110.921 Y102.21
M204 S1800
M205 X8 Y8
G1 F1500 X116.5 Y107.789 E156.48898
M204 S3000
M205 X10 Y10
G0 F3000 X115.708 Y107.789
M204 S1800
M205 X8 Y8
G1 F1500 X110.129 Y102.21 E157.04006
M204 S3000
M205 X10 Y10
G0 F3000 X109.337 Y102.21
M204 S1800
M205 X8 Y8
G1 F1500 X114.916 Y107.789 E157.59114
M204 S3000
M205 X10 Y10
G0 F3000 X114.124 Y107.789
M204 S1800
M205 X8 Y8
G1 F1500 X108.545 Y102.21 E158.14222
M204 S3000
M205 X10 Y10
G0 F3000 X107.753 Y102.21
M204 S1800
M205 X8 Y8
G1 F1500 X113.332 Y107.789 E158.6933
M204 S3000
M205 X10 Y10
G0 F3000 X112.54 Y107.789
M204 S1800
M205 X8 Y8
G1 F1500 X106.961 Y102.21 E159.24438
M204 S3000
M205 X10 Y10
G0 F3000 X106.169 Y102.21
M204 S1800
M205 X8 Y8
G1 F1500 X111.749 Y107.789 E159.79551
M204 S3000
M205 X10 Y10
G0 F3000 X110.957 Y107.789
M204 S1800
M205 X8 Y8
G1 F1500 X105.378 Y102.21 E160.34659
M204 S3000
M205 X10 Y10
G0 F3000 X104.586 Y102.21
M204 S1800
M205 X8 Y8
G1 F1500 X110.165 Y107.789 E160.89767
M204 S3000
M205 X10 Y10
G0 F3000 X109.373 Y107.789
M204 S1800
M205 X8 Y8
G1 F1500 X103.794 Y102.21 E161.44875
M204 S3000
M205 X10 Y10
G0 F3000 X103.002 Y102.21
M204 S1800
M205 X8 Y8
G1 F1500 X108.581 Y107.789 E161.99983
M204 S3000
M205 X10 Y10
G0 F3000 X107.789 Y107.789
M204 S1800
M205 X8 Y8
G1 F1500 X102.21 Y102.21 E162.55091
M204 S3000
M205 X10 Y10
G0 F3000 X101.418 Y102.21
M204 S1800
M205 X8 Y8
G1 F1500 X106.997 Y107.789 E163.10199
M204 S3000
M205 X10 Y10
G0 F3000 X106.205 Y107.789
M204 S1800
M205 X8 Y8
G1 F1500 X100.626 Y102.21 E163.65307
M204 S3000
M205 X10 Y10
G0 F3000 X99.834 Y102.21
M204 S1800
M205 X8 Y8
G1 F1500 X105.413 Y107.789 E164.20415
M204 S3000
M205 X10 Y10
G0 F3000 X104.621 Y107.789
M204 S1800
M205 X8 Y8
G1 F1500 X99.042 Y102.21 E164.75523
M204 S3000
M205 X10 Y10
G0 F3000 X98.25 Y102.21
M204 S1800
M205 X8 Y8
G1 F1500 X103.829 Y107.789 E165.30631
M204 S3000
M205 X10 Y10
G0 F3000 X103.037 Y107.789
M204 S1800
M205 X8 Y8
G1 F1500 X97.458 Y102.21 E165.85739
M204 S3000
M205 X10 Y10
