;FLAVOR:Marlin
;TIME:6472
;Filament used: 8.38919m
;Layer height: 0.2
;Generated with Cura_SteamEngine 3.6.0
M140 S70
M105
M190 S70
M104 S200
M105
M109 S200
M82 ;absolute extrusion mode
G21 ;metric values
G90 ;absolute positioning
M82 ;set extruder to absolute mode
M107 ;start with the fan off
G28 X0 Y0 ;move X/Y to min endstops
G28 Z0 ;move Z to min endstops
G1 Z15.0 F100 ;move the platform down 15mm
G92 E0 ;zero the extruded length
G1 F200 E3 ;extrude 3mm of feed stock
G92 E0 ;zero the extruded length again
G1 F100
M117 Printing...
G5
G92 E0
G1 F2400 E-6
;LAYER_COUNT:200
;LAYER:0
M106 S255
M204 S3000
M205 X10 Y10
G0 F3000 X134.705 Y89.298 Z0.3
M204 S1800
M205 X8 Y8
;TYPE:SUPPORT
G1 F2400 E0
G1 F1500 X134.775 Y89.228 E0.00691
G1 X174.475 Y89.228 E2.77981
G1 X174.545 Y89.298 E2.78673
G1 X174.545 Y120.753 E4.98374
G1 X174.475 Y120.823 E4.99066
G1 X134.775 Y120.823 E7.76355
G1 X134.705 Y120.753 E7.77047
G1 X134.705 Y89.298 E9.96748
M204 S3000
M205 X10 Y10
G0 F3000 X136 Y89.448
M204 S1800
M205 X8 Y8
G1 F1500 X136 Y120.603 E12.14354
M204 S3000
M205 X10 Y10
G0 F3000 X134.924 Y116.091
M204 S1800
M205 X8 Y8
G1 F1500 X174.323 Y93.343 E15.32117
M204 S3000
M205 X10 Y10
G0 F3000 X174.324 Y91.408
M204 S1800
M205 X8 Y8
G1 F1500 X170.928 Y89.447 E15.59507
M204 S3000
M205 X10 Y10
G0 F3000 X168 Y89.448
M204 S1800
M205 X8 Y8
G1 F1500 X168 Y120.603 E17.77113
M204 S3000
M205 X10 Y10
G0 F3000 X174.325 Y119.121
M204 S1800
M205 X8 Y8
G1 F1500 X134.924 Y96.373 E20.94888
M204 S3000
M205 X10 Y10
G0 F3000 X134.924 Y97.615
M204 S1800
M205 X8 Y8
G1 F1500 X149.072 Y89.447 E22.08992
M204 S3000
M205 X10 Y10
G0 F3000 X152 Y89.448
M204 S1800
M205 X8 Y8
G1 F1500 X152 Y120.603 E24.26598
M204 S3000
M205 X10 Y10
G0 F3000 X159.11 Y120.602
M204 S1800
M205 X8 Y8
G1 F1500 X174.323 Y111.819 E25.49293
M204 S3000
M205 X10 Y10
G0 F3000 X174.325 Y109.884
M204 S1800
M205 X8 Y8
G1 F1500 X138.927 Y89.447 E28.34783
M204 S3000
M205 X10 Y10
G0 F3000 X144 Y89.448
M204 S1800
M205 X8 Y8
G1 F1500 X144 Y120.603 E30.52389
M204 S3000
M205 X10 Y10
G0 F3000 X144.888 Y120.601
M204 S1800
M205 X8 Y8
G1 F1500 X134.923 Y114.848 E31.32757
M204 S3000
M205 X10 Y10
G0 F3000 X134.924 Y106.853
M204 S1800
M205 X8 Y8
G1 F1500 X165.072 Y89.447 E33.75906
M204 S3000
M205 X10 Y10
G0 F3000 X160 Y89.448
M204 S1800
M205 X8 Y8
G1 F1500 X160 Y120.603 E35.93512
M204 S3000
M205 X10 Y10
G0 F3000 X160.888 Y120.601
M204 S1800
M205 X8 Y8
G1 F1500 X134.924 Y105.611 E38.02914
M204 S3000
M205 X10 Y10
G0 F3000 X143.109 Y120.602
M204 S1800
M205 X8 Y8
G1 F1500 X174.323 Y102.581 E40.54659
M204 S3000
M205 X10 Y10
G0 F3000 X174.324 Y100.646
M204 S1800
M205 X8 Y8
G1 F1500 X154.927 Y89.447 E42.11099
M204 S3000
M205 X10 Y10
G1 F2400 E36.11099
;MESH:15fb489b-02b0-4884-99a1-2e4615c8585f.stl
G0 F3000 X84.515 Y102.571
G0 X70.69 Y113.67
G0 X69.82 Y114.914
G0 X38.426 Y93.94
M204 S1800
M205 X8 Y8
;TYPE:WALL-INNER
G1 F2400 E42.11099
G1 F1500 X38.586 Y93.711 E42.1305
G1 X38.815 Y93.871 E42.14311
G1 X68.83 Y114.888 E44.70239
G1 X69.059 Y115.048 E44.72191
G1 X68.899 Y115.277 E44.73451
G1 X67.797 Y116.85 E44.86866
G1 X37.325 Y95.512 E47.46695
G1 X38.426 Y93.94 E47.601
M204 S3000
M205 X10 Y10
G0 F3000 X36.832 Y95.729
G0 X36.774 Y95.809
M204 S1800
M205 X8 Y8
G1 F1500 X36.545 Y95.649 E47.62052
G1 X36.705 Y95.42 E47.63312
G1 X38.449 Y92.931 E47.8454
G1 X69.61 Y114.751 E50.50242
G1 X69.839 Y114.911 E50.52193
G1 X69.679 Y115.14 E50.53454
G1 X67.934 Y117.63 E50.74691
G1 X36.774 Y95.809 E53.40392
M204 S3000
M205 X10 Y10
G0 F3000 X36.832 Y95.729
G0 X69.741 Y114.928
G0 X70.39 Y114.613
M204 S1800
M205 X8 Y8
;TYPE:WALL-OUTER
G1 F1500 X70.619 Y114.773 E53.42343
G1 X70.459 Y115.002 E53.43604
G1 X68.072 Y118.41 E53.72666
G1 X35.765 Y95.787 E56.48142
G1 X38.311 Y92.151 E56.79145
G1 X70.39 Y114.613 E59.52672
M204 S3000
M205 X10 Y10
G0 F3000 X70.554 Y114.727
G0 X69.741 Y114.928
G0 X68.293 Y115.183
M204 S1800
M205 X8 Y8
;TYPE:SKIN
G1 F1500 X67.662 Y116.084 E59.60355
G1 X38.091 Y95.377 E62.12501
G1 X38.721 Y94.477 E62.20174
G1 X68.293 Y115.183 E64.72323
M204 S3000
M205 X10 Y10
G0 F3000 X67.848 Y115.365
M204 S1800
M205 X8 Y8
G1 F1500 X67.257 Y114.774 E64.7816
M204 S3000
M205 X10 Y10
G0 F3000 X66.975 Y115.284
M204 S1800
M205 X8 Y8
G1 F1500 X64.615 Y112.924 E65.01472
M204 S3000
M205 X10 Y10
G0 F3000 X64.333 Y113.434
M204 S1800
M205 X8 Y8
G1 F1500 X61.973 Y111.075 E65.24778
M204 S3000
M205 X10 Y10
G0 F3000 X61.69 Y111.584
M204 S1800
M205 X8 Y8
G1 F1500 X59.332 Y109.226 E65.4807
M204 S3000
M205 X10 Y10
G0 F3000 X59.049 Y109.734
M204 S1800
M205 X8 Y8
G1 F1500 X56.69 Y107.376 E65.71367
M204 S3000
M205 X10 Y10
G0 F3000 X56.407 Y107.884
M204 S1800
M205 X8 Y8
G1 F1500 X54.049 Y105.526 E65.94659
M204 S3000
M205 X10 Y10
G0 F3000 X53.765 Y106.034
M204 S1800
M205 X8 Y8
G1 F1500 X51.408 Y103.677 E66.1794
M204 S3000
M205 X10 Y10
G0 F3000 X51.123 Y104.185
M204 S1800
M205 X8 Y8
G1 F1500 X48.766 Y101.827 E66.41227
M204 S3000
M205 X10 Y10
G0 F3000 X48.482 Y102.335
M204 S1800
M205 X8 Y8
G1 F1500 X46.124 Y99.977 E66.64519
M204 S3000
M205 X10 Y10
G0 F3000 X45.839 Y100.484
M204 S1800
M205 X8 Y8
G1 F1500 X43.483 Y98.128 E66.87791
M204 S3000
M205 X10 Y10
G0 F3000 X43.197 Y98.635
M204 S1800
M205 X8 Y8
G1 F1500 X40.841 Y96.278 E67.11068
M204 S3000
M205 X10 Y10
G0 F3000 X40.556 Y96.785
M204 S1800
M205 X8 Y8
G1 F1500 X38.711 Y94.941 E67.29287
G1 X38.641 Y94.871
M204 S3000
M205 X10 Y10
G1 F2400 E61.29287
G0 F3000 X69.82 Y114.914
G0 X70.69 Y113.67
G0 X83.96 Y107.378
G0 X85.479 Y107.378
G0 X123.225 Y106.832
M204 S1800
M205 X8 Y8
;TYPE:WALL-INNER
G1 F2400 E67.29287
G1 F1500 X86.025 Y106.832 E69.89116
G1 X86.025 Y104.632 E70.04482
G1 X123.225 Y104.632 E72.6431
G1 X123.225 Y106.832 E72.79676
M204 S3000
M205 X10 Y10
G0 F3000 X123.785 Y107.392
M204 S1800
M205 X8 Y8
G1 F1500 X85.465 Y107.392 E75.47327
G1 X85.465 Y104.072 E75.70516
G1 X123.785 Y104.072 E78.38167
G1 X123.785 Y107.392 E78.61356
M204 S3000
M205 X10 Y10
G0 F3000 X124.345 Y107.952
M204 S1800
M205 X8 Y8
;TYPE:WALL-OUTER
G1 F1500 X84.905 Y107.952 E81.3683
G1 X84.905 Y103.512 E81.67841
G1 X124.345 Y103.512 E84.43315
G1 X124.345 Y107.952 E84.74327
M204 S3000
M205 X10 Y10
G0 F3000 X124.145 Y107.952
G0 X123.715 Y107.322
G0 X122.675 Y106.282
M204 S1800
M205 X8 Y8
;TYPE:SKIN
G1 F1500 X86.575 Y106.282 E87.26472
G1 X86.575 Y105.182 E87.34155
G1 X122.675 Y105.182 E89.863
G1 X122.675 Y106.282 E89.93983
M204 S3000
M205 X10 Y10
G0 F3000 X122.414 Y105.783
M204 S1800
M205 X8 Y8
G1 F1500 X122.073 Y105.442 E89.97352
M204 S3000
M205 X10 Y10
G0 F3000 X121.86 Y106.021
M204 S1800
M205 X8 Y8
G1 F1500 X121.281 Y105.442 E90.03071
M204 S3000
M205 X10 Y10
G0 F3000 X121.068 Y106.021
M204 S1800
M205 X8 Y8
G1 F1500 X120.489 Y105.442 E90.0879
M204 S3000
M205 X10 Y10
G0 F3000 X120.276 Y106.021
M204 S1800
M205 X8 Y8
G1 F1500 X119.697 Y105.442 E90.14509
M204 S3000
M205 X10 Y10
G0 F3000 X119.484 Y106.021
M204 S1800
M205 X8 Y8
G1 F1500 X118.905 Y105.442 E90.20229
M204 S3000
M205 X10 Y10
G0 F3000 X118.692 Y106.021
M204 S1800
M205 X8 Y8
G1 F1500 X118.113 Y105.442 E90.25948
M204 S3000
M205 X10 Y10
G0 F3000 X117.9 Y106.021
M204 S1800
M205 X8 Y8
G1 F1500 X117.321 Y105.442 E90.31667
M204 S3000
M205 X10 Y10
G0 F3000 X117.108 Y106.021
M204 S1800
M205 X8 Y8
G1 F1500 X116.529 Y105.442 E90.37386
M204 S3000
M205 X10 Y10
G0 F3000 X116.316 Y106.021
M204 S1800
M205 X8 Y8
G1 F1500 X115.737 Y105.442 E90.43105
M204 S3000
M205 X10 Y10
G0 F3000 X115.524 Y106.021
M204 S1800
M205 X8 Y8
G1 F1500 X114.945 Y105.442 E90.48825
M204 S3000
M205 X10 Y10
G0 F3000 X114.733 Y106.021
M204 S1800
M205 X8 Y8
G1 F1500 X114.153 Y105.442 E90.54549
M204 S3000
M205 X10 Y10
G0 F3000 X113.941 Y106.021
M204 S1800
M205 X8 Y8
G1 F1500 X113.361 Y105.442 E90.60273
M204 S3000
M205 X10 Y10
G0 F3000 X113.149 Y106.021
M204 S1800
M205 X8 Y8
G1 F1500 X112.569 Y105.442 E90.65997
M204 S3000
M205 X10 Y10
G0 F3000 X112.357 Y106.021
M204 S1800
M205 X8 Y8
G1 F1500 X111.778 Y105.442 E90.71716
M204 S3000
M205 X10 Y10
G0 F3000 X111.565 Y106.021
M204 S1800
M205 X8 Y8
G1 F1500 X110.986 Y105.442 E90.77436
M204 S3000
M205 X10 Y10
G0 F3000 X110.773 Y106.021
M204 S1800
M205 X8 Y8
G1 F1500 X110.194 Y105.442 E90.83155
M204 S3000
M205 X10 Y10
G0 F3000 X109.981 Y106.021
M204 S1800
M205 X8 Y8
G1 F1500 X109.402 Y105.442 E90.88874
M204 S3000
M205 X10 Y10
G0 F3000 X109.189 Y106.021
M204 S1800
M205 X8 Y8
G1 F1500 X108.61 Y105.442 E90.94593
M204 S3000
M205 X10 Y10
G0 F3000 X108.397 Y106.021
M204 S1800
M205 X8 Y8
G1 F1500 X107.818 Y105.442 E91.00312
M204 S3000
M205 X10 Y10
G0 F3000 X107.605 Y106.021
M204 S1800
M205 X8 Y8
G1 F1500 X107.026 Y105.442 E91.06032
M204 S3000
M205 X10 Y10
G0 F3000 X106.813 Y106.021
M204 S1800
M205 X8 Y8
G1 F1500 X106.234 Y105.442 E91.11751
M204 S3000
M205 X10 Y10
G0 F3000 X106.021 Y106.021
M204 S1800
M205 X8 Y8
G1 F1500 X105.442 Y105.442 E91.1747
M204 S3000
M205 X10 Y10
G0 F3000 X105.229 Y106.021
M204 S1800
M205 X8 Y8
G1 F1500 X104.65 Y105.442 E91.23189
M204 S3000
M205 X10 Y10
G0 F3000 X104.437 Y106.021
M204 S1800
M205 X8 Y8
G1 F1500 X103.858 Y105.442 E91.28909
M204 S3000
M205 X10 Y10
G0 F3000 X103.645 Y106.021
M204 S1800
M205 X8 Y8
G1 F1500 X103.066 Y105.442 E91.34628
M204 S3000
M205 X10 Y10
G0 F3000 X102.853 Y106.021
M204 S1800
M205 X8 Y8
G1 F1500 X102.274 Y105.442 E91.40347
M204 S3000
M205 X10 Y10
G0 F3000 X102.061 Y106.021
M204 S1800
M205 X8 Y8
G1 F1500 X101.482 Y105.442 E91.46066
M204 S3000
M205 X10 Y10
G0 F3000 X101.269 Y106.021
M204 S1800
M205 X8 Y8
G1 F1500 X100.69 Y105.442 E91.51785
M204 S3000
M205 X10 Y10
G0 F3000 X100.477 Y106.021
M204 S1800
M205 X8 Y8
G1 F1500 X99.898 Y105.442 E91.57505
M204 S3000
M205 X10 Y10
G0 F3000 X99.685 Y106.021
M204 S1800
M205 X8 Y8
G1 F1500 X99.106 Y105.442 E91.63224
M204 S3000
M205 X10 Y10
G0 F3000 X98.893 Y106.021
M204 S1800
M205 X8 Y8
G1 F1500 X98.314 Y105.442 E91.68943
M204 S3000
M205 X10 Y10
G0 F3000 X98.101 Y106.021
M204 S1800
M205 X8 Y8
G1 F1500 X97.522 Y105.442 E91.74662
M204 S3000
M205 X10 Y10
G0 F3000 X97.309 Y106.021
M204 S1800
M205 X8 Y8
G1 F1500 X96.73 Y105.442 E91.80382
M204 S3000
M205 X10 Y10
G0 F3000 X96.517 Y106.021
M204 S1800
M205 X8 Y8
G1 F1500 X95.938 Y105.442 E91.86101
M204 S3000
M205 X10 Y10
G0 F3000 X95.725 Y106.021
M204 S1800
M205 X8 Y8
G1 F1500 X95.146 Y105.442 E91.9182
M204 S3000
M205 X10 Y10
G0 F3000 X94.934 Y106.021
M204 S1800
M205 X8 Y8
G1 F1500 X94.354 Y105.442 E91.97544
M204 S3000
M205 X10 Y10
G0 F3000 X94.142 Y106.021
M204 S1800
M205 X8 Y8
G1 F1500 X93.562 Y105.442 E92.03268
M204 S3000
M205 X10 Y10
G0 F3000 X93.35 Y106.021
M204 S1800
M205 X8 Y8
G1 F1500 X92.77 Y105.442 E92.08992
M204 S3000
M205 X10 Y10
G0 F3000 X92.558 Y106.021
M204 S1800
M205 X8 Y8
G1 F1500 X91.979 Y105.442 E92.14712
M204 S3000
M205 X10 Y10
G0 F3000 X91.766 Y106.021
M204 S1800
M205 X8 Y8
G1 F1500 X91.187 Y105.442 E92.20431
M204 S3000
M205 X10 Y10
G0 F3000 X90.974 Y106.021
M204 S1800
M205 X8 Y8
G1 F1500 X90.395 Y105.442 E92.2615
M204 S3000
M205 X10 Y10
G0 F3000 X90.182 Y106.021
M204 S1800
M205 X8 Y8
G1 F1500 X89.603 Y105.442 E92.31869
M204 S3000
M205 X10 Y10
G0 F3000 X89.39 Y106.021
M204 S1800
M205 X8 Y8
G1 F1500 X88.811 Y105.442 E92.37589
M204 S3000
M205 X10 Y10
G0 F3000 X88.598 Y106.021
M204 S1800
M205 X8 Y8
G1 F1500 X88.019 Y105.442 E92.43308
M204 S3000
M205 X10 Y10
G0 F3000 X87.806 Y106.021
M204 S1800
M205 X8 Y8
G1 F1500 X87.227 Y105.442 E92.49027
M204 S3000
M205 X10 Y10
G0 F3000 X86.834 Y105.841
M204 S1800
M205 X8 Y8
G1 F1500 X87.014 Y106.021 E92.50805
M204 S3000
M205 X10 Y10
G1 F2400 E86.50805
;MESH:NONMESH
G0 F3000 X123.771 Y104.086
G0 X123.771 Y102.567
G0 X134.625 Y89.264
;TIME_ELAPSED:72.796335
;LAYER:1
M140 S70
G0 F4500 X134.625 Y89.264 Z0.5
M204 S1800
M205 X8 Y8
;TYPE:SUPPORT
G1 F2400 E92.50805
G1 F2550 X134.741 Y89.148 E92.51351
G1 X174.509 Y89.148 E93.8362
G1 X174.625 Y89.264 E93.84165
G1 X174.625 Y120.787 E94.89011
G1 X174.509 Y120.903 E94.89557
G1 X134.741 Y120.903 E96.21826
G1 X134.625 Y120.787 E96.22371
G1 X134.625 Y89.264 E97.27217
M204 S3000
M205 X10 Y10
G0 F4500 X136 Y89.288
M204 S1800
M205 X8 Y8
G1 F2550 X136 Y120.763 E98.31903
M204 S3000
M205 X10 Y10
G0 F4500 X134.764 Y116.183
M204 S1800
M205 X8 Y8
G1 F2550 X174.484 Y93.251 E99.84449
M204 S3000
M205 X10 Y10
G0 F4500 X174.484 Y91.501
M204 S1800
M205 X8 Y8
G1 F2550 X170.652 Y89.288 E99.99167
M204 S3000
M205 X10 Y10
G0 F4500 X168 Y89.288
M204 S1800
M205 X8 Y8
G1 F2550 X168 Y120.763 E101.03854
M204 S3000
M205 X10 Y10
G0 F4500 X174.484 Y119.213
M204 S1800
M205 X8 Y8
G1 F2550 X134.764 Y96.281 E102.564
M204 S3000
M205 X10 Y10
G0 F4500 X134.765 Y97.707
M204 S1800
M205 X8 Y8
G1 F2550 X149.348 Y89.287 E103.12407
M204 S3000
M205 X10 Y10
G0 F4500 X152 Y89.288
M204 S1800
M205 X8 Y8
G1 F2550 X152 Y120.763 E104.17094
M204 S3000
M205 X10 Y10
G0 F4500 X158.832 Y120.763
M204 S1800
M205 X8 Y8
G1 F2550 X174.483 Y111.726 E104.77204
M204 S3000
M205 X10 Y10
G0 F4500 X174.484 Y109.976
M204 S1800
M205 X8 Y8
G1 F2550 X138.65 Y89.287 E106.14826
M204 S3000
M205 X10 Y10
G0 F4500 X144 Y89.288
M204 S1800
M205 X8 Y8
G1 F2550 X144 Y120.763 E107.19512
M204 S3000
M205 X10 Y10
G0 F4500 X145.166 Y120.762
M204 S1800
M205 X8 Y8
G1 F2550 X134.764 Y114.756 E107.59463
M204 S3000
M205 X10 Y10
G0 F4500 X134.764 Y106.945
M204 S1800
M205 X8 Y8
G1 F2550 X165.348 Y89.288 E108.76921
M204 S3000
M205 X10 Y10
G0 F4500 X160 Y89.288
M204 S1800
M205 X8 Y8
G1 F2550 X160 Y120.763 E109.81607
M204 S3000
M205 X10 Y10
G0 F4500 X161.166 Y120.762
M204 S1800
M205 X8 Y8
G1 F2550 X134.764 Y105.519 E110.83005
M204 S3000
M205 X10 Y10
G0 F4500 X142.831 Y120.763
M204 S1800
M205 X8 Y8
G1 F2550 X174.483 Y102.488 E112.04567
M204 S3000
M205 X10 Y10
G0 F4500 X174.485 Y100.739
M204 S1800
M205 X8 Y8
G1 F2550 X154.651 Y89.288 E112.8074
M204 S3000
M205 X10 Y10
G1 F2400 E106.8074
;MESH:15fb489b-02b0-4884-99a1-2e4615c8585f.stl
G0 F4500 X84.468 Y102.571
G0 X70.886 Y113.807
G0 X70.154 Y114.854
G0 X68.01 Y117.244
M204 S1800
M205 X8 Y8
;TYPE:WALL-INNER
G1 F2400 E112.8074
G1 F2250 X67.896 Y117.407 E112.81402
G1 X67.733 Y117.293 E112.81829
G1 X36.768 Y95.611 E114.07556
G1 X38.373 Y93.317 E114.16868
G1 X38.487 Y93.154 E114.1753
G1 X38.65 Y93.268 E114.17957
G1 X69.616 Y114.949 E115.43685
G1 X68.01 Y117.244 E115.53002
M204 S3000
M205 X10 Y10
G0 F4500 X68.108 Y117.801
M204 S1800
M205 X8 Y8
G1 F2250 X67.994 Y117.964 E115.53664
G1 X67.831 Y117.85 E115.5409
G1 X36.211 Y95.709 E116.82478
G1 X38.275 Y92.76 E116.9445
G1 X38.389 Y92.597 E116.95112
G1 X38.552 Y92.711 E116.95539
G1 X70.173 Y114.851 E118.23928
G1 X68.108 Y117.801 E118.35904
M204 S3000
M205 X10 Y10
G0 F4500 X68.206 Y118.358
M204 S1800
M205 X8 Y8
;TYPE:WALL-OUTER
G1 F2250 X68.092 Y118.521 E118.36566
G1 X67.929 Y118.407 E118.36993
G1 X35.654 Y95.807 E119.68041
G1 X38.177 Y92.203 E119.82673
G1 X38.291 Y92.04 E119.83335
G1 X38.454 Y92.154 E119.83762
G1 X70.73 Y114.753 E121.14811
G1 X68.206 Y118.358 E121.29448
M204 S3000
M205 X10 Y10
G0 F4500 X68.092 Y118.521
G0 X68.091 Y118.52
G0 X67.977 Y117.866
G0 X67.8 Y116.863
M204 S1800
M205 X8 Y8
;TYPE:SKIN
G1 F1500 X37.312 Y95.515 E122.53238
G1 X38.583 Y93.698 E122.60614
G1 X69.072 Y115.045 E123.84405
G1 X67.8 Y116.863 E123.91785
M204 S3000
M205 X10 Y10
G0 F4500 X67.45 Y116.397
M204 S1800
M205 X8 Y8
G1 F1500 X68.785 Y115.062 E123.98065
M204 S3000
M205 X10 Y10
G0 F4500 X68.452 Y114.829
M204 S1800
M205 X8 Y8
G1 F1500 X67.117 Y116.164 E124.04344
M204 S3000
M205 X10 Y10
G0 F4500 X66.784 Y115.931
M204 S1800
M205 X8 Y8
G1 F1500 X68.119 Y114.596 E124.10623
M204 S3000
M205 X10 Y10
G0 F4500 X67.786 Y114.363
M204 S1800
M205 X8 Y8
G1 F1500 X66.451 Y115.698 E124.16903
M204 S3000
M205 X10 Y10
G0 F4500 X66.119 Y115.465
M204 S1800
M205 X8 Y8
G1 F1500 X67.454 Y114.13 E124.23182
M204 S3000
M205 X10 Y10
G0 F4500 X67.121 Y113.897
M204 S1800
M205 X8 Y8
G1 F1500 X65.786 Y115.232 E124.29462
M204 S3000
M205 X10 Y10
G0 F4500 X65.454 Y114.999
M204 S1800
M205 X8 Y8
G1 F1500 X66.788 Y113.665 E124.35736
M204 S3000
M205 X10 Y10
G0 F4500 X66.456 Y113.431
M204 S1800
M205 X8 Y8
G1 F1500 X65.12 Y114.766 E124.42018
M204 S3000
M205 X10 Y10
G0 F4500 X64.787 Y114.534
M204 S1800
M205 X8 Y8
G1 F1500 X66.122 Y113.199 E124.48298
M204 S3000
M205 X10 Y10
G0 F4500 X65.79 Y112.965
M204 S1800
M205 X8 Y8
